; generated by PrusaSlicer 2.6.0-alpha5+win64 on 2023-07-18 at 17:36:52 UTC


;
;
; 

; external perimeters extrusion width = 0.60mm
; perimeters extrusion width = 0.60mm
; infill extrusion width = 0.50mm
; solid infill extrusion width = 0.45mm
; top infill extrusion width = 0.40mm
; first layer extrusion width = 0.80mm

M73 P0 R79
M73 Q0 S96
M201 X5000 Y5000 Z200 E10000 ; sets maximum accelerations, mm/sec^2
M203 X200 Y200 Z30 E120 ; sets maximum feedrates, mm / sec
M204 P3000 R3000 T3000 ; sets acceleration (P, T) and retract acceleration (R), mm/sec^2
M205 X8.00 Y8.00 Z0.40 E4.50 ; sets the jerk limits, mm/sec
M205 S0 T0 ; sets the minimum extruding and travel feed rate, mm/sec
M107
;TYPE:Custom
M862.3 P "MK3" ; printer model check
M862.1 P0.4 ; nozzle diameter check
M115 U3.12.1 ; tell printer latest fw version
G90 ; use absolute coordinates
M83 ; extruder relative mode
M104 S245 ; set extruder temp
M140 S85 ; set bed temp
M190 S85 ; wait for bed temp
M109 S245 ; wait for extruder temp
G28 W ; home all without mesh bed level
G80 ; mesh bed leveling

G1 Z0.2 F720
G1 Y-3 F1000 ; go outside print area
G92 E0
G1 X60 E9 F1000 ; intro line
G1 X100 E12.5 F1000 ; intro line

G92 E0
M221 S95

; Don't change E values below. Excessive value can damage the printer.

G21 ; set units to millimeters
G90 ; use absolute coordinates
M83 ; use relative distances for extrusion
M900 K0.08 ; Filament gcode LA 1.5
M900 K45 ; Filament gcode LA 1.0
M107
;LAYER_CHANGE
;Z:0.4
;HEIGHT:0.4
;BEFORE_LAYER_CHANGE
G92 E0.0
;0.4


G1 Z.4 F1800
;AFTER_LAYER_CHANGE
;0.4
G1 E-.8 F18000
G1 X96.512 Y57.246 F10800
G1 E.8 F18000
M204 S3000
;TYPE:Skirt/Brim
;WIDTH:0.8
G1 F1440
G1 X96.758 Y56.831 E.0573
G1 X97.75 Y55.5 E.19715
G1 X98.871 Y54.281 E.19668
G1 X100.227 Y53.091 E.21427
G1 X101.686 Y52.072 E.21136
G1 X103.216 Y51.236 E.20707
G1 X105.56 Y50.332 E.29837
G1 X107.071 Y49.961 E.18478
G1 X108.575 Y49.736 E.18061
G1 X111.575 Y49.718 E.3563
G1 X113.266 Y49.958 E.20284
G1 X128.325 Y53.075 E1.8264
G1 X130.075 Y53.537 E.21496
G1 X131.786 Y54.163 E.21638
G1 X133.443 Y54.954 E.21807
G1 X134.824 Y55.77 E.19051
G1 X136.088 Y56.66 E.1836
G1 X137.307 Y57.674 E.18832
G1 X138.934 Y59.332 E.27589
G1 X139.951 Y60.605 E.19351
G1 X140.874 Y61.984 E.19708
G1 X141.432 Y62.958 E.13332
G1 X141.914 Y63.926 E.12843
G1 X142.636 Y65.709 E.22846
G1 X143.185 Y67.57 E.23044
G1 X143.426 Y68.744 E.14234
G1 X143.64 Y70.32 E.18889
G1 X143.725 Y71.992 E.19883
G1 X143.725 Y95.655 E2.81034
G1 X143.742 Y96.358 E.08352
G1 X143.783 Y96.928 E.06787
G1 X143.853 Y97.495 E.06785
G1 X143.95 Y98.059 E.06797
G1 X144.074 Y98.616 E.06777
G1 X144.225 Y99.167 E.06785
G1 X144.399 Y99.697 E.06625
G1 X144.607 Y100.244 E.0695
G1 X144.843 Y100.779 E.06945
G1 X145.092 Y101.278 E.06623
G1 X145.371 Y101.776 E.06779
G1 X145.675 Y102.26 E.06788
G1 X146.002 Y102.729 E.0679
G1 X146.351 Y103.181 E.06782
G1 X146.728 Y103.623 E.069
G1 X148.277 Y105.281 E.26948
G1 X149.202 Y106.378 E.17042
G1 X150.083 Y107.525 E.17177
G1 X150.948 Y108.77 E.18005
G1 X151.754 Y110.06 E.18065
G1 X152.505 Y111.405 E.18295
G1 X153.19 Y112.789 E.1834
G1 X153.813 Y114.227 E.18612
G1 X154.367 Y115.702 E.18713
G1 X154.907 Y117.425 E.21445
G1 X155.345 Y119.188 E.21575
G1 X155.588 Y120.375 E.1439
G1 X155.81 Y121.794 E.17058
G1 X155.968 Y123.249 E.17382
G1 X156.057 Y124.702 E.17289
G1 X156.073 Y126.484 E.21165
G1 X156.002 Y128.055 E.18677
G1 X155.853 Y129.614 E.186
G1 X155.63 Y131.139 E.18304
G1 X155.336 Y132.628 E.18026
G1 X154.975 Y134.084 E.17816
G1 X154.542 Y135.527 E.17893
G1 X154.046 Y136.929 E.17662
G1 X153.483 Y138.308 E.1769
G1 X152.848 Y139.672 E.17869
G1 X152.108 Y141.075 E.18838
G1 X151.295 Y142.442 E.18889
G1 X150.423 Y143.751 E.1868
G1 X149.477 Y145.027 E.18865
G1 X148.495 Y146.22 E.18351
G1 X147.462 Y147.354 E.18218
G1 X146.409 Y148.404 E.17661
G1 X145.725 Y149.017 E.10908
G1 X145.652 Y149.355 E.04107
G1 X145.123 Y150.996 E.20477
G1 X144.24 Y152.854 E.24432
G1 X143.135 Y154.523 E.23773
G1 X142.299 Y155.517 E.15425
G1 X141.415 Y156.396 E.14806
G1 X140.453 Y157.199 E.14882
G1 X139.219 Y158.042 E.17749
G1 X137.449 Y158.963 E.23697
G1 X136.168 Y159.444 E.16251
G1 X134.835 Y159.806 E.16405
G1 X133.347 Y160.054 E.17916
G1 X131.819 Y160.145 E.18179
G1 X127.971 Y159.954 E.45757
G1 X126.277 Y159.674 E.20392
G1 X124.988 Y159.306 E.1592
G1 X124.087 Y159.586 E.11206
G1 X122.482 Y159.9 E.19423
G1 X117.219 Y160.312 E.62697
G1 X115.667 Y160.329 E.18433
G1 X114.434 Y160.225 E.14696
G1 X113.203 Y160.014 E.14833
G1 X111.607 Y159.574 E.19662
G1 X110.423 Y159.115 E.15081
G1 X109.292 Y158.56 E.14962
G1 X108.078 Y157.817 E.16904
G1 X106.875 Y156.903 E.17943
G1 X105.782 Y155.881 E.17772
G1 X104.698 Y154.617 E.19776
G1 X103.726 Y153.173 E.20673
G1 X102.985 Y151.74 E.1916
G1 X102.407 Y150.236 E.19136
G1 X102.016 Y148.76 E.18134
G1 X101.793 Y147.352 E.16931
G1 X101.736 Y146.473 E.10461
G1 X101.143 Y145.795 E.10698
G1 X100.287 Y144.722 E.16302
G1 X99.418 Y143.525 E.17567
G1 X98.542 Y142.182 E.19043
G1 X97.759 Y140.837 E.18484
G1 X97.046 Y139.46 E.18416
G1 X96.448 Y138.153 E.1707
G1 X95.91 Y136.819 E.17083
G1 X95.388 Y135.313 E.1893
G1 X94.974 Y133.901 E.17476
G1 X94.626 Y132.46 E.17606
G1 X94.352 Y131.039 E.17187
G1 X94.145 Y129.607 E.17184
G1 X94 Y128.105 E.17921
G1 X93.923 Y126.313 E.21302
G1 X93.934 Y124.957 E.16105
G1 X94.003 Y123.605 E.16078
G1 X94.169 Y121.953 E.19719
G1 X94.423 Y120.305 E.19804
G1 X94.718 Y118.879 E.17295
G1 X95.274 Y116.675 E.26996
G1 X95.447 Y115.813 E.10442
G1 X95.578 Y114.944 E.10437
G1 X95.667 Y114.069 E.10446
G1 X95.712 Y113.191 E.10441
G1 X95.714 Y112.312 E.10439
G1 X95.674 Y111.433 E.1045
G1 X95.59 Y110.558 E.1044
G1 X95.464 Y109.688 E.1044
G1 X95.295 Y108.825 E.10444
G1 X95.078 Y107.946 E.10753
G1 X94.48 Y105.848 E.25909
G1 X94.122 Y103.765 E.25101
G1 X94.041 Y102.228 E.1828
G1 X94.104 Y100.685 E.18341
G1 X94.47 Y98.42 E.27249
G1 X94.945 Y96.798 E.20073
G1 X95.605 Y95.194 E.206
G1 X96.6 Y93.403 E.24333
G1 X97.571 Y92.052 E.19759
G1 X98.674 Y90.809 E.19737
G1 X100.199 Y89.444 E.24307
G1 X101.916 Y88.264 E.24743
G1 X103.374 Y87.494 E.19582
G1 X104.895 Y86.879 E.19485
G1 X106.308 Y86.461 E.175
G1 X106.894 Y86.343 E.07099
G1 X106.894 Y81.559 E.56817
G1 X105.892 Y81.346 E.12166
G1 X104.122 Y80.747 E.22193
G1 X102.496 Y79.981 E.21347
G1 X100.818 Y78.935 E.23484
G1 X99.207 Y77.625 E.2466
G1 X97.91 Y76.273 E.22251
G1 X96.765 Y74.764 E.22497
G1 X95.768 Y73.053 E.23519
G1 X94.994 Y71.256 E.23238
G1 X94.423 Y69.281 E.24417
G1 X94.123 Y67.431 E.22259
G1 X94.042 Y65.576 E.22052
G1 X94.185 Y63.634 E.23127
G1 X94.477 Y62.062 E.18989
G1 X94.969 Y60.397 E.2062
G1 X95.879 Y58.312 E.27018
G1 X96.481 Y57.298 E.14005
G1 X97.094 Y57.663 F10800
G1 F1440
G1 X97.362 Y57.213 E.0622
G1 X98.311 Y55.942 E.18839
G1 X99.383 Y54.779 E.18785
G1 X100.652 Y53.665 E.20055
G1 X102.046 Y52.689 E.2021
G1 X103.537 Y51.874 E.20181
G1 X105.753 Y51.02 E.28205
G1 X107.194 Y50.665 E.17626
G1 X108.656 Y50.446 E.17557
G1 X111.501 Y50.428 E.33789
G1 X113.133 Y50.66 E.19577
G1 X128.171 Y53.772 E1.82383
G1 X129.846 Y54.214 E.20574
G1 X131.494 Y54.815 E.20833
G1 X133.121 Y55.591 E.21408
G1 X134.448 Y56.377 E.18317
G1 X135.642 Y57.218 E.17345
G1 X136.837 Y58.212 E.1846
G1 X138.388 Y59.792 E.26295
G1 X139.384 Y61.038 E.18945
G1 X140.273 Y62.37 E.19019
G1 X140.806 Y63.303 E.12761
G1 X141.269 Y64.232 E.12328
G1 X141.956 Y65.929 E.21743
G1 X142.489 Y67.729 E.22295
G1 X142.72 Y68.853 E.13628
G1 X142.927 Y70.372 E.18207
G1 X143.01 Y72.001 E.19372
G1 X143.01 Y95.664 E2.81034
G1 X143.028 Y96.393 E.08661
G1 X143.072 Y96.998 E.07204
G1 X143.146 Y97.599 E.07192
G1 X143.249 Y98.197 E.07207
G1 X143.381 Y98.788 E.07192
G1 X143.541 Y99.373 E.07203
G1 X143.725 Y99.936 E.07035
G1 X143.946 Y100.515 E.0736
G1 X144.196 Y101.082 E.0736
G1 X144.461 Y101.612 E.07038
G1 X144.757 Y102.141 E.07199
G1 X145.079 Y102.654 E.07193
G1 X145.426 Y103.152 E.07209
G1 X145.796 Y103.631 E.07188
G1 X146.195 Y104.099 E.07304
G1 X147.737 Y105.749 E.26822
G1 X148.651 Y106.832 E.16831
G1 X149.511 Y107.953 E.1678
G1 X150.357 Y109.17 E.17603
G1 X151.143 Y110.43 E.17637
G1 X151.877 Y111.745 E.17886
G1 X152.545 Y113.098 E.17921
G1 X153.155 Y114.503 E.18191
G1 X153.695 Y115.943 E.18265
G1 X154.223 Y117.628 E.20971
G1 X154.647 Y119.339 E.20935
G1 X154.884 Y120.494 E.14003
G1 X155.101 Y121.88 E.16661
G1 X155.255 Y123.301 E.16975
M73 Q0 S95
G1 X155.343 Y124.736 E.17075
G1 X155.359 Y126.461 E.20488
G1 X155.29 Y127.996 E.18249
G1 X155.145 Y129.52 E.18182
G1 X154.927 Y131.01 E.17884
G1 X154.641 Y132.465 E.17611
G1 X154.288 Y133.888 E.17413
G1 X153.866 Y135.297 E.17468
G1 X153.382 Y136.668 E.17268
G1 X152.832 Y138.015 E.1728
G1 X152.212 Y139.347 E.17449
G1 X151.49 Y140.718 E.18403
G1 X150.695 Y142.054 E.18464
G1 X149.834 Y143.347 E.18449
G1 X148.909 Y144.594 E.1844
G1 X147.949 Y145.759 E.17929
G1 X146.94 Y146.867 E.17798
G1 X145.911 Y147.892 E.17249
G1 X145.072 Y148.643 E.13373
G1 X144.966 Y149.156 E.06221
G1 X144.451 Y150.754 E.1994
G1 X143.606 Y152.523 E.23283
G1 X142.552 Y154.111 E.22636
G1 X141.764 Y155.043 E.14495
G1 X140.923 Y155.877 E.14067
G1 X140.009 Y156.639 E.14133
G1 X138.87 Y157.419 E.16395
G1 X137.176 Y158.302 E.22688
G1 X135.964 Y158.76 E.15388
G1 X134.699 Y159.105 E.15573
G1 X133.285 Y159.342 E.17028
G1 X131.834 Y159.43 E.17264
G1 X128.067 Y159.246 E.44792
G1 X126.414 Y158.973 E.19898
G1 X124.979 Y158.56 E.17735
G1 X123.929 Y158.889 E.13068
G1 X122.405 Y159.189 E.18447
G1 X117.175 Y159.599 E.62305
G1 X115.71 Y159.616 E.174
M73 P0 R78
G1 X114.51 Y159.514 E.14303
G1 X113.342 Y159.314 E.14074
G1 X111.847 Y158.901 E.1842
G1 X110.724 Y158.467 E.14299
G1 X109.622 Y157.926 E.1458
G1 X108.467 Y157.218 E.16089
G1 X107.349 Y156.369 E.16673
G1 X106.31 Y155.4 E.16873
G1 X105.278 Y154.2 E.18797
G1 X104.35 Y152.825 E.19701
G1 X103.644 Y151.465 E.18199
G1 X103.092 Y150.033 E.18227
G1 X102.718 Y148.63 E.17245
G1 X102.501 Y147.257 E.16509
G1 X102.434 Y146.186 E.12745
G1 X101.697 Y145.344 E.1329
G1 X100.85 Y144.283 E.16124
G1 X100.011 Y143.127 E.16964
G1 X99.155 Y141.815 E.18605
G1 X98.38 Y140.485 E.18282
G1 X97.685 Y139.14 E.1798
G1 X97.101 Y137.863 E.16677
G1 X96.576 Y136.56 E.16684
G1 X96.065 Y135.087 E.18517
G1 X95.662 Y133.709 E.17051
G1 X95.325 Y132.317 E.1701
G1 X95.058 Y130.929 E.16787
G1 X94.853 Y129.513 E.16992
G1 X94.712 Y128.046 E.17503
G1 X94.637 Y126.31 E.20637
G1 X94.647 Y124.986 E.15725
G1 X94.716 Y123.65 E.15888
G1 X94.878 Y122.034 E.19289
G1 X95.125 Y120.44 E.19157
G1 X95.415 Y119.031 E.17085
G1 X95.971 Y116.833 E.26927
G1 X96.151 Y115.937 E.10854
G1 X96.287 Y115.033 E.10857
G1 X96.379 Y114.123 E.10863
G1 X96.426 Y113.21 E.10858
G1 X96.429 Y112.296 E.10855
G1 X96.386 Y111.383 E.10855
G1 X96.299 Y110.473 E.10857
G1 X96.168 Y109.568 E.1086
G1 X95.993 Y108.671 E.10854
G1 X95.768 Y107.762 E.11122
G1 X95.18 Y105.707 E.25386
G1 X94.834 Y103.706 E.24118
G1 X94.755 Y102.207 E.17828
G1 X94.817 Y100.736 E.17486
G1 X95.162 Y98.599 E.25709
G1 X95.613 Y97.051 E.19149
G1 X96.24 Y95.522 E.19627
G1 X97.193 Y93.802 E.23354
G1 X98.118 Y92.511 E.18862
G1 X99.167 Y91.326 E.18796
G1 X100.623 Y90.019 E.23237
G1 X102.269 Y88.886 E.23732
G1 X103.691 Y88.134 E.19105
G1 X105.146 Y87.548 E.18629
G1 X106.493 Y87.151 E.16678
G1 X107.608 Y86.933 E.13493
G1 X107.608 Y80.978 E.70725
G1 X106.099 Y80.662 E.1831
G1 X104.406 Y80.092 E.21216
G1 X102.855 Y79.363 E.20354
G1 X101.215 Y78.341 E.2295
G1 X99.707 Y77.114 E.23089
G1 X98.465 Y75.824 E.21267
G1 X97.37 Y74.384 E.21485
G1 X96.415 Y72.751 E.22467
G1 X95.658 Y70.994 E.22721
G1 X95.124 Y69.145 E.22857
G1 X94.836 Y67.379 E.21251
G1 X94.757 Y65.566 E.21553
G1 X94.896 Y63.708 E.22128
G1 X95.176 Y62.211 E.18087
G1 X95.632 Y60.662 E.19177
G1 X96.525 Y58.619 E.2648
G1 X97.063 Y57.714 E.12504
G1 X97.675 Y58.08 F10800
G1 F1440
G1 X97.965 Y57.596 E.06701
G1 X98.871 Y56.386 E.17953
G1 X99.895 Y55.277 E.17927
G1 X101.079 Y54.238 E.18708
G1 X102.406 Y53.306 E.19259
G1 X103.859 Y52.512 E.19665
G1 X105.947 Y51.708 E.26573
G1 X107.316 Y51.368 E.16753
G1 X108.736 Y51.156 E.17052
G1 X111.427 Y51.139 E.3196
G1 X112.999 Y51.361 E.18855
G1 X128.017 Y54.469 E1.82141
G1 X129.647 Y54.9 E.20024
G1 X131.232 Y55.48 E.20045
G1 X132.798 Y56.229 E.20616
G1 X134.071 Y56.984 E.17578
G1 X135.196 Y57.776 E.1634
G1 X136.366 Y58.749 E.18073
G1 X137.841 Y60.252 E.2501
G1 X138.816 Y61.472 E.18548
G1 X139.672 Y62.755 E.18318
G1 X140.181 Y63.648 E.12208
G1 X140.623 Y64.538 E.11802
G1 X141.277 Y66.149 E.2065
G1 X141.793 Y67.889 E.21555
G1 X142.015 Y68.962 E.13013
G1 X142.215 Y70.424 E.17525
G1 X142.296 Y72.01 E.18861
G1 X142.296 Y95.673 E2.81034
G1 X142.315 Y96.428 E.0897
G1 X142.361 Y97.067 E.07609
G1 X142.439 Y97.703 E.0761
G1 X142.548 Y98.335 E.07617
G1 X142.687 Y98.961 E.07616
G1 X142.857 Y99.579 E.07612
G1 X143.052 Y100.174 E.07436
G1 X143.286 Y100.786 E.07782
G1 X143.549 Y101.386 E.0778
G1 X143.829 Y101.947 E.07447
G1 X144.143 Y102.506 E.07615
G1 X144.483 Y103.049 E.07609
G1 X144.85 Y103.574 E.07608
G1 X145.242 Y104.082 E.07621
G1 X145.662 Y104.575 E.07692
G1 X147.197 Y106.217 E.26695
G1 X148.09 Y107.273 E.16425
G1 X148.94 Y108.381 E.16585
G1 X149.765 Y109.57 E.17188
G1 X150.533 Y110.801 E.17232
G1 X151.249 Y112.085 E.1746
G1 X151.901 Y113.406 E.17496
G1 X152.496 Y114.778 E.17761
G1 X153.022 Y116.185 E.1784
G1 X153.532 Y117.811 E.20239
G1 X153.949 Y119.49 E.20546
G1 X154.18 Y120.613 E.13617
G1 X154.392 Y121.965 E.16253
G1 X154.544 Y123.37 E.16784
G1 X154.63 Y124.771 E.1667
G1 X154.645 Y126.439 E.19811
G1 X154.579 Y127.937 E.17808
G1 X154.437 Y129.426 E.17764
G1 X154.225 Y130.881 E.17463
G1 X153.946 Y132.302 E.17199
G1 X153.602 Y133.691 E.16995
G1 X153.189 Y135.068 E.17074
G1 X152.717 Y136.406 E.16851
G1 X152.181 Y137.722 E.16876
G1 X151.577 Y139.022 E.17025
G1 X150.862 Y140.377 E.18196
G1 X150.086 Y141.681 E.18022
G1 X149.245 Y142.944 E.18021
G1 X148.341 Y144.161 E.18005
G1 X147.404 Y145.298 E.17498
G1 X146.418 Y146.379 E.17377
G1 X145.414 Y147.379 E.1683
G1 X144.418 Y148.27 E.15871
G1 X144.28 Y148.957 E.08322
G1 X143.779 Y150.511 E.19392
G1 X142.973 Y152.191 E.2213
G1 X141.97 Y153.697 E.2149
G1 X141.23 Y154.569 E.13583
G1 X140.432 Y155.359 E.13336
G1 X139.565 Y156.079 E.13385
G1 X138.52 Y156.796 E.15051
G1 X136.903 Y157.642 E.21674
G1 X135.758 Y158.075 E.14538
G1 X134.563 Y158.403 E.14717
G1 X133.185 Y158.635 E.16596
G1 X131.811 Y158.716 E.16347
G1 X128.123 Y158.533 E.43854
G1 X126.553 Y158.272 E.18902
G1 X125.294 Y157.908 E.15565
G1 X125.02 Y157.799 E.03502
G1 X123.77 Y158.192 E.15562
G1 X122.328 Y158.479 E.17462
G1 X117.131 Y158.886 E.61911
G1 X115.752 Y158.903 E.16379
G1 X114.615 Y158.808 E.13551
G1 X113.48 Y158.613 E.13677
G1 X112.088 Y158.228 E.17153
G1 X110.996 Y157.807 E.139
G1 X109.953 Y157.293 E.1381
G1 X108.856 Y156.619 E.15291
G1 X107.796 Y155.811 E.1583
G1 X106.838 Y154.918 E.15554
G1 X105.857 Y153.782 E.17826
G1 X104.974 Y152.477 E.18713
G1 X104.287 Y151.153 E.17715
G1 X103.777 Y149.83 E.1684
G1 X103.421 Y148.5 E.16352
G1 X103.209 Y147.163 E.16077
G1 X103.132 Y145.9 E.15028
G1 X102.25 Y144.892 E.15907
G1 X101.413 Y143.844 E.15929
G1 X100.604 Y142.729 E.16361
G1 X99.767 Y141.448 E.18174
G1 X99.002 Y140.134 E.18058
G1 X98.323 Y138.82 E.17566
G1 X97.754 Y137.574 E.16268
G1 X97.242 Y136.302 E.16285
G1 X96.743 Y134.861 E.18111
G1 X96.35 Y133.517 E.1663
G1 X96.025 Y132.173 E.16422
G1 X95.761 Y130.802 E.16582
G1 X95.561 Y129.419 E.16596
G1 X95.424 Y127.987 E.17085
G1 X95.351 Y126.306 E.19983
G1 X95.361 Y124.999 E.15523
G1 X95.429 Y123.696 E.15496
G1 X95.585 Y122.134 E.18643
G1 X95.826 Y120.576 E.18724
G1 X96.113 Y119.183 E.16891
G1 X96.667 Y116.991 E.26852
G1 X96.854 Y116.061 E.11266
G1 X96.996 Y115.122 E.11279
G1 X97.091 Y114.178 E.11268
G1 X97.14 Y113.23 E.11274
G1 X97.143 Y112.281 E.11271
G1 X97.099 Y111.332 E.11283
G1 X97.009 Y110.387 E.11274
G1 X96.872 Y109.448 E.1127
G1 X96.69 Y108.517 E.11266
G1 X96.459 Y107.577 E.11496
G1 X95.88 Y105.565 E.24865
G1 X95.546 Y103.646 E.23134
G1 X95.469 Y102.22 E.16961
G1 X95.529 Y100.787 E.17034
G1 X95.854 Y98.777 E.24182
G1 X96.282 Y97.303 E.18229
G1 X96.876 Y95.848 E.18665
G1 X97.786 Y94.2 E.22358
G1 X98.666 Y92.969 E.17971
G1 X99.66 Y91.843 E.17838
