; generated by PrusaSlicer 2.6.0-alpha5+win64 on 2023-07-17 at 13:51:54 UTC


;
;
; 

; external perimeters extrusion width = 0.50mm
; perimeters extrusion width = 0.50mm
; infill extrusion width = 0.50mm
; solid infill extrusion width = 0.45mm
; top infill extrusion width = 0.40mm
; first layer extrusion width = 0.50mm

M73 P0 R15
M73 Q0 S16
M201 X5000 Y5000 Z200 E10000 ; sets maximum accelerations, mm/sec^2
M203 X200 Y200 Z30 E120 ; sets maximum feedrates, mm / sec
M204 P3000 R3000 T3000 ; sets acceleration (P, T) and retract acceleration (R), mm/sec^2
M205 X8.00 Y8.00 Z0.40 E4.50 ; sets the jerk limits, mm/sec
M205 S0 T0 ; sets the minimum extruding and travel feed rate, mm/sec
M107
;TYPE:Custom
M862.3 P "MK3" ; printer model check
M862.1 P0.4 ; nozzle diameter check
M115 U3.12.1 ; tell printer latest fw version
G90 ; use absolute coordinates
M83 ; extruder relative mode
M104 S245 ; set extruder temp
M140 S85 ; set bed temp
M190 S85 ; wait for bed temp
M109 S245 ; wait for extruder temp
G28 W ; home all without mesh bed level
G80 ; mesh bed leveling

G1 Z0.2 F720
G1 Y-3 F1000 ; go outside print area
G92 E0
G1 X60 E9 F1000 ; intro line
G1 X100 E12.5 F1000 ; intro line

G92 E0
M221 S95

; Don't change E values below. Excessive value can damage the printer.

G21 ; set units to millimeters
G90 ; use absolute coordinates
M83 ; use relative distances for extrusion
M900 K0.08 ; Filament gcode LA 1.5
M900 K45 ; Filament gcode LA 1.0
M107
;LAYER_CHANGE
;Z:0.3
;HEIGHT:0.3
;BEFORE_LAYER_CHANGE
G92 E0.0
;0.3


G1 Z.3 F1800
;AFTER_LAYER_CHANGE
;0.3
G1 E-.8 F18000
G1 X112.428 Y94.954 F10800
G1 E.8 F18000
M204 S3000
;TYPE:Skirt/Brim
;WIDTH:0.5
G1 F1200
G1 X113.039 Y94.24 E.05106
G1 X114.149 Y93.21 E.08227
G1 X117.689 Y90.767 E.23369
G1 X118.525 Y90.31 E.05177
G1 X119.927 Y89.778 E.08147
G1 X120.859 Y89.565 E.05194
G1 X125.129 Y89.047 E.2337
G1 X126.469 Y89.064 E.07281
G1 X127.567 Y89.211 E.06019
G1 X128.488 Y89.454 E.05175
G1 X132.515 Y90.981 E.234
G1 X133.368 Y91.41 E.05188
G1 X134.602 Y92.261 E.08144
G1 X135.306 Y92.908 E.05195
G1 X138.158 Y96.127 E.23367
G1 X138.99 Y97.395 E.0824
G1 X139.408 Y98.225 E.05049
G1 X139.731 Y99.123 E.05185
G1 X140.763 Y103.304 E.23398
G1 X140.894 Y104.25 E.05189
G1 X140.894 Y105.751 E.08155
G1 X140.763 Y106.696 E.05184
G1 X139.733 Y110.872 E.23369
G1 X139.24 Y112.124 E.07311
M73 P1 R15
G1 X138.713 Y113.099 E.06022
G1 X138.157 Y113.874 E.05182
G1 X135.305 Y117.093 E.23367
G1 X134.603 Y117.738 E.0518
G1 X133.832 Y118.29 E.05152
G1 X132.514 Y119.019 E.08183
G1 X128.493 Y120.544 E.23366
M73 Q1 S16
G1 X127.571 Y120.788 E.05182
G1 X126.081 Y120.969 E.08155
G1 X125.127 Y120.953 E.05184
G1 X120.857 Y120.434 E.23371
G1 X119.928 Y120.222 E.05177
G1 X118.526 Y119.691 E.08146
G1 X117.687 Y119.232 E.05196
G1 X114.148 Y116.788 E.23368
G1 X113.423 Y116.168 E.05183
G1 X112.788 Y115.476 E.05103
G1 X111.899 Y114.25 E.08228
G1 X109.901 Y110.442 E.23365
G1 X109.547 Y109.556 E.05184
G1 X109.188 Y108.098 E.08158
G1 X109.089 Y107.149 E.05184
G1 X109.09 Y102.848 E.23369
M73 P1 R14
G1 X109.188 Y101.901 E.05173
G1 X109.545 Y100.453 E.08103
G1 X109.898 Y99.566 E.05187
G1 X111.9 Y95.75 E.23414
G1 X112.395 Y95.004 E.04864
G1 X112.756 Y95.244 F10800
G1 F1200
G1 X113.365 Y94.529 E.05103
G1 X114.396 Y93.569 E.07654
G1 X117.936 Y91.126 E.23369
G1 X118.694 Y90.712 E.04693
G1 X120.067 Y90.19 E.07981
G1 X120.912 Y89.998 E.04708
G1 X125.181 Y89.479 E.23365
G1 X126.431 Y89.498 E.06792
G1 X127.499 Y89.641 E.05855
G1 X128.333 Y89.862 E.04688
G1 X132.361 Y91.388 E.23403
G1 X133.133 Y91.777 E.04697
G1 X134.342 Y92.611 E.0798
G1 X134.98 Y93.196 E.04703
G1 X137.832 Y96.416 E.23371
G1 X138.605 Y97.597 E.07669
G1 X139.016 Y98.415 E.04974
G1 X139.308 Y99.227 E.04688
G1 X140.34 Y103.409 E.23404
G1 X140.459 Y104.265 E.04696
G1 X140.459 Y105.736 E.07992
G1 X140.34 Y106.592 E.04696
G1 X139.31 Y110.768 E.23369
G1 X138.847 Y111.935 E.06821
G1 X138.334 Y112.883 E.05857
G1 X137.831 Y113.585 E.04692
G1 X134.979 Y116.805 E.23371
G1 X134.343 Y117.388 E.04688
G1 X133.584 Y117.931 E.05071
G1 X132.36 Y118.612 E.0761
G1 X128.338 Y120.137 E.23371
G1 X127.504 Y120.358 E.04688
G1 X126.582 Y120.486 E.05058
G1 X125.179 Y120.52 E.07625
G1 X120.91 Y120.002 E.23365
G1 X120.068 Y119.81 E.04692
G1 X118.694 Y119.289 E.07984
G1 X117.935 Y118.873 E.04703
G1 X114.395 Y116.43 E.23369
G1 X113.739 Y115.868 E.04693
G1 X113.114 Y115.187 E.05022
G1 X112.285 Y114.048 E.07654
G1 X110.286 Y110.239 E.23372
G1 X109.966 Y109.437 E.04692
G1 X109.614 Y108.009 E.07991
G1 X109.525 Y107.15 E.04692
G1 X109.525 Y102.848 E.23374
G1 X109.614 Y101.991 E.04681
G1 X109.82 Y101.088 E.05032
G1 X110.284 Y99.768 E.07602
G1 X112.285 Y95.952 E.23411
G1 X112.723 Y95.294 E.04295
G1 X113.083 Y95.534 F10800
G1 F1200
G1 X113.691 Y94.818 E.05104
G1 X114.644 Y93.927 E.07088
G1 X118.184 Y91.484 E.23369
G1 X118.862 Y91.113 E.04199
G1 X120.208 Y90.603 E.07821
G1 X120.964 Y90.43 E.04214
G1 X125.234 Y89.912 E.2337
G1 X126.394 Y89.932 E.06304
G1 X127.432 Y90.071 E.0569
G1 X128.179 Y90.269 E.04199
G1 X132.206 Y91.796 E.234
G1 X132.898 Y92.143 E.04206
G1 X134.082 Y92.961 E.07819
G1 X134.654 Y93.485 E.04215
G1 X137.506 Y96.705 E.23371
G1 X138.219 Y97.8 E.071
M73 P2 R14
G1 X138.623 Y98.604 E.04889
G1 X138.885 Y99.331 E.04199
G1 X139.917 Y103.513 E.23404
G1 X140.023 Y104.28 E.04207
G1 X140.023 Y105.721 E.07829
G1 X139.917 Y106.488 E.04207
G1 X138.887 Y110.664 E.23369
G1 X138.455 Y111.746 E.0633
G1 X137.956 Y112.667 E.05691
G1 X137.505 Y113.297 E.0421
G1 X134.653 Y116.516 E.23367
G1 X134.083 Y117.038 E.04199
G1 X133.337 Y117.573 E.04988
G1 X132.206 Y118.205 E.07039
G1 X128.184 Y119.73 E.23371
G1 X127.436 Y119.928 E.04204
G1 X126.529 Y120.054 E.04975
G1 X125.232 Y120.088 E.07049
G1 X120.962 Y119.569 E.23371
M73 Q2 S16
G1 X120.209 Y119.397 E.04197
G1 X118.863 Y118.887 E.07821
G1 X118.182 Y118.515 E.04216
G1 X114.643 Y116.071 E.23368
G1 X114.055 Y115.569 E.04201
G1 X113.44 Y114.898 E.04945
G1 X112.671 Y113.845 E.07084
G1 X110.672 Y110.037 E.23367
G1 X110.386 Y109.319 E.04199
G1 X110.041 Y107.919 E.07834
G1 X109.961 Y107.15 E.04201
G1 X109.961 Y102.849 E.23369
G1 X110.041 Y102.08 E.04201
G1 X110.243 Y101.192 E.04948
G1 X110.67 Y99.97 E.07033
G1 X112.671 Y96.154 E.23411
G1 X113.05 Y95.584 E.03719
G1 X113.428 Y95.874 F10800
G1 F1200
G1 X114.018 Y95.106 E.05262
G1 X114.891 Y94.286 E.06508
G1 X118.431 Y91.843 E.23369
G1 X119.03 Y91.515 E.03711
G1 X119.969 Y91.144 E.05486
G1 X121.017 Y90.862 E.05897
G1 X125.286 Y90.344 E.23365
G1 X126.356 Y90.366 E.05815
G1 X127.364 Y90.502 E.05526
G1 X128.024 Y90.677 E.0371
G1 X132.052 Y92.203 E.23403
G1 X132.663 Y92.51 E.03715
G1 X133.823 Y93.311 E.07659
G1 X134.328 Y93.774 E.03722
G1 X137.18 Y96.994 E.23371
G1 X137.833 Y98.002 E.06526
G1 X138.462 Y99.436 E.08508
G1 X139.494 Y103.617 E.23398
G1 X139.588 Y104.295 E.03719
G1 X139.588 Y105.706 E.07666
G1 X139.494 Y106.383 E.03714
G1 X138.464 Y110.559 E.23369
G1 X138.062 Y111.557 E.05846
G1 X137.577 Y112.452 E.05531
G1 X137.179 Y113.008 E.03715
G1 X134.327 Y116.227 E.23367
G1 X133.089 Y117.214 E.08602
G1 X132.051 Y117.798 E.06471
G1 X128.03 Y119.322 E.23364
G1 X126.477 Y119.621 E.08593
G1 X125.285 Y119.656 E.06479
G1 X121.015 Y119.137 E.23371
G1 X120.349 Y118.985 E.03712
G1 X119.031 Y118.485 E.07659
G1 X118.429 Y118.156 E.03727
G1 X114.89 Y115.713 E.23365
G1 X113.766 Y114.609 E.0856
G1 X113.056 Y113.643 E.06514
G1 X111.058 Y109.834 E.2337
G1 X110.805 Y109.2 E.03709
G1 X110.467 Y107.83 E.07667
G1 X110.396 Y107.15 E.03715
G1 X110.397 Y102.849 E.23369
G1 X110.666 Y101.296 E.08564
G1 X111.056 Y100.173 E.06459
G1 X113.057 Y96.357 E.23411
G1 X113.391 Y95.922 E.0298
G1 X113.732 Y96.186 F10800
G1 F1200
G1 X114.344 Y95.395 E.05434
G1 X115.139 Y94.644 E.05942
G1 X118.678 Y92.201 E.23365
G1 X120.11 Y91.557 E.08531
G1 X121.069 Y91.295 E.05401
G1 X125.339 Y90.777 E.2337
G1 X126.319 Y90.8 E.05326
G1 X127.87 Y91.084 E.08567
G1 X131.897 Y92.61 E.23398
G1 X133.161 Y93.364 E.07997
G1 X134.002 Y94.063 E.05942
G1 X136.854 Y97.282 E.23367
G1 X137.201 Y97.767 E.0324
M73 P3 R14
G1 X137.838 Y98.982 E.07454
G1 X138.039 Y99.54 E.03222
G1 X139.071 Y103.722 E.23404
G1 X139.166 Y105.297 E.08573
G1 X139.071 Y106.279 E.0536
G1 X138.041 Y110.455 E.23369
G1 X137.67 Y111.369 E.0536
G1 X136.853 Y112.719 E.08574
G1 X134.001 Y115.938 E.23367
G1 X132.842 Y116.856 E.08033
G1 X131.897 Y117.39 E.05898
G1 X127.875 Y118.915 E.23371
G1 X126.424 Y119.189 E.08023
G1 X125.337 Y119.223 E.05909
G1 X121.067 Y118.704 E.23371
G1 X120.489 Y118.572 E.03221
G1 X119.199 Y118.083 E.07496
G1 X118.677 Y117.798 E.03231
G1 X115.137 Y115.354 E.23372
G1 X114.092 Y114.32 E.07987
G1 X113.442 Y113.44 E.05944
G1 X111.444 Y109.632 E.23365
G1 X111.224 Y109.081 E.03224
G1 X110.893 Y107.74 E.07505
M73 Q3 S16
G1 X110.832 Y107.15 E.03223
G1 X110.832 Y102.849 E.23369
G1 X111.089 Y101.4 E.07996
G1 X111.441 Y100.375 E.05888
G1 X113.443 Y96.559 E.23414
G1 X113.695 Y96.233 E.02239
G1 X114.034 Y96.498 F10800
G1 F1200
G1 X114.67 Y95.684 E.05613
G1 X115.386 Y95.003 E.05369
G1 X118.926 Y92.56 E.23369
G1 X120.25 Y91.969 E.07878
G1 X121.122 Y91.727 E.04917
G1 X125.391 Y91.209 E.23365
G1 X126.281 Y91.234 E.04838
G1 X127.716 Y91.491 E.07921
G1 X131.743 Y93.018 E.234
G1 X132.914 Y93.723 E.07426
G1 X133.676 Y94.352 E.05368
G1 X136.528 Y97.571 E.23367
G1 X136.822 Y97.982 E.02746
G1 X137.446 Y99.171 E.07296
G1 X138.648 Y103.826 E.26122
G1 X138.731 Y105.282 E.07924
G1 X138.648 Y106.175 E.04873
G1 X137.618 Y110.351 E.23369
G1 X137.277 Y111.18 E.0487
G1 X136.527 Y112.43 E.0792
G1 X133.675 Y115.649 E.23367
G1 X132.594 Y116.497 E.07465
G1 X131.742 Y116.983 E.05329
G1 X127.721 Y118.508 E.23366
G1 X126.371 Y118.757 E.07459
G1 X125.39 Y118.791 E.05333
G1 X121.12 Y118.272 E.23371
G1 X120.629 Y118.16 E.02736
G1 X119.367 Y117.681 E.07334
G1 X115.385 Y114.996 E.26094
G1 X114.417 Y114.031 E.07426
G1 X113.828 Y113.238 E.05367
G1 X111.829 Y109.43 E.23367
G1 X111.535 Y108.583 E.04871
G1 X111.268 Y107.15 E.0792
G1 X111.268 Y102.849 E.23369
G1 X111.422 Y101.872 E.05374
G1 X111.827 Y100.577 E.07372
G1 X113.828 Y96.761 E.23411
G1 X113.997 Y96.545 E.0149
; printing object nema08-pinion.stl id:0 copy 0
;WIPE_START
G1 F8640
G1 X114.246 Y96.227 E-.8
;WIPE_END
G1 X122.085 Y104.248 F10800
G1 E.8 F18000
;TYPE:Perimeter
;WIDTH:0.555425
G1 F1200
G1 X122.085 Y104.184 E.00392
;WIDTH:0.546443
G1 X122.102 Y103.548 E.03825
;WIDTH:0.5
G1 X122.069 Y100.298 E.17659
G1 X122.122 Y100.147 E.00869
G1 X122.258 Y100.145 E.00739
G1 X124.809 Y101.442 E.15549
G1 X124.891 Y101.524 E.0063
G1 X124.895 Y102.036 E.02782
G1 X124.796 Y102.103 E.00649
G1 X124.295 Y102.182 E.02756
G1 X123.77 Y102.348 E.02992
G1 X123.58 Y102.444 E.01157
G1 X122.912 Y102.914 E.04438
G1 X122.489 Y103.422 E.03592
G1 X122.359 Y103.659 E.01469
;WIDTH:0.527712
G1 X122.222 Y103.953 E.01874
;WIDTH:0.555425
G1 X122.11 Y104.194 E.01628
;WIPE_START
G1 F8640
G1 X122.085 Y104.184 E-.05329
G1 X122.095 Y103.807 E-.74671
;WIPE_END
G1 X121.719 Y97.857 F10800
G1 E.8 F18000
;WIDTH:0.602738
G1 F1200
G1 X121.755 Y97.392 E.03132
;WIDTH:0.593097
G1 X121.694 Y97.203 E.0131
;WIDTH:0.558449
G1 X121.633 Y97.015 E.01218
;WIDTH:0.523802
G1 X121.573 Y96.826 E.01136
;WIDTH:0.526964
G1 X121.425 Y96.494 E.02097
;WIDTH:0.564773
G1 X121.277 Y96.162 E.02269
G1 X121.173 Y95.669 E.03145
;WIDTH:0.56399
G1 X121.17 Y95.215 E.02829
G1 X121.297 Y95.308 E.00981
G1 X121.644 Y95.76 E.03551
;WIDTH:0.564773
G1 X121.757 Y96.015 E.01741
G1 X121.885 Y96.405 E.02562
;WIDTH:0.526045
G1 X122.012 Y96.795 E.02362
;WIDTH:0.522577
G1 X122.088 Y96.946 E.00966
;WIDTH:0.557837
G1 X122.164 Y97.097 E.0104
;WIDTH:0.593097
G1 X122.24 Y97.248 E.01115
;WIDTH:0.602738
G1 X122.53 Y97.531 E.02721
G1 X121.775 Y97.835 E.05465
;WIPE_START
G1 F8640
G1 X121.757 Y97.431 E-.8
;WIPE_END
G1 X119.469 Y99.443 F10800
G1 E.8 F18000
;WIDTH:0.5
G1 F1200
G1 X119.657 Y99.469 E.01031
G1 X120.252 Y99.37 E.03277
G1 X119.962 Y99.906 E.03311
G1 X119.585 Y100.667 E.04614
;WIDTH:0.535745
G1 X119.498 Y100.848 E.01181
;WIDTH:0.571491
G1 X119.411 Y101.028 E.01265
;WIDTH:0.607237
M73 P4 R14
G1 X119.324 Y101.209 E.0136
;WIDTH:0.61044
G1 X119.206 Y101.595 E.02749
G1 X119.176 Y101.782 E.0129
;WIDTH:0.573626
G1 X119.146 Y101.969 E.01203
;WIDTH:0.536813
G1 X119.115 Y102.156 E.01117
;WIDTH:0.5
G1 X118.961 Y103.215 E.05814
G1 X118.923 Y103.847 E.0344
G1 X118.977 Y104.873 E.05582
G1 X119.042 Y105.374 E.02745
G1 X119.18 Y106.062 E.03813
G1 X119.381 Y106.764 E.03967
G1 X119.874 Y107.928 E.06868
G1 X120.522 Y108.996 E.06787
G1 X121.002 Y109.611 E.04239
G1 X121.353 Y109.992 E.02815
G1 X121.62 Y110.188 E.018
G1 X121.933 Y110.323 E.01852
G1 X122.322 Y110.38 E.02136
G1 X122.841 Y110.293 E.02859
G1 X123.33 Y109.975 E.03169
G1 X123.47 Y109.783 E.01291
G1 X123.669 Y109.433 E.02188
G1 X123.747 Y108.912 E.02862
G1 X123.664 Y108.506 E.02252
G1 X123.395 Y107.959 E.03312
;WIDTH:0.54607
G1 X123.197 Y107.594 E.02495
;WIDTH:0.59214
G1 X122.999 Y107.229 E.02733
G1 X123.151 Y107.32 E.01166
;WIDTH:0.549564
G1 X123.733 Y107.634 E.04002
;WIDTH:0.5
G1 X124.078 Y107.746 E.01971
G1 X124.733 Y107.877 E.03629
G1 X125.461 Y107.825 E.03966
G1 X126.088 Y107.623 E.03579
G1 X126.514 Y107.361 E.02717
G1 X126.945 Y107.027 E.02963
G1 X127.353 Y106.507 E.03591
G1 X127.517 Y106.175 E.02012
G1 X127.699 Y105.672 E.02906
G1 X127.783 Y104.95 E.03949
G1 X127.725 Y104.436 E.0281
G1 X127.6 Y103.989 E.02522
G1 X127.39 Y103.477 E.03007
G1 X127.368 Y100.908 E.13959
G1 X127.287 Y100.483 E.02351
G1 X127.122 Y99.851 E.03549
G1 X126.849 Y99.315 E.03268
;WIDTH:0.514447
G1 X126.555 Y98.855 E.03065
;WIDTH:0.561653
G1 X126.519 Y98.773 E.00555
;WIDTH:0.608859
G1 X126.483 Y98.69 E.00614
;WIDTH:0.656065
G1 X126.447 Y98.607 E.00668
;WIDTH:0.698043
G1 X126.098 Y98.247 E.03963
G1 X126.032 Y98.217 E.00573
;WIDTH:0.662495
G1 X125.966 Y98.187 E.00541
;WIDTH:0.626948
G1 X125.9 Y98.157 E.00509
;WIDTH:0.591401
G1 X125.581 Y97.989 E.0237
;WIDTH:0.5457
G1 X125.263 Y97.822 E.02156
;WIDTH:0.5
G1 X124.796 Y97.627 E.0275
G1 X124.915 Y97.566 E.00727
G1 X125.205 Y97.346 E.01978
G1 X125.546 Y96.908 E.03016
G1 X125.717 Y96.425 E.02784
;WIDTH:0.492676
G1 X125.756 Y96.152 E.01473
;WIDTH:0.528673
G1 X125.781 Y95.819 E.01934
;WIDTH:0.56467
G1 X125.807 Y95.485 E.0209
;WIDTH:0.564848
G1 X125.93 Y95.022 E.0299
G1 X126.155 Y94.605 E.02958
G1 X126.245 Y94.845 E.016
G1 X126.31 Y95.306 E.02906
G1 X126.3 Y95.549 E.01518
;WIDTH:0.56467
G1 X126.231 Y95.963 E.02619
;WIDTH:0.526618
G1 X126.162 Y96.376 E.02414
;WIDTH:0.5
G1 X126.18 Y96.882 E.02751
G1 X126.315 Y97.289 E.0233
;WIDTH:0.549736
G1 X126.363 Y97.408 E.00777
;WIDTH:0.599473
G1 X126.412 Y97.526 E.00853
;WIDTH:0.64921
G1 X126.46 Y97.644 E.00929
;WIDTH:0.698947
G1 X126.508 Y97.762 E.01008
;WIDTH:0.702229
G1 X126.825 Y98.056 E.0344
G1 X126.922 Y98.084 E.00803
;WIDTH:0.661783
G1 X127.019 Y98.113 E.00754
;WIDTH:0.621337
G1 X127.116 Y98.142 E.00703
;WIDTH:0.580891
G1 X127.213 Y98.171 E.00652
;WIDTH:0.540445
G1 X127.31 Y98.199 E.00599
;WIDTH:0.5
G1 X127.834 Y98.381 E.03014
G1 X128.3 Y98.426 E.02544
G1 X128.796 Y98.343 E.02732
G1 X129.25 Y98.122 E.02743
G1 X129.608 Y97.787 E.02664
;WIDTH:0.492874
G1 X129.767 Y97.567 E.01451
;WIDTH:0.528573
G1 X129.941 Y97.283 E.01928
;WIDTH:0.564273
G1 X130.115 Y96.999 E.02077
G1 X130.461 Y96.633 E.0314
;WIDTH:0.563547
G1 X130.833 Y96.373 E.02826
G1 X130.829 Y96.53 E.00978
G1 X130.654 Y97.073 E.03552
;WIDTH:0.564273
G1 X130.507 Y97.312 E.01749
G1 X130.269 Y97.625 E.02452
;WIDTH:0.526061
G1 X130.032 Y97.938 E.02261
;WIDTH:0.5
G1 X129.813 Y98.392 E.02739
G1 X129.743 Y98.876 E.02657
G1 X129.757 Y99.13 E.01382
G1 X129.897 Y99.647 E.0291
G1 X130.179 Y100.081 E.02812
G1 X130.624 Y100.54 E.03474
G1 X130.841 Y100.688 E.01427
G1 X131.373 Y100.905 E.03122
G1 X131.72 Y100.926 E.01889
G1 X132.206 Y100.883 E.02651
;WIDTH:0.497834
G1 X132.613 Y100.713 E.02385
;WIDTH:0.526956
G1 X132.924 Y100.526 E.02094
;WIDTH:0.564728
G1 X133.236 Y100.339 E.0227
G1 X133.712 Y100.176 E.0314
;WIDTH:0.564067
G1 X134.163 Y100.119 E.02833
G1 X134.061 Y100.294 E.01262
G1 X133.679 Y100.654 E.03271
;WIDTH:0.564728
G1 X133.439 Y100.798 E.01747
G1 X133.052 Y100.982 E.02674
;WIDTH:0.526828
G1 X132.665 Y101.166 E.02472
;WIDTH:0.500002
