; generated by PrusaSlicer 2.6.0-alpha5+win64 on 2023-07-17 at 16:14:30 UTC


;
;
; 

; external perimeters extrusion width = 0.50mm
; perimeters extrusion width = 0.50mm
; infill extrusion width = 0.50mm
; solid infill extrusion width = 0.45mm
; top infill extrusion width = 0.40mm
; first layer extrusion width = 0.50mm

M73 P0 R30
M73 Q0 S33
M201 X5000 Y5000 Z200 E10000 ; sets maximum accelerations, mm/sec^2
M203 X200 Y200 Z30 E120 ; sets maximum feedrates, mm / sec
M204 P3000 R3000 T3000 ; sets acceleration (P, T) and retract acceleration (R), mm/sec^2
M205 X8.00 Y8.00 Z0.40 E4.50 ; sets the jerk limits, mm/sec
M205 S0 T0 ; sets the minimum extruding and travel feed rate, mm/sec
M107
;TYPE:Custom
M862.3 P "MK3" ; printer model check
M862.1 P0.4 ; nozzle diameter check
M115 U3.12.1 ; tell printer latest fw version
G90 ; use absolute coordinates
M83 ; extruder relative mode
M104 S245 ; set extruder temp
M140 S85 ; set bed temp
M190 S85 ; wait for bed temp
M109 S245 ; wait for extruder temp
G28 W ; home all without mesh bed level
G80 ; mesh bed leveling

G1 Z0.2 F720
G1 Y-3 F1000 ; go outside print area
G92 E0
G1 X60 E9 F1000 ; intro line
G1 X100 E12.5 F1000 ; intro line

G92 E0
M221 S95

; Don't change E values below. Excessive value can damage the printer.

G21 ; set units to millimeters
G90 ; use absolute coordinates
M83 ; use relative distances for extrusion
M900 K0.08 ; Filament gcode LA 1.5
M900 K45 ; Filament gcode LA 1.0
M107
;LAYER_CHANGE
;Z:0.3
;HEIGHT:0.3
;BEFORE_LAYER_CHANGE
G92 E0.0
;0.3


G1 Z.3 F1800
;AFTER_LAYER_CHANGE
;0.3
G1 E-.8 F18000
G1 X109.586 Y91.602 F10800
G1 E.8 F18000
M204 S3000
;TYPE:Skirt/Brim
;WIDTH:0.5
G1 F1200
G1 X110.712 Y90.256 E.09535
G1 X111.671 Y89.343 E.07194
G1 X112.507 Y88.714 E.05684
G1 X116.269 Y86.44 E.23884
G1 X117.818 Y85.757 E.09198
G1 X122.765 Y84.635 E.27561
G1 X124.082 Y84.504 E.07191
G1 X125.129 Y84.522 E.05689
G1 X129.494 Y85.037 E.23881
G1 X130.787 Y85.342 E.07218
G1 X131.771 Y85.699 E.05687
G1 X135.729 Y87.603 E.23864
G1 X136.852 Y88.311 E.07213
G1 X137.667 Y88.968 E.05688
G1 X140.792 Y92.054 E.23863
G1 X141.623 Y93.086 E.07199
G1 X142.18 Y93.971 E.05682
G1 X144.393 Y98.536 E.27564
G1 X144.825 Y100.167 E.09167
G1 X145.398 Y104.529 E.23904
G1 X145.416 Y105.94 E.07667
G1 X145.315 Y106.899 E.05239
G1 X144.441 Y111.204 E.23867
G1 X143.894 Y112.806 E.09198
G1 X141.37 Y117.205 E.27556
G1 X140.571 Y118.266 E.07217
G1 X139.849 Y119.023 E.05684
G1 X136.516 Y121.883 E.23862
G1 X135.419 Y122.626 E.07199
G1 X134.487 Y123.11 E.05706
G1 X130.406 Y124.732 E.2386
G1 X129.124 Y125.079 E.07216
G1 X128.089 Y125.233 E.05685
G1 X123.023 Y125.425 E.27545
G1 X121.348 Y125.165 E.0921
M73 Q0 S32
G1 X117.13 Y123.938 E.23868
G1 X115.578 Y123.261 E.092
G1 X111.403 Y120.381 E.27558
G1 X110.414 Y119.501 E.07193
G1 X109.717 Y118.716 E.05704
G1 X107.142 Y115.158 E.23863
G1 X106.491 Y114.001 E.07213
G1 X106.089 Y113.039 E.05665
G1 X104.807 Y108.834 E.23885
G1 X104.568 Y107.532 E.07192
G1 X104.499 Y106.483 E.05712
G1 X104.652 Y102.094 E.23861
G1 X104.849 Y100.781 E.07214
G1 X105.123 Y99.773 E.05675
G1 X106.983 Y95.054 E.27559
G1 X107.892 Y93.628 E.09188
G1 X109.547 Y91.648 E.14021
G1 X109.882 Y91.928 F10800
G1 F1200
G1 X111.046 Y90.535 E.09863
G1 X111.954 Y89.673 E.06802
G1 X112.733 Y89.087 E.05296
G1 X116.495 Y86.812 E.23887
G1 X117.972 Y86.164 E.08763
G1 X122.857 Y85.061 E.2721
G1 X124.103 Y84.939 E.06802
G1 X125.078 Y84.954 E.05298
G1 X129.443 Y85.47 E.23881
G1 X130.666 Y85.761 E.0683
G1 X131.582 Y86.092 E.05292
G1 X135.54 Y87.996 E.23864
G1 X136.602 Y88.667 E.06825
G1 X137.361 Y89.278 E.05294
G1 X140.486 Y92.364 E.23863
G1 X141.27 Y93.341 E.06806
G1 X141.79 Y94.165 E.05294
G1 X143.978 Y98.671 E.27216
G1 X144.393 Y100.224 E.08734
G1 X144.966 Y104.586 E.23904
G1 X144.981 Y105.917 E.07232
G1 X144.888 Y106.812 E.04889
G1 X144.014 Y111.117 E.23867
G1 X143.49 Y112.643 E.08766
G1 X140.994 Y116.984 E.27207
G1 X140.237 Y117.986 E.06823
G1 X139.566 Y118.693 E.05296
G1 X136.232 Y121.553 E.23866
G1 X135.194 Y122.253 E.06802
G1 X134.326 Y122.705 E.05317
G1 X130.245 Y124.327 E.2386
G1 X129.032 Y124.653 E.06824
G1 X128.068 Y124.798 E.05297
G1 X123.066 Y124.992 E.27198
G1 X121.47 Y124.747 E.08773
G1 X117.252 Y123.52 E.23868
G1 X116.027 Y122.999 E.07233
G1 X115.245 Y122.555 E.04886
G1 X111.654 Y120.025 E.23867
G1 X110.72 Y119.191 E.06803
G1 X110.069 Y118.461 E.05314
G1 X107.494 Y114.902 E.23868
G1 X106.881 Y113.807 E.06818
M73 P1 R30
G1 X106.505 Y112.912 E.05274
G1 X105.224 Y108.707 E.23884
G1 X104.999 Y107.475 E.06805
G1 X104.934 Y106.499 E.05315
G1 X105.088 Y102.109 E.23867
G1 X105.276 Y100.868 E.0682
G1 X105.53 Y99.929 E.05285
G1 X107.363 Y95.268 E.27212
G1 X108.226 Y93.908 E.08751
G1 X109.843 Y91.974 E.13697
M73 Q1 S32
G1 X110.177 Y92.253 F10800
G1 F1200
G1 X111.38 Y90.814 E.10191
G1 X112.238 Y90.004 E.06411
G1 X112.958 Y89.46 E.04903
G1 X116.72 Y87.185 E.23887
G1 X118.126 Y86.572 E.08334
G1 X122.949 Y85.486 E.26861
G1 X124.124 Y85.374 E.06413
G1 X125.026 Y85.387 E.04901
G1 X129.392 Y85.903 E.23887
G1 X130.544 Y86.179 E.06436
G1 X131.393 Y86.484 E.04901
G1 X135.351 Y88.388 E.23864
G1 X136.351 Y89.023 E.06436
G1 X137.055 Y89.588 E.04905
G1 X140.18 Y92.674 E.23863
G1 X140.917 Y93.596 E.06413
G1 X141.4 Y94.358 E.04902
G1 X143.564 Y98.805 E.26871
G1 X143.961 Y100.28 E.08299
G1 X144.534 Y104.643 E.23909
G1 X144.546 Y105.894 E.06797
G1 X144.462 Y106.726 E.04543
G1 X143.587 Y111.03 E.23863
G1 X143.086 Y112.48 E.08335
G1 X140.618 Y116.763 E.26858
G1 X139.903 Y117.707 E.06434
G1 X139.282 Y118.362 E.04904
G1 X135.948 Y121.222 E.23866
G1 X134.968 Y121.88 E.06413
G1 X134.166 Y122.3 E.04919
G1 X130.084 Y123.923 E.23867
G1 X128.94 Y124.228 E.06433
G1 X128.048 Y124.363 E.04902
G1 X123.11 Y124.558 E.2685
G1 X121.591 Y124.328 E.08347
G1 X117.373 Y123.102 E.23866
G1 X116.223 Y122.61 E.06796
G1 X115.496 Y122.199 E.04538
G1 X111.905 Y119.669 E.23867
G1 X111.026 Y118.881 E.06414
G1 X110.422 Y118.206 E.04921
G1 X107.847 Y114.647 E.23868
G1 X107.271 Y113.613 E.06431
G1 X106.922 Y112.785 E.04882
G1 X105.64 Y108.58 E.23885
G1 X105.431 Y107.418 E.06415
G1 X105.369 Y106.514 E.04923
G1 X105.523 Y102.124 E.23867
G1 X105.703 Y100.954 E.06432
G1 X105.937 Y100.085 E.0489
G1 X107.742 Y95.482 E.26864
G1 X108.561 Y94.187 E.08325
G1 X110.139 Y92.299 E.13369
G1 X110.473 Y92.579 F10800
G1 F1200
G1 X111.714 Y91.094 E.10515
G1 X112.522 Y90.334 E.06027
G1 X113.184 Y89.833 E.04511
G1 X116.945 Y87.558 E.23882
G1 X118.28 Y86.979 E.07906
G1 X123.042 Y85.912 E.26515
G1 X124.145 Y85.809 E.06019
G1 X124.975 Y85.82 E.0451
G1 X129.341 Y86.335 E.23886
G1 X130.422 Y86.597 E.06043
G1 X131.204 Y86.877 E.04513
G1 X135.163 Y88.781 E.23869
G1 X136.1 Y89.38 E.06042
G1 X136.749 Y89.898 E.04512
G1 X139.874 Y92.984 E.23863
G1 X140.564 Y93.852 E.06025
G1 X141.009 Y94.552 E.04507
G1 X143.15 Y98.94 E.26528
G1 X143.529 Y100.337 E.07865
G1 X144.102 Y104.699 E.23904
G1 X144.111 Y105.871 E.06368
G1 X144.035 Y106.639 E.04193
G1 X143.161 Y110.944 E.23867
G1 X142.682 Y112.317 E.07901
G1 X140.243 Y116.543 E.26511
G1 X139.568 Y117.428 E.06047
G1 X138.998 Y118.031 E.04508
G1 X135.665 Y120.891 E.23862
G1 X134.743 Y121.507 E.06025
G1 X134.005 Y121.895 E.0453
G1 X129.923 Y123.518 E.23867
G1 X128.847 Y123.802 E.06046
G1 X128.027 Y123.928 E.04508
G1 X123.153 Y124.125 E.26503
G1 X121.713 Y123.91 E.07911
G1 X117.495 Y122.683 E.23868
G1 X116.419 Y122.221 E.06362
G1 X115.747 Y121.843 E.04189
G1 X112.156 Y119.313 E.23867
G1 X111.332 Y118.571 E.06025
G1 X110.775 Y117.95 E.04532
G1 X108.2 Y114.392 E.23863
G1 X107.661 Y113.419 E.06044
G1 X107.339 Y112.658 E.0449
G1 X106.057 Y108.453 E.23885
G1 X105.863 Y107.362 E.06021
G1 X105.805 Y106.529 E.04537
G1 X105.958 Y102.139 E.23867
G1 X106.13 Y101.041 E.06039
G1 X106.344 Y100.24 E.04505
G1 X108.122 Y95.696 E.26512
G1 X108.895 Y94.467 E.07889
G1 X110.435 Y92.625 E.13045
G1 X110.769 Y92.904 F10800
G1 F1200
G1 X112.048 Y91.373 E.10839
G1 X112.806 Y90.665 E.05636
G1 X113.409 Y90.205 E.04121
G1 X117.171 Y87.931 E.23884
G1 X118.434 Y87.387 E.07472
G1 X123.134 Y86.338 E.26165
G1 X124.924 Y86.252 E.09737
G1 X129.29 Y86.768 E.23887
G1 X131.015 Y87.269 E.0976
G1 X134.974 Y89.173 E.23869
G1 X135.849 Y89.736 E.05653
G1 X136.443 Y90.208 E.04122
G1 X139.568 Y93.294 E.23863
G1 X140.619 Y94.746 E.09739
G1 X142.735 Y99.074 E.26175
G1 X143.097 Y100.394 E.07437
G1 X143.67 Y104.756 E.23904
G1 X143.676 Y105.849 E.05939
G1 X143.608 Y106.552 E.03837
G1 X142.734 Y110.857 E.23867
G1 X142.278 Y112.155 E.07475
G1 X139.867 Y116.322 E.26157
G1 X138.715 Y117.701 E.09763
G1 X135.381 Y120.561 E.23866
G1 X134.517 Y121.135 E.05636
G1 X133.844 Y121.49 E.04134
G1 X129.762 Y123.113 E.23867
G1 X128.006 Y123.493 E.09762
G1 X123.196 Y123.691 E.26156
G1 X121.834 Y123.492 E.07479
G1 X117.617 Y122.265 E.23862
G1 X116.615 Y121.832 E.05931
G1 X115.998 Y121.486 E.03843
G1 X112.407 Y118.957 E.23864
G1 X111.128 Y117.695 E.09763
G1 X108.553 Y114.136 E.23868
G1 X108.051 Y113.225 E.05651
G1 X107.755 Y112.531 E.04099
G1 X106.474 Y108.326 E.23884
G1 X106.24 Y106.544 E.09765
M73 P2 R30
G1 X106.394 Y102.155 E.23861
G1 X106.75 Y100.396 E.09751
G1 X108.501 Y95.909 E.2617
G1 X109.229 Y94.746 E.07455
G1 X110.73 Y92.95 E.12717
M73 P2 R29
G1 X111.065 Y93.229 F10800
G1 F1200
G1 X112.383 Y91.653 E.11163
G1 X113.09 Y90.995 E.05248
G1 X113.635 Y90.578 E.03728
G1 X117.396 Y88.304 E.23879
G1 X118.587 Y87.794 E.07039
G1 X123.226 Y86.764 E.25819
G1 X124.873 Y86.685 E.08959
G1 X129.239 Y87.2 E.23886
G1 X130.827 Y87.662 E.08986
G1 X134.785 Y89.566 E.23864
G1 X135.598 Y90.092 E.05261
G1 X136.136 Y90.518 E.03729
G1 X139.262 Y93.604 E.23866
G1 X140.229 Y94.94 E.08961
M73 Q2 S32
G1 X142.321 Y99.209 E.2583
G1 X142.665 Y100.451 E.07002
G1 X143.238 Y104.813 E.23904
G1 X143.241 Y105.826 E.05504
G1 X143.181 Y106.466 E.03493
G1 X142.307 Y110.77 E.23862
G1 X141.874 Y111.992 E.07044
G1 X139.491 Y116.102 E.25813
G1 X138.431 Y117.37 E.0898
G1 X135.097 Y120.23 E.23866
G1 X134.292 Y120.762 E.05243
G1 X133.683 Y121.085 E.03745
G1 X129.601 Y122.708 E.23867
G1 X127.985 Y123.058 E.08984
G1 X123.24 Y123.258 E.25804
G1 X121.956 Y123.073 E.07048
G1 X117.738 Y121.847 E.23866
G1 X116.81 Y121.443 E.05499
G1 X116.249 Y121.13 E.0349
G1 X112.658 Y118.601 E.23864
G1 X111.481 Y117.439 E.08986
G1 X108.906 Y113.881 E.23863
G1 X108.441 Y113.031 E.05264
G1 X108.172 Y112.404 E.03707
G1 X106.89 Y108.199 E.23885
G1 X106.675 Y106.56 E.08981
G1 X106.829 Y102.17 E.23867
G1 X107.157 Y100.552 E.0897
G1 X108.881 Y96.123 E.25823
G1 X109.563 Y95.025 E.07023
G1 X111.026 Y93.276 E.12389
; printing object 36jx30k5.18-pinion.stl id:0 copy 0
;WIPE_START
G1 F8640
G1 X111.285 Y92.966 E-.8
;WIPE_END
G1 X120.431 Y98.228 F10800
G1 E.8 F18000
;TYPE:Perimeter
;WIDTH:0.5
G1 F1200
G1 X120.551 Y98.199 E.00671
G1 X124.007 Y99.073 E.19369
G1 X124.694 Y99.275 E.03891
G1 X124.722 Y99.65 E.02043
G1 X124.69 Y100.071 E.02294
G1 X124.527 Y100.132 E.00946
G1 X123.855 Y100.234 E.03693
G1 X123.254 Y100.41 E.03403
G1 X122.722 Y100.641 E.03151
G1 X122.183 Y100.958 E.03397
G1 X121.723 Y101.311 E.0315
G1 X121.214 Y101.824 E.03926
G1 X120.785 Y102.407 E.03933
G1 X120.448 Y103.046 E.03925
;WIDTH:0.528785
G1 X120.328 Y103.336 E.01818
;WIDTH:0.557571
G1 X120.207 Y103.626 E.01933
G1 X120.232 Y103.346 E.01729
;WIDTH:0.51689
G1 X120.307 Y102.661 E.03889
;WIDTH:0.5
G1 X120.357 Y101.959 E.03824
G1 X120.376 Y98.368 E.19511
G1 X120.409 Y98.284 E.0049
;WIPE_START
G1 F8640
G1 X120.551 Y98.199 E-.32754
G1 X120.782 Y98.258 E-.47246
;WIPE_END
G1 X118.746 Y96.683 F10800
G1 E.8 F18000
G1 F1200
G1 X119.533 Y95.965 E.05788
G1 X120.109 Y95.517 E.03965
G1 X120.847 Y95.094 E.04622
G1 X121.442 Y94.872 E.0345
G1 X121.941 Y94.751 E.0279
G1 X122.581 Y94.687 E.03495
G1 X123.185 Y94.714 E.03285
G1 X123.719 Y94.808 E.02946
G1 X124.51 Y95.063 E.04516
G1 X125.021 Y95.332 E.03138
G1 X125.464 Y95.641 E.02935
G1 X125.878 Y96.006 E.02999
G1 X126.285 Y96.473 E.03366
G1 X126.632 Y97.007 E.0346
G1 X126.866 Y97.481 E.02872
G1 X127.046 Y98.021 E.03093
G1 X127.168 Y98.675 E.03615
G1 X127.197 Y99.587 E.04958
G1 X127.198 Y100.588 E.05439
G1 X127.324 Y100.749 E.01111
G1 X127.805 Y101.037 E.03046
G1 X128.284 Y101.247 E.02842
G1 X128.494 Y101.392 E.01387
G1 X128.739 Y101.698 E.0213
G1 X128.86 Y102.092 E.02239
G1 X128.81 Y102.729 E.03472
G1 X128.81 Y107.264 E.2464
G1 X128.866 Y107.784 E.02842
G1 X128.832 Y108.046 E.01435
G1 X128.674 Y108.413 E.02171
G1 X128.341 Y108.728 E.02491
G1 X127.755 Y108.984 E.03474
G1 X127.216 Y109.306 E.03411
G1 X126.74 Y109.536 E.02872
G1 X126.259 Y109.7 E.02761
G1 X125.568 Y109.828 E.03818
G1 X125.229 Y109.871 E.01857
G1 X124.428 Y109.858 E.04353
G1 X123.6 Y109.691 E.04589
G1 X122.796 Y109.396 E.04653
G1 X122.358 Y109.157 E.02711
;WIDTH:0.528866
G1 X122.119 Y109.002 E.0165
;WIDTH:0.557732
G1 X121.88 Y108.847 E.01753
;WIDTH:0.589674
G1 X121.787 Y108.797 E.00692
;WIDTH:0.621617
G1 X121.695 Y108.747 E.00728
G1 X121.795 Y108.952 E.01585
;WIDTH:0.581078
G1 X121.894 Y109.156 E.01461
;WIDTH:0.540539
G1 X121.994 Y109.361 E.01355
;WIDTH:0.5
G1 X122.215 Y109.833 E.02832
G1 X122.375 Y110.368 E.03034
G1 X122.418 Y110.898 E.02889
G1 X122.336 Y111.295 E.02203
G1 X122.147 Y111.673 E.02296
G1 X121.802 Y112.044 E.02753
G1 X121.372 Y112.295 E.02705
G1 X120.893 Y112.398 E.02662
G1 X120.367 Y112.336 E.02878
G1 X120.136 Y112.261 E.0132
G1 X119.673 Y111.961 E.02998
G1 X119.048 Y111.433 E.04445
G1 X118.024 Y110.33 E.08177
G1 X117.582 Y109.722 E.04084
G1 X117.297 Y109.29 E.02812
G1 X116.916 Y108.629 E.04145
G1 X116.591 Y107.919 E.04243
G1 X116.402 Y107.429 E.02853
G1 X116.039 Y106.26 E.06651
G1 X115.855 Y105.258 E.05535
G1 X115.767 Y103.745 E.08234
G1 X115.906 Y102.214 E.08353
G1 X116.265 Y100.743 E.08227
G1 X116.839 Y99.335 E.08261
G1 X117.616 Y98.025 E.08275
G1 X118.567 Y96.855 E.08192
G1 X118.703 Y96.725 E.01022
;WIPE_START
G1 F8640
G1 X119.001 Y96.452 E-.8
;WIPE_END
G1 X120.036 Y97.998 F10800
G1 E.8 F18000
;TYPE:External perimeter
G1 F1200
G1 X119.941 Y98.263 E.0153
G1 X119.922 Y101.957 E.20071
G1 X119.872 Y102.629 E.03661
G1 X119.791 Y103.292 E.03629
G1 X119.581 Y104.721 E.07848
G1 X119.58 Y105.246 E.02852
G1 X119.63 Y105.771 E.02865
G1 X119.732 Y106.289 E.02868
G1 X119.884 Y106.794 E.02865
G1 X120.082 Y107.274 E.02821
G1 X120.473 Y107.966 E.04319
G1 X121.457 Y109.256 E.08815
G1 X121.785 Y109.924 E.04043
G1 X121.958 Y110.493 E.03231
G1 X121.987 Y110.83 E.01838
G1 X121.935 Y111.124 E.01622
G1 X121.798 Y111.411 E.01728
G1 X121.439 Y111.775 E.02778
G1 X121.17 Y111.904 E.01621
G1 X120.857 Y111.96 E.01728
G1 X120.357 Y111.885 E.02747
G1 X119.954 Y111.628 E.02597
G1 X119.33 Y111.1 E.04441
G1 X118.344 Y110.035 E.07886
G1 X117.936 Y109.468 E.03795
G1 X117.508 Y108.784 E.04384
G1 X117.208 Y108.226 E.03442
G1 X116.886 Y107.513 E.04251
G1 X116.434 Y106.019 E.08481
G1 X116.283 Y105.181 E.04626
G1 X116.202 Y103.722 E.07939
G1 X116.34 Y102.256 E.08
G1 X116.688 Y100.848 E.0788
G1 X116.954 Y100.196 E.03826
G1 X117.242 Y99.501 E.04088
G1 X117.989 Y98.249 E.07921
G1 X118.904 Y97.132 E.07845
G1 X119.346 Y96.709 E.03324
G1 X119.801 Y96.309 E.03292
G1 X120.376 Y95.861 E.0396
G1 X121.06 Y95.473 E.04273
G1 X121.586 Y95.283 E.03039
G1 X122.188 Y95.161 E.03337
G1 X122.828 Y95.13 E.03481
G1 X123.261 Y95.157 E.02357
G1 X123.814 Y95.273 E.0307
G1 X124.358 Y95.472 E.03147
G1 X124.81 Y95.714 E.02786
G1 X125.392 Y96.134 E.039
G1 X125.813 Y96.565 E.03274
G1 X126.153 Y97.038 E.03165
G1 X126.44 Y97.589 E.03376
G1 X126.633 Y98.159 E.0327
G1 X126.739 Y98.75 E.03262
G1 X126.762 Y100.628 E.10204
G1 X126.913 Y100.981 E.02086
G1 X127.441 Y101.337 E.0346
G1 X128.11 Y101.646 E.04004
G1 X128.345 Y101.883 E.01813
G1 X128.424 Y102.143 E.01476
G1 X128.374 Y102.71 E.03093
G1 X128.374 Y107.288 E.24874
G1 X128.431 Y107.808 E.02842
G1 X128.335 Y108.136 E.01857
G1 X128.07 Y108.381 E.01961
G1 X127.553 Y108.596 E.03042
G1 X127.025 Y108.914 E.03349
G1 X126.573 Y109.133 E.02729
G1 X125.984 Y109.309 E.0334
G1 X125.312 Y109.432 E.03712
G1 X124.369 Y109.412 E.05125
G1 X123.576 Y109.24 E.04409
G1 X122.96 Y108.993 E.03606
G1 X122.571 Y108.777 E.02418
G1 X122.155 Y108.473 E.02799
G1 X121.498 Y107.826 E.0501
G1 X121.065 Y107.214 E.04073
G1 X120.783 Y106.627 E.03538
