; generated by PrusaSlicer 2.6.0-alpha5+win64 on 2023-07-20 at 13:05:12 UTC


;
;
; 

; external perimeters extrusion width = 0.60mm
; perimeters extrusion width = 0.60mm
; infill extrusion width = 0.50mm
; solid infill extrusion width = 0.45mm
; top infill extrusion width = 0.40mm
; first layer extrusion width = 0.80mm

; external perimeters extrusion width = 0.60mm
; perimeters extrusion width = 0.60mm
; infill extrusion width = 0.50mm
; solid infill extrusion width = 0.45mm
; top infill extrusion width = 0.40mm
; first layer extrusion width = 0.80mm

; external perimeters extrusion width = 0.60mm
; perimeters extrusion width = 0.60mm
; infill extrusion width = 0.50mm
; solid infill extrusion width = 0.45mm
; top infill extrusion width = 0.40mm
; first layer extrusion width = 0.80mm

M73 P0 R39
M73 Q0 S47
M201 X5000 Y5000 Z200 E10000 ; sets maximum accelerations, mm/sec^2
M203 X200 Y200 Z30 E120 ; sets maximum feedrates, mm / sec
M204 P3000 R3000 T3000 ; sets acceleration (P, T) and retract acceleration (R), mm/sec^2
M205 X8.00 Y8.00 Z0.40 E4.50 ; sets the jerk limits, mm/sec
M205 S0 T0 ; sets the minimum extruding and travel feed rate, mm/sec
M107
;TYPE:Custom
M862.3 P "MK3" ; printer model check
M862.1 P0.4 ; nozzle diameter check
M115 U3.12.1 ; tell printer latest fw version
G90 ; use absolute coordinates
M83 ; extruder relative mode
M104 S245 ; set extruder temp
M140 S85 ; set bed temp
M190 S85 ; wait for bed temp
M109 S245 ; wait for extruder temp
G28 W ; home all without mesh bed level
G80 ; mesh bed leveling

G1 Z0.2 F720
G1 Y-3 F1000 ; go outside print area
G92 E0
G1 X60 E9 F1000 ; intro line
G1 X100 E12.5 F1000 ; intro line

G92 E0
M221 S95

; Don't change E values below. Excessive value can damage the printer.

G21 ; set units to millimeters
G90 ; use absolute coordinates
M83 ; use relative distances for extrusion
M900 K0.08 ; Filament gcode LA 1.5
M900 K45 ; Filament gcode LA 1.0
M107
;LAYER_CHANGE
;Z:0.4
;HEIGHT:0.4
;BEFORE_LAYER_CHANGE
G92 E0.0
;0.4


G1 Z.4 F1800
;AFTER_LAYER_CHANGE
;0.4
G1 E-.8 F18000
G1 X101.628 Y72.056 F10800
G1 E.8 F18000
M204 S3000
;TYPE:Skirt/Brim
;WIDTH:0.8
G1 F1440
G1 X102.297 Y71.151 E.13366
G1 X103.058 Y70.352 E.13105
G1 X103.934 Y69.632 E.13467
G1 X104.859 Y69.046 E.13005
G1 X105.883 Y68.561 E.13457
G1 X106.927 Y68.217 E.13055
G1 X108.035 Y67.996 E.13418
G1 X109.25 Y67.914 E.14463
G1 X140.869 Y67.915 E3.75524
G1 X142.639 Y68.113 E.21153
G1 X144.117 Y68.561 E.18342
G1 X145.694 Y69.378 E.21094
G1 X146.939 Y70.349 E.18752
G1 X147.973 Y71.489 E.18279
G1 X148.818 Y72.823 E.18754
G1 X149.409 Y74.249 E.18333
G1 X149.779 Y75.991 E.2115
G1 X149.836 Y77 E.12003
G1 X149.835 Y133.119 E6.66498
G1 X149.779 Y134.009 E.10591
G1 X149.591 Y135.092 E.13055
G1 X149.344 Y135.948 E.10581
G1 X148.912 Y136.992 E.13419
G1 X148.37 Y137.948 E.13052
G1 X147.564 Y139.009 E.15825
G1 X146.769 Y139.805 E.13361
G1 X145.896 Y140.487 E.13157
G1 X144.927 Y141.068 E.13418
G1 X143.698 Y141.594 E.15877
G1 X142.639 Y141.887 E.1305
G1 X141.522 Y142.053 E.13412
G1 X108.923 Y142.08 E3.87163
G1 X107.158 Y141.841 E.21153
G1 X106.077 Y141.513 E.13416
G1 X105.258 Y141.162 E.10583
G1 X104.104 Y140.487 E.15878
G1 X103.237 Y139.811 E.13057
G1 X102.306 Y138.859 E.15814
G1 X101.635 Y137.955 E.13371
G1 X101.091 Y136.996 E.13094
G1 X100.656 Y135.948 E.13476
G1 X100.318 Y134.664 E.15769
G1 X100.182 Y133.565 E.13152
G1 X100.165 Y76.881 E6.73209
G1 X100.246 Y75.789 E.13005
G1 X100.409 Y74.908 E.10641
G1 X100.737 Y73.827 E.13416
G1 X101.085 Y73.016 E.10481
G1 X101.598 Y72.108 E.12386
G1 X102.219 Y72.459 F10800
G1 F1440
G1 X102.839 Y71.617 E.12419
G1 X103.55 Y70.869 E.12257
G1 X104.345 Y70.216 E.12219
G1 X105.387 Y69.574 E.14536
G1 X106.334 Y69.153 E.12308
G1 X107.315 Y68.855 E.12177
G1 X108.328 Y68.68 E.12209
G1 X109.25 Y68.628 E.10968
G1 X140.852 Y68.629 E3.75322
G1 X142.483 Y68.81 E.1949
G1 X143.859 Y69.228 E.17079
G1 X145.313 Y69.981 E.19447
G1 X146.447 Y70.866 E.17084
G1 X147.41 Y71.929 E.17035
G1 X148.18 Y73.144 E.17084
G1 X148.731 Y74.473 E.17087
G1 X149.07 Y76.078 E.19482
G1 X149.122 Y77 E.10968
G1 X149.121 Y133.102 E6.66296
G1 X149.07 Y133.922 E.09758
G1 X148.895 Y134.935 E.12209
G1 X148.666 Y135.724 E.09757
G1 X148.274 Y136.671 E.12173
G1 X147.766 Y137.566 E.12222
G1 X147.023 Y138.543 E.14578
G1 X146.302 Y139.265 E.12118
G1 X145.485 Y139.904 E.12318
G1 X144.606 Y140.43 E.12166
G1 X143.474 Y140.916 E.14631
G1 X142.483 Y141.19 E.12211
G1 X141.469 Y141.34 E.12174
G1 X109.148 Y141.371 E3.83861
G1 X108.122 Y141.295 E.12219
G1 X107.315 Y141.145 E.09749
G1 X106.334 Y140.847 E.12177
G1 X105.579 Y140.524 E.09753
G1 X104.515 Y139.904 E.14625
G1 X103.704 Y139.271 E.12218
G1 X102.846 Y138.392 E.14588
G1 X102.238 Y137.573 E.12114
G1 X101.728 Y136.674 E.12275
G1 X101.334 Y135.724 E.12215
G1 X101.022 Y134.541 E.1453
G1 X100.894 Y133.512 E.12315
G1 X100.879 Y76.898 E6.72377
G1 X100.954 Y75.876 E.1217
M73 P1 R38
G1 X101.105 Y75.065 E.09797
G1 X101.723 Y73.336 E.21807
G1 X102.19 Y72.511 E.11259
G1 X102.81 Y72.863 F10800
G1 F1440
G1 X103.38 Y72.083 E.11474
G1 X104.043 Y71.386 E.11425
G1 X104.756 Y70.8 E.10961
G1 X105.708 Y70.211 E.13295
G1 X106.591 Y69.819 E.11474
G1 X107.471 Y69.552 E.10922
G1 X108.416 Y69.388 E.11391
G1 X140.834 Y69.343 E3.85013
G1 X142.326 Y69.507 E.17826
G1 X143.602 Y69.894 E.15836
G1 X144.931 Y70.585 E.1779
G1 X145.954 Y71.383 E.15409
G1 X146.847 Y72.368 E.1579
G1 X147.542 Y73.465 E.15423
G1 X148.053 Y74.697 E.15841
G1 X148.362 Y76.166 E.17828
G1 X148.408 Y133 E6.7499
G1 X148.362 Y133.834 E.0992
M73 Q1 S47
G1 X148.198 Y134.779 E.11391
G1 X147.636 Y136.35 E.19816
G1 X147.163 Y137.184 E.11387
G1 X146.482 Y138.077 E.13338
G1 X145.835 Y138.725 E.10875
G1 X145.074 Y139.32 E.11473
G1 X144.285 Y139.792 E.10919
G1 X143.25 Y140.238 E.13385
G1 X142.326 Y140.493 E.11384
G1 X141.417 Y140.628 E.10914
G1 X109.166 Y140.657 E3.8303
G1 X107.471 Y140.448 E.20283
G1 X105.9 Y139.886 E.19816
G1 X104.926 Y139.32 E.13379
G1 X104.17 Y138.73 E.11389
G1 X103.387 Y137.925 E.13337
G1 X102.841 Y137.19 E.10874
G1 X102.366 Y136.353 E.1143
G1 X102.012 Y135.5 E.10968
G1 X101.725 Y134.419 E.13283
G1 X101.607 Y133.46 E.11475
G1 X101.593 Y76.916 E6.71546
G1 X101.802 Y75.221 E.20283
G1 X102.361 Y73.657 E.19726
G1 X102.781 Y72.915 E.10126
G1 X103.402 Y73.266 F10800
G1 F1440
G1 X103.921 Y72.549 E.10512
G1 X104.535 Y71.903 E.10585
G1 X105.168 Y71.384 E.09722
G1 X106.03 Y70.849 E.12049
G1 X106.848 Y70.485 E.10633
G1 X107.628 Y70.249 E.09678
G1 X108.503 Y70.097 E.10548
G1 X140.817 Y70.057 E3.83778
G1 X142.17 Y70.204 E.16163
M73 Q1 S46
G1 X143.345 Y70.56 E.14581
G1 X144.55 Y71.189 E.16144
G1 X145.462 Y71.9 E.13734
G1 X146.362 Y72.912 E.16084
G1 X146.998 Y73.971 E.14671
G1 X147.413 Y75.048 E.13708
G1 X147.666 Y76.386 E.16172
G1 X147.694 Y133 E6.72377
G1 X147.501 Y134.622 E.194
G1 X146.998 Y136.029 E.17746
G1 X146.56 Y136.802 E.10552
G1 X145.941 Y137.611 E.12098
G1 X145.368 Y138.184 E.09624
G1 X144.663 Y138.736 E.10634
G1 X143.964 Y139.154 E.09673
G1 X143.152 Y139.515 E.10554
G1 X142.17 Y139.796 E.12131
G1 X141.364 Y139.916 E.09678
G1 X109.183 Y139.943 E3.82198
G1 X107.628 Y139.751 E.18608
G1 X106.221 Y139.248 E.17746
G1 X105.337 Y138.736 E.12133
G1 X104.637 Y138.189 E.10551
G1 X103.927 Y137.458 E.12103
G1 X103.444 Y136.807 E.09627
G1 X103.003 Y136.031 E.106
G1 X102.691 Y135.276 E.09702
G1 X102.429 Y134.296 E.12048
G1 X102.319 Y133.407 E.10639
G1 X102.306 Y77 E6.69919
G1 X102.499 Y75.378 E.194
G1 X102.999 Y73.977 E.17667
G1 X103.372 Y73.318 E.08993
; printing object 2cam-plate-35mm.stl id:0 copy 0
;WIPE_START
G1 F8640
G1 X103.607 Y72.989 E-.8
;WIPE_END
G1 X143.678 Y130.055 F10800
G1 E.8 F18000
;TYPE:Perimeter
;WIDTH:0.8
G1 F1440
G1 X143.582 Y129.958 E.01621
G1 X142.917 Y129.449 E.09946
G1 X142.17 Y129.09 E.09843
G1 X141.367 Y128.886 E.0984
G1 X140.54 Y128.845 E.09834
G1 X139.721 Y128.969 E.09838
G1 X138.942 Y129.253 E.09847
G1 X138.236 Y129.685 E.0983
G1 X137.629 Y130.249 E.09841
G1 X137.146 Y130.922 E.09838
G1 X136.878 Y131.477 E.0732
G1 X136.779 Y131.78 E.03786
G1 X136.622 Y132.484 E.08566
G1 X136.601 Y133.302 E.09718
G1 X136.746 Y134.13 E.09983
G1 X137.049 Y134.901 E.09839
G1 X137.371 Y135.427 E.07325
G1 X137.79 Y135.918 E.07666
G1 X109.16 Y135.909 E3.40025
G1 X108.656 Y135.845 E.06034
G1 X108.163 Y135.695 E.0612
G1 X107.715 Y135.466 E.05975
G1 X107.255 Y135.1 E.06981
G1 X106.9 Y134.709 E.06272
G1 X106.635 Y134.267 E.06121
G1 X106.45 Y133.772 E.06276
G1 X106.34 Y133.129 E.07748
G1 X106.329 Y125.457 E.91117
G1 X107.083 Y126.051 E.114
G1 X107.83 Y126.41 E.09843
G1 X108.633 Y126.614 E.0984
G1 X109.46 Y126.655 E.09834
G1 X110.279 Y126.531 E.09838
G1 X111.058 Y126.247 E.09847
M73 P2 R38
G1 X111.764 Y125.815 E.0983
G1 X112.371 Y125.251 E.09841
G1 X112.854 Y124.578 E.09838
G1 X113.122 Y124.023 E.0732
G1 X113.232 Y123.677 E.04312
G1 X113.378 Y123.016 E.0804
G1 X113.409 Y122.41 E.07207
G1 X113.368 Y122.016 E.04705
G1 X113.193 Y121.172 E.10237
G1 X112.851 Y120.417 E.09844
G1 X112.367 Y119.745 E.09836
G1 X111.76 Y119.182 E.09833
G1 X111.052 Y118.75 E.0985
G1 X110.274 Y118.468 E.09828
G1 X109.667 Y118.361 E.0732
G1 X109.04 Y118.345 E.07449
G1 X108.221 Y118.469 E.09838
G1 X107.442 Y118.753 E.09847
G1 X106.723 Y119.197 E.10036
G1 X106.325 Y119.56 E.06398
G1 X106.325 Y90.448 E3.45749
G1 X106.646 Y90.727 E.05051
G1 X107.083 Y91.051 E.06461
G1 X107.83 Y91.41 E.09843
G1 X108.633 Y91.614 E.0984
G1 X109.46 Y91.655 E.09834
G1 X110.279 Y91.531 E.09838
G1 X111.058 Y91.247 E.09847
G1 X111.764 Y90.815 E.0983
G1 X112.371 Y90.251 E.09841
G1 X112.854 Y89.578 E.09838
G1 X113.122 Y89.023 E.0732
G1 X113.232 Y88.677 E.04312
G1 X113.378 Y88.016 E.0804
G1 X113.409 Y87.41 E.07207
G1 X113.368 Y87.016 E.04705
G1 X113.193 Y86.172 E.10237
G1 X112.851 Y85.417 E.09844
G1 X112.367 Y84.745 E.09836
G1 X111.76 Y84.182 E.09833
G1 X111.052 Y83.75 E.0985
G1 X110.274 Y83.468 E.09828
G1 X109.667 Y83.361 E.0732
G1 X109.04 Y83.345 E.07449
G1 X108.221 Y83.469 E.09838
G1 X107.442 Y83.753 E.09847
G1 X106.723 Y84.197 E.10036
G1 X106.328 Y84.557 E.06347
G1 X106.339 Y77.05 E.89157
G1 X106.392 Y76.444 E.07225
G1 X106.561 Y75.886 E.06924
G1 X106.696 Y75.635 E.03385
G1 X106.974 Y75.195 E.06181
G1 X107.393 Y74.758 E.0719
G1 X107.889 Y74.426 E.07089
G1 X108.483 Y74.199 E.07552
G1 X109.121 Y74.09 E.07687
G1 X137.793 Y74.082 E3.40523
G1 X137.635 Y74.247 E.02713
G1 X137.146 Y74.922 E.09899
G1 X136.805 Y75.678 E.0985
G1 X136.622 Y76.484 E.09816
G1 X136.605 Y77.329 E.10038
G1 X136.807 Y78.328 E.12105
G1 X137.047 Y78.895 E.07312
G1 X137.28 Y79.275 E.05294
G1 X137.633 Y79.755 E.07076
G1 X138.24 Y80.318 E.09833
G1 X138.948 Y80.75 E.0985
G1 X139.726 Y81.032 E.09828
G1 X140.546 Y81.155 E.09848
G1 X141.373 Y81.113 E.09835
G1 X142.176 Y80.908 E.09843
G1 X142.737 Y80.655 E.07309
G1 X143.293 Y80.279 E.07972
G1 X143.675 Y79.936 E.06097
G1 X143.673 Y95.05 E1.79502
G1 X143.523 Y94.91 E.02437
G1 X142.917 Y94.449 E.09043
G1 X142.17 Y94.09 E.09843
G1 X141.367 Y93.886 E.0984
G1 X140.54 Y93.845 E.09834
G1 X139.721 Y93.969 E.09838
G1 X138.942 Y94.253 E.09847
G1 X138.236 Y94.685 E.0983
G1 X137.629 Y95.249 E.09841
G1 X137.146 Y95.922 E.09838
G1 X136.805 Y96.678 E.0985
G1 X136.622 Y97.484 E.09816
G1 X136.605 Y98.329 E.10038
G1 X136.807 Y99.328 E.12105
G1 X137.149 Y100.083 E.09844
G1 X137.633 Y100.755 E.09836
G1 X138.24 Y101.318 E.09833
G1 X138.948 Y101.75 E.0985
G1 X139.726 Y102.032 E.09828
G1 X140.333 Y102.139 E.0732
G1 X140.752 Y102.15 E.04978
G1 X141.373 Y102.113 E.07388
G1 X142.176 Y101.908 E.09843
G1 X142.926 Y101.546 E.09891
G1 X143.424 Y101.184 E.07312
G1 X143.67 Y100.942 E.04098
G1 X143.675 Y109.051 E.96307
G1 X143.426 Y108.831 E.03946
G1 X142.917 Y108.449 E.07558
G1 X142.17 Y108.09 E.09843
G1 X141.367 Y107.886 E.0984
G1 X140.54 Y107.845 E.09834
G1 X139.721 Y107.969 E.09838
G1 X138.942 Y108.253 E.09847
G1 X138.236 Y108.685 E.0983
G1 X137.629 Y109.249 E.09841
G1 X137.146 Y109.922 E.09838
G1 X136.805 Y110.678 E.0985
G1 X136.622 Y111.484 E.09816
G1 X136.605 Y112.329 E.10038
G1 X136.807 Y113.328 E.12105
G1 X137.047 Y113.895 E.07312
G1 X137.28 Y114.275 E.05294
G1 X137.633 Y114.755 E.07076
G1 X138.24 Y115.318 E.09833
G1 X138.948 Y115.75 E.0985
G1 X139.726 Y116.032 E.09828
G1 X140.546 Y116.155 E.09848
G1 X141.373 Y116.113 E.09835
G1 X142.176 Y115.908 E.09843
G1 X142.925 Y115.546 E.0988
G1 X143.424 Y115.184 E.07322
G1 X143.673 Y114.938 E.04157
G1 X143.677 Y129.995 E1.78825
;WIPE_START
G1 F8640
G1 X143.582 Y129.958 E-.20178
G1 X143.342 Y129.774 E-.59822
;WIPE_END
G1 X144.588 Y111.232 F10800
G1 E.8 F18000
;TYPE:External perimeter
;WIDTH:0.789071
G1 F1440
G1 X144.598 Y111.344 E.01315
;WIDTH:0.763816
G1 X144.612 Y111.893 E.06192
;WIDTH:0.75651
G1 X144.601 Y112.574 E.07596
;WIDTH:0.782388
G1 X144.582 Y112.847 E.0317
;WIDTH:0.808266
G1 X144.563 Y113.119 E.03276
;WIDTH:0.821014
G1 X144.485 Y113.618 E.06175
G1 X144.407 Y114.443 E.10131
;WIDTH:0.8
G1 X144.38 Y115.158 E.08498
G1 X144.38 Y129.036 E1.64822
G1 X144.419 Y130.768 E.20575
;WIDTH:0.826753
M73 Q2 S46
G1 X144.473 Y131.354 E.07251
G1 X144.582 Y132.06 E.08802
;WIDTH:0.794844
G1 X144.598 Y132.344 E.03354
;WIDTH:0.763814
G1 X144.612 Y132.893 E.06192
;WIDTH:0.737311
G1 X144.589 Y133.394 E.05434
;WIDTH:0.739202
G1 X144.496 Y133.922 E.05825
G1 X144.352 Y134.381 E.05227
;WIDTH:0.737323
G1 X144.141 Y134.84 E.05473
;WIDTH:0.738795
G1 X143.834 Y135.317 E.0616
G1 X143.462 Y135.746 E.06166
;WIDTH:0.735457
G1 X142.941 Y136.177 E.07305
;WIDTH:0.731638
G1 X142.373 Y136.498 E.07007
;WIDTH:0.738553
G1 X141.855 Y136.696 E.06019
;WIDTH:0.738847
G1 X141.292 Y136.82 E.0626
G1 X140.775 Y136.859 E.0563
;WIDTH:0.763126
G1 X140.271 Y136.844 E.05679
;WIDTH:0.794415
G1 X139.767 Y136.829 E.05942
;WIDTH:0.829812
G1 X139.069 Y136.716 E.08748
G1 X138.431 Y136.672 E.07912
;WIDTH:0.8
G1 X137.8 Y136.632 E.07509
G1 X109.353 Y136.63 E3.37851
G1 X109.125 Y136.623 E.02709
G1 X108.534 Y136.548 E.07075
G1 X108.032 Y136.418 E.06159
G1 X107.54 Y136.2 E.06391
G1 X107.092 Y135.916 E.063
G1 X106.559 Y135.434 E.08535
G1 X106.337 Y135.148 E.043
G1 X106.052 Y134.715 E.06157
G1 X105.834 Y134.222 E.06402
G1 X105.691 Y133.708 E.06336
G1 X105.625 Y133.173 E.06402
G1 X105.618 Y125.548 E.90558
G1 X105.576 Y124.712 E.09941
;WIDTH:0.828792
G1 X105.525 Y124.151 E.0696
G1 X105.428 Y123.58 E.07156
;WIDTH:0.804518
G1 X105.403 Y123.156 E.05076
;WIDTH:0.763412
G1 X105.388 Y122.607 E.06188
;WIDTH:0.761156
G1 X105.402 Y122.106 E.05629
;WIDTH:0.787777
G1 X105.416 Y121.604 E.05862
;WIDTH:0.820991
G1 X105.554 Y120.463 E.14051
;WIDTH:0.8
G1 X105.603 Y119.862 E.07161
G1 X105.62 Y119.124 E.08767
G1 X105.62 Y90.867 E3.35595
G1 X105.583 Y89.75 E.13273
;WIDTH:0.81768
G1 X105.437 Y88.498 E.15341
;WIDTH:0.790717
G1 X105.403 Y88.156 E.04029
;WIDTH:0.763754
G1 X105.388 Y87.607 E.06192
;WIDTH:0.756122
G1 X105.399 Y86.926 E.07592
;WIDTH:0.804828
G1 X105.428 Y86.42 E.0606
;WIDTH:0.825385
G1 X105.514 Y85.912 E.06337
G1 X105.575 Y85.308 E.07466
;WIDTH:0.8
G1 X105.619 Y84.434 E.10393
G1 X105.625 Y76.827 E.90345
G1 X105.691 Y76.296 E.06355
G1 X105.898 Y75.612 E.08487
G1 X106.236 Y74.981 E.08502
G1 X106.562 Y74.563 E.06296
G1 X106.945 Y74.198 E.06283
G1 X107.543 Y73.798 E.08545
G1 X108.028 Y73.584 E.06296
G1 X108.542 Y73.441 E.06336
G1 X109.077 Y73.375 E.06402
G1 X137.821 Y73.367 E3.41378
G1 X138.834 Y73.301 E.12056
;WIDTH:0.811913
G1 X139.776 Y73.193 E.11449
;WIDTH:0.783435
G1 X140.215 Y73.148 E.0512
;WIDTH:0.754958
G1 X140.966 Y73.157 E.08357
;WIDTH:0.73781
G1 X141.534 Y73.224 E.06201
;WIDTH:0.737917
G1 X142.196 Y73.426 E.07506
G1 X142.566 Y73.608 E.04471
;WIDTH:0.72475
G1 X143.103 Y73.955 E.06793
;WIDTH:0.738425
G1 X143.5 Y74.295 E.05673
G1 X143.862 Y74.722 E.06075
;WIDTH:0.737065
G1 X144.25 Y75.38 E.08273
;WIDTH:0.737873
G1 X144.498 Y76.094 E.08196
G1 X144.609 Y76.891 E.08726
;WIDTH:0.748118
G1 X144.603 Y77.464 E.06311
;WIDTH:0.795953
G1 X144.578 Y77.99 E.06219
;WIDTH:0.8
G1 X144.446 Y78.944 E.11438
G1 X144.398 Y79.469 E.06261
G1 X144.38 Y80.469 E.11878
G1 X144.38 Y94.855 E1.70856
G1 X144.408 Y95.589 E.08724
;WIDTH:0.818518
G1 X144.459 Y96.204 E.07519
G1 X144.559 Y96.837 E.07808
;WIDTH:0.80866
G1 X144.598 Y97.344 E.06112
;WIDTH:0.763816
