; generated by PrusaSlicer 2.7.0+win64 on 2024-01-30 at 12:29:02 UTC


;
;
; 

; external perimeters extrusion width = 0.60mm
; perimeters extrusion width = 0.60mm
; infill extrusion width = 0.50mm
; solid infill extrusion width = 0.45mm
; top infill extrusion width = 0.40mm
; first layer extrusion width = 0.80mm

; external perimeters extrusion width = 0.40mm
; perimeters extrusion width = 0.40mm
; infill extrusion width = 0.50mm
; solid infill extrusion width = 0.45mm
; top infill extrusion width = 0.40mm
; first layer extrusion width = 0.80mm

; external perimeters extrusion width = 0.60mm
; perimeters extrusion width = 0.60mm
; infill extrusion width = 0.50mm
; solid infill extrusion width = 0.45mm
; top infill extrusion width = 0.40mm
; first layer extrusion width = 0.80mm

; external perimeters extrusion width = 0.40mm
; perimeters extrusion width = 0.40mm
; infill extrusion width = 0.50mm
; solid infill extrusion width = 0.45mm
; top infill extrusion width = 0.40mm
; first layer extrusion width = 0.80mm

M73 P0 R174
M73 Q0 S190
M201 X5000 Y5000 Z200 E10000 ; sets maximum accelerations, mm/sec^2
M203 X200 Y200 Z30 E120 ; sets maximum feedrates, mm / sec
M204 S3000 T3000 ; sets acceleration (S) and retract acceleration (R), mm/sec^2
M205 X8.00 Y8.00 Z0.40 E4.50 ; sets the jerk limits, mm/sec
M205 S0 T0 ; sets the minimum extruding and travel feed rate, mm/sec

; printing object Tilt_mirror_rotor rotor.stl id:0 copy 0
; stop printing object Tilt_mirror_rotor rotor.stl id:0 copy 0

;TYPE:Custom
M862.3 P "MK3" ; printer model check
M862.1 P0.4 ; nozzle diameter check
M115 U3.12.1 ; tell printer latest fw version
G90 ; use absolute coordinates
M83 ; extruder relative mode
M104 S245 ; set extruder temp
M140 S85 ; set bed temp
M190 S85 ; wait for bed temp
M109 S245 ; wait for extruder temp
G28 W ; home all without mesh bed level
G80 ; mesh bed leveling

G1 Z0.2 F720
G1 Y-3 F1000 ; go outside print area
G92 E0
G1 X60 E9 F1000 ; intro line
G1 X100 E12.5 F1000 ; intro line

G92 E0
M221 S95

; Don't change E values below. Excessive value can damage the printer.

G21 ; set units to millimeters
G90 ; use absolute coordinates
M83 ; use relative distances for extrusion
M900 K0.08 ; Filament gcode LA 1.5
M900 K45 ; Filament gcode LA 1.0
M107
;LAYER_CHANGE
;Z:0.4
;HEIGHT:0.4
;BEFORE_LAYER_CHANGE
G92 E0.0
;0.4


G1 Z.4 F1800
;AFTER_LAYER_CHANGE
;0.4
G1 E-.8 F18000
G1 X87.982 Y80.286 F10800
G1 Z.4 F1800
G1 E.8 F18000
M204 S3000
;TYPE:Skirt/Brim
;WIDTH:0.8
G1 F1440
G1 X89.788 Y78.472 E.30401
G1 X92.126 Y76.441 E.36781
G1 X95.082 Y74.328 E.43154
G1 X98.234 Y72.52 E.43156
G1 X101.55 Y71.036 E.43146
G1 X104.997 Y69.888 E.43149
G1 X108.542 Y69.09 E.43156
G1 X112.148 Y68.648 E.43147
G1 X115.781 Y68.568 E.43158
G1 X119.198 Y68.824 E.40696
G1 X122.778 Y69.445 E.43153
G1 X126.279 Y70.419 E.43159
G1 X129.665 Y71.737 E.43153
G1 X132.903 Y73.385 E.4315
G1 X135.96 Y75.348 E.43147
G1 X138.807 Y77.605 E.43149
G1 X141.416 Y80.135 E.43162
G1 X143.759 Y82.911 E.43143
G1 X145.814 Y85.908 E.43158
G1 X147.561 Y89.094 E.43154
G1 X148.982 Y92.438 E.43152
G1 X150.063 Y95.907 E.43154
G1 X150.793 Y99.466 E.43149
G1 X151.165 Y103.08 E.43149
G1 X151.175 Y106.714 E.43159
G1 X150.823 Y110.33 E.43148
G1 X150.114 Y113.893 E.43146
G1 X149.052 Y117.368 E.43155
G1 X147.651 Y120.72 E.43147
G1 X145.922 Y123.916 E.43156
G1 X143.884 Y126.924 E.43152
G1 X141.556 Y129.714 E.43156
G1 X138.962 Y132.258 E.43151
G1 X136.128 Y134.532 E.43154
G1 X133.081 Y136.512 E.43157
G1 X129.853 Y138.178 E.43142
G1 X126.474 Y139.515 E.43158
G1 X124.541 Y140.112 E.24027
G1 X120.996 Y140.91 E.43156
G1 X117.39 Y141.352 E.43147
G1 X113.757 Y141.432 E.43158
G1 X110.34 Y141.176 E.40696
G1 X106.76 Y140.555 E.43153
G1 X103.259 Y139.581 E.43159
G1 X99.873 Y138.263 E.43153
G1 X96.635 Y136.615 E.4315
M73 P0 R173
G1 X93.578 Y134.652 E.43147
G1 X90.73 Y132.395 E.43158
G1 X88.122 Y129.865 E.43154
G1 X85.779 Y127.089 E.43143
G1 X83.724 Y124.092 E.43158
G1 X81.977 Y120.906 E.43154
G1 X80.556 Y117.562 E.43152
G1 X79.475 Y114.093 E.43154
G1 X78.745 Y110.534 E.43149
G1 X78.373 Y106.92 E.43149
G1 X78.363 Y103.286 E.43159
G1 X78.714 Y99.67 E.43147
G1 X79.424 Y96.107 E.43148
G1 X80.485 Y92.632 E.43152
G1 X81.887 Y89.28 E.43152
G1 X83.616 Y86.084 E.43156
G1 X85.654 Y83.076 E.43152
G1 X87.943 Y80.332 E.42439
G1 X88.491 Y80.79 F10800
G1 F1440
G1 X88.517 Y80.759 E.00481
G1 X90.274 Y78.996 E.29561
G1 X92.557 Y77.01 E.35938
G1 X95.454 Y74.938 E.42301
G1 X98.544 Y73.164 E.42316
G1 X101.794 Y71.707 E.423
G1 X105.173 Y70.58 E.42304
G1 X108.648 Y69.796 E.42308
G1 X112.184 Y69.361 E.42312
G1 X115.745 Y69.281 E.42303
G1 X119.127 Y69.534 E.40279
G1 X122.637 Y70.145 E.42313
G1 X126.068 Y71.101 E.42301
G1 X129.387 Y72.395 E.42308
G1 X132.561 Y74.012 E.42306
G1 X135.558 Y75.938 E.4231
G1 X138.348 Y78.152 E.42301
G1 X140.904 Y80.633 E.42305
G1 X143.201 Y83.357 E.42318
G1 X145.214 Y86.295 E.42298
G1 X146.925 Y89.419 E.42303
G1 X148.317 Y92.699 E.42318
G1 X149.375 Y96.1 E.42301
G1 X150.089 Y99.59 E.42308
G1 X150.452 Y103.134 E.42311
G1 X150.461 Y106.696 E.42304
G1 X150.115 Y110.241 E.42302
G1 X149.417 Y113.734 E.42305
G1 X148.375 Y117.141 E.42313
G1 X147 Y120.427 E.42305
G1 X145.303 Y123.559 E.42306
G1 X143.304 Y126.507 E.42302
G1 X141.021 Y129.241 E.42302
G1 X138.477 Y131.735 E.42311
G1 X135.697 Y133.962 E.42304
G1 X132.709 Y135.902 E.42311
G1 X129.543 Y137.535 E.42308
G1 X126.23 Y138.844 E.42307
G1 X124.364 Y139.42 E.23193
G1 X120.89 Y140.204 E.42297
G1 X117.354 Y140.639 E.42312
G1 X113.793 Y140.719 E.42303
G1 X110.411 Y140.466 E.40279
G1 X106.901 Y139.855 E.42313
G1 X103.47 Y138.899 E.42301
G1 X100.151 Y137.605 E.42308
G1 X96.977 Y135.988 E.42306
G1 X93.98 Y134.062 E.4231
G1 X91.19 Y131.848 E.42301
G1 X88.634 Y129.367 E.42305
G1 X86.337 Y126.643 E.42318
G1 X84.324 Y123.705 E.42298
G1 X82.612 Y120.581 E.42308
G1 X81.221 Y117.301 E.42313
G1 X80.163 Y113.9 E.42301
G1 X79.449 Y110.41 E.42308
G1 X79.085 Y106.866 E.42312
G1 X79.077 Y103.304 E.42304
G1 X79.423 Y99.759 E.42302
G1 X80.121 Y96.266 E.42305
G1 X81.162 Y92.859 E.4231
G1 X82.538 Y89.573 E.4231
G1 X84.234 Y86.441 E.42301
G1 X86.234 Y83.493 E.42309
G1 X88.453 Y80.836 E.41113
G1 X89.003 Y81.348 F10800
G1 F1440
G1 X90.366 Y79.884 E.23756
G1 X92.988 Y77.579 E.41462
G1 X95.827 Y75.547 E.41464
G1 X98.853 Y73.807 E.41456
G1 X102.038 Y72.378 E.4146
G1 X105.35 Y71.272 E.4147
G1 X108.755 Y70.502 E.41461
G1 X112.22 Y70.075 E.41463
G1 X115.71 Y69.994 E.4146
G1 X119.19 Y70.262 E.41453
G1 X122.627 Y70.875 E.41464
G1 X125.986 Y71.827 E.41465
G1 X129.233 Y73.108 E.41456
G1 X132.337 Y74.707 E.41469
G1 X135.266 Y76.607 E.41464
G1 X137.991 Y78.789 E.4146
G1 X140.485 Y81.231 E.41455
G1 X142.724 Y83.91 E.41466
G1 X144.685 Y86.798 E.41459
G1 X146.29 Y89.745 E.39854
G1 X147.652 Y92.959 E.41457
G1 X148.688 Y96.293 E.41464
G1 X149.386 Y99.714 E.41467
G1 X149.74 Y103.187 E.41461
G1 X149.747 Y106.678 E.41461
G1 X149.406 Y110.152 E.41457
G1 X148.721 Y113.575 E.41459
G1 X148.212 Y115.386 E.22342
G1 X147.011 Y118.665 E.41473
G1 X145.49 Y121.807 E.41458
G1 X143.664 Y124.782 E.41457
G1 X141.551 Y127.561 E.41462
G1 X139.172 Y130.116 E.41462
G1 X136.55 Y132.421 E.41462
G1 X133.711 Y134.453 E.41464
G1 X130.684 Y136.193 E.41466
G1 X127.5 Y137.622 E.41449
G1 X124.188 Y138.728 E.4147
G1 X120.783 Y139.498 E.41461
G1 X117.318 Y139.925 E.41463
G1 X113.828 Y140.006 E.4146
G1 X110.482 Y139.755 E.3985
G1 X107.043 Y139.155 E.4146
G1 X103.68 Y138.216 E.41468
G1 X100.428 Y136.947 E.41459
G1 X97.318 Y135.361 E.41462
G1 X94.382 Y133.472 E.41463
G1 X91.649 Y131.301 E.41453
G1 X89.145 Y128.868 E.41465
G1 X86.896 Y126.198 E.41461
G1 X84.923 Y123.317 E.41471
G1 X83.248 Y120.255 E.41451
G1 X81.886 Y117.041 E.41457
G1 X80.85 Y113.707 E.41464
G1 X80.152 Y110.286 E.41467
G1 X79.798 Y106.813 E.41461
G1 X79.791 Y103.322 E.41461
G1 X80.132 Y99.848 E.41457
G1 X80.817 Y96.425 E.41459
G1 X81.326 Y94.614 E.22342
G1 X82.527 Y91.335 E.41473
G1 X84.047 Y88.193 E.41453
G1 X85.874 Y85.218 E.41463
G1 X87.987 Y82.439 E.41462
G1 X88.962 Y81.392 E.16991
; printing object Tilt_mirror_rotor rotor.stl id:0 copy 0
;WIPE_START
G1 F8640
G1 X89.003 Y81.348 E-.11903
G1 X89.238 Y81.096 E-.68097
;WIPE_END
G1 X142.431 Y118.953 F10800
G1 E.8 F18000
;TYPE:Perimeter
;WIDTH:0.8
G1 F1440
G1 X141.985 Y119.821 E.1159
G1 X141.213 Y121.16 E.18356
G1 X140.374 Y122.458 E.18356
G1 X139.472 Y123.712 E.18346
G1 X138.509 Y124.92 E.18348
G1 X137.487 Y126.079 E.18352
G1 X136.408 Y127.185 E.18351
G1 X135.275 Y128.236 E.18354
G1 X134.091 Y129.229 E.18353
G1 X132.859 Y130.162 E.18354
G1 X131.583 Y131.033 E.18348
G1 X130.264 Y131.838 E.18352
G1 X128.907 Y132.577 E.18351
G1 X127.515 Y133.248 E.18353
G1 X126.091 Y133.848 E.18352
G1 X124.639 Y134.377 E.18354
G1 X123.162 Y134.832 E.18355
G1 X121.665 Y135.213 E.18346
G1 X120.15 Y135.52 E.18359
G1 X118.622 Y135.75 E.18352
G1 X117.085 Y135.904 E.18346
G1 X115.542 Y135.981 E.18348
G1 X113.996 Y135.981 E.18361
G1 X112.453 Y135.904 E.18348
G1 X110.915 Y135.75 E.18357
G1 X109.388 Y135.52 E.1834
G1 X107.873 Y135.213 E.18359
G1 X106.376 Y134.832 E.18346
G1 X104.899 Y134.377 E.18355
G1 X103.447 Y133.848 E.18354
G1 X102.023 Y133.248 E.18352
G1 X100.631 Y132.577 E.18353
G1 X99.274 Y131.838 E.18351
G1 X97.955 Y131.033 E.18352
G1 X96.678 Y130.162 E.18358
G1 X95.447 Y129.229 E.18345
G1 X94.263 Y128.236 E.18353
G1 X93.13 Y127.185 E.18354
G1 X92.051 Y126.079 E.18351
G1 X91.029 Y124.92 E.18352
G1 X90.065 Y123.712 E.18355
G1 X89.163 Y122.458 E.18346
G1 X88.325 Y121.16 E.18349
G1 X87.553 Y119.821 E.18356
G1 X86.848 Y118.446 E.18352
G1 X86.212 Y117.038 E.18349
G1 X85.647 Y115.599 E.1836
G1 X85.155 Y114.135 E.18343
G1 X84.737 Y112.647 E.18356
G1 X84.393 Y111.141 E.18347
G1 X84.125 Y109.619 E.18354
G1 X83.933 Y108.086 E.18349
G1 X83.817 Y106.545 E.18353
G1 X83.779 Y105 E.18355
G1 X83.817 Y103.455 E.18355
G1 X83.933 Y101.914 E.18353
G1 X84.125 Y100.381 E.18349
G1 X84.393 Y98.859 E.18354
G1 X84.737 Y97.353 E.18347
G1 X85.155 Y95.865 E.18356
G1 X85.647 Y94.401 E.18343
G1 X86.212 Y92.962 E.1836
G1 X86.848 Y91.554 E.18349
G1 X87.553 Y90.179 E.18352
G1 X88.325 Y88.84 E.18356
G1 X89.163 Y87.542 E.18349
G1 X90.065 Y86.288 E.18346
G1 X91.029 Y85.08 E.18355
G1 X92.051 Y83.921 E.18352
G1 X93.13 Y82.815 E.18351
G1 X94.263 Y81.764 E.18354
G1 X95.447 Y80.771 E.18353
G1 X96.678 Y79.838 E.18345
G1 X97.955 Y78.967 E.18358
G1 X99.274 Y78.162 E.18352
G1 X100.631 Y77.423 E.18351
G1 X102.023 Y76.752 E.18353
G1 X103.447 Y76.152 E.18352
G1 X104.899 Y75.623 E.18354
G1 X106.376 Y75.168 E.18355
G1 X107.873 Y74.787 E.18346
G1 X109.388 Y74.48 E.18359
G1 X110.915 Y74.25 E.1834
G1 X112.453 Y74.096 E.18357
G1 X113.992 Y74.019 E.18301
G1 X115.801 Y74.032 E.21485
G1 X117.085 Y74.096 E.15268
G1 X118.622 Y74.25 E.18346
G1 X120.15 Y74.48 E.18352
G1 X121.665 Y74.787 E.18359
G1 X123.162 Y75.168 E.18346
G1 X124.639 Y75.623 E.18355
G1 X126.091 Y76.152 E.18354
G1 X127.515 Y76.752 E.18352
G1 X128.907 Y77.423 E.18353
G1 X130.264 Y78.162 E.18351
G1 X131.583 Y78.967 E.18352
G1 X132.859 Y79.838 E.18348
G1 X134.091 Y80.771 E.18354
G1 X135.275 Y81.764 E.18353
G1 X136.408 Y82.815 E.18354
G1 X137.486 Y83.921 E.18343
G1 X138.509 Y85.08 E.1836
G1 X139.472 Y86.288 E.18348
G1 X140.374 Y87.543 E.18355
G1 X141.213 Y88.84 E.18346
G1 X141.985 Y90.179 E.18356
G1 X142.69 Y91.554 E.18352
G1 X143.326 Y92.962 E.18349
G1 X143.89 Y94.401 E.18356
G1 X144.383 Y95.865 E.18347
G1 X144.801 Y97.353 E.18356
G1 X145.145 Y98.859 E.18347
G1 X145.413 Y100.381 E.18354
G1 X145.605 Y101.914 E.18349
G1 X145.721 Y103.455 E.18353
G1 X145.751 Y105.346 E.22461
G1 X145.721 Y106.545 E.14244
G1 X145.605 Y108.086 E.18353
G1 X145.413 Y109.619 E.18349
G1 X145.145 Y111.141 E.18354
G1 X144.801 Y112.647 E.18347
G1 X144.383 Y114.135 E.18356
G1 X143.89 Y115.599 E.18347
G1 X143.326 Y117.038 E.18356
G1 X142.69 Y118.446 E.18349
G1 X142.458 Y118.899 E.06045
G1 X143.066 Y119.278 F10800
;TYPE:External perimeter
G1 F1440
G1 X142.613 Y120.163 E.11808
G1 X141.822 Y121.532 E.18778
G1 X140.965 Y122.86 E.18771
G1 X140.042 Y124.143 E.18771
G1 X139.056 Y125.379 E.18778
G1 X138.01 Y126.565 E.18781
G1 X136.906 Y127.696 E.18771
G1 X135.748 Y128.772 E.18774
G1 X134.537 Y129.788 E.18774
G1 X133.276 Y130.742 E.18779
G1 X131.97 Y131.633 E.18777
G1 X130.621 Y132.457 E.18774
G1 X129.233 Y133.213 E.18771
G1 X127.809 Y133.899 E.18772
G1 X126.352 Y134.513 E.18778
G1 X124.867 Y135.054 E.18771
G1 X123.356 Y135.52 E.18779
G1 X121.824 Y135.91 E.18775
G1 X120.274 Y136.223 E.1878
G1 X118.711 Y136.459 E.18773
G1 X117.138 Y136.616 E.18775
G1 X115.559 Y136.695 E.18776
G1 X113.979 Y136.695 E.18765
G1 X112.4 Y136.616 E.18776
G1 X110.827 Y136.459 E.18775
G1 X109.263 Y136.223 E.18785
G1 X107.714 Y135.91 E.18769
G1 X106.182 Y135.52 E.18775
G1 X104.671 Y135.054 E.18779
G1 X103.186 Y134.513 E.18771
G1 X101.729 Y133.899 E.18778
G1 X100.305 Y133.213 E.18772
G1 X98.917 Y132.457 E.18771
G1 X97.568 Y131.633 E.18774
G1 X96.261 Y130.742 E.18786
G1 X95.001 Y129.788 E.1877
G1 X93.79 Y128.772 E.18774
G1 X92.632 Y127.696 E.18774
G1 X91.528 Y126.565 E.18771
G1 X90.482 Y125.379 E.18781
G1 X89.496 Y124.143 E.18778
G1 X88.573 Y122.86 E.18771
G1 X87.716 Y121.532 E.18771
G1 X86.925 Y120.163 E.18778
G1 X86.204 Y118.756 E.18776
G1 X85.554 Y117.315 E.18775
G1 X84.976 Y115.844 E.18771
G1 X84.473 Y114.345 E.18778
G1 X84.045 Y112.823 E.18777
G1 X83.693 Y111.282 E.18773
G1 X83.418 Y109.725 E.18778
G1 X83.222 Y108.157 E.18767
G1 X83.104 Y106.58 E.18782
G1 X83.064 Y105 E.18771
G1 X83.104 Y103.42 E.18771
G1 X83.222 Y101.843 E.18782
G1 X83.418 Y100.275 E.18767
G1 X83.693 Y98.718 E.18778
G1 X84.045 Y97.177 E.18773
G1 X84.473 Y95.655 E.18777
G1 X84.976 Y94.156 E.18778
G1 X85.554 Y92.685 E.18771
G1 X86.204 Y91.244 E.18775
G1 X86.925 Y89.837 E.18776
G1 X87.716 Y88.468 E.18778
G1 X88.573 Y87.14 E.18771
G1 X89.496 Y85.857 E.18771
G1 X90.482 Y84.621 E.18778
G1 X91.528 Y83.435 E.18781
G1 X92.632 Y82.304 E.18771
G1 X93.79 Y81.228 E.18774
G1 X95.001 Y80.212 E.18774
G1 X96.261 Y79.258 E.1877
G1 X97.568 Y78.367 E.18786
G1 X98.917 Y77.543 E.18774
G1 X100.305 Y76.787 E.18771
G1 X101.729 Y76.101 E.18772
G1 X103.186 Y75.487 E.18778
G1 X104.671 Y74.946 E.18771
G1 X106.182 Y74.48 E.18779
G1 X107.714 Y74.09 E.18775
G1 X109.263 Y73.777 E.18769
G1 X110.827 Y73.541 E.18785
G1 X112.4 Y73.384 E.18775
G1 X113.977 Y73.305 E.18753
G1 X115.821 Y73.318 E.21901
G1 X117.138 Y73.384 E.15661
G1 X118.711 Y73.541 E.18775
G1 X120.274 Y73.777 E.18773
G1 X121.824 Y74.09 E.1878
G1 X123.356 Y74.48 E.18775
G1 X124.867 Y74.946 E.18779
G1 X126.352 Y75.487 E.18771
G1 X127.809 Y76.101 E.18778
G1 X129.233 Y76.787 E.18772
G1 X130.621 Y77.543 E.18771
G1 X131.97 Y78.367 E.18774
G1 X133.276 Y79.258 E.18777
G1 X134.537 Y80.212 E.18779
G1 X135.748 Y81.228 E.18774
G1 X136.906 Y82.304 E.18774
G1 X138.01 Y83.435 E.18771
G1 X139.056 Y84.621 E.18781
G1 X140.042 Y85.857 E.18778
G1 X140.965 Y87.14 E.18771
G1 X141.822 Y88.468 E.18771
G1 X142.613 Y89.837 E.18778
G1 X143.334 Y91.244 E.18776
G1 X143.984 Y92.685 E.18775
G1 X144.562 Y94.156 E.18771
G1 X145.065 Y95.655 E.18778
G1 X145.493 Y97.177 E.18777
G1 X145.845 Y98.718 E.18773
G1 X146.12 Y100.275 E.18778
G1 X146.316 Y101.843 E.18767
G1 X146.434 Y103.42 E.18782
G1 X146.465 Y105.363 E.23079
G1 X146.434 Y106.58 E.14458
G1 X146.316 Y108.157 E.18782
G1 X146.12 Y109.725 E.18767
G1 X145.845 Y111.282 E.18778
G1 X145.493 Y112.823 E.18773
G1 X145.065 Y114.345 E.18777
G1 X144.562 Y115.844 E.18778
G1 X143.984 Y117.315 E.18771
G1 X143.334 Y118.756 E.18775
M73 Q0 S189
G1 X143.094 Y119.225 E.06257
;WIPE_START
G1 F8640
G1 X143.066 Y119.278 E-.11863
G1 X142.909 Y119.584 E-.68137
;WIPE_END
G1 X114.103 Y101.82 F10800
G1 E.8 F18000
;TYPE:Perimeter
G1 F1440
G1 X114.581 Y101.745 E.05746
G1 X115.23 Y101.772 E.07715
G1 X115.86 Y101.927 E.07705
G1 X116.448 Y102.204 E.07719
G1 X116.968 Y102.592 E.07706
G1 X117.402 Y103.076 E.07721
G1 X117.731 Y103.636 E.07714
G1 X117.942 Y104.25 E.07711
G1 X118.028 Y104.893 E.07705
G1 X117.985 Y105.541 E.07713
G1 X117.814 Y106.168 E.07719
G1 X117.522 Y106.748 E.07712
G1 X117.121 Y107.259 E.07714
G1 X116.627 Y107.68 E.07709
G1 X116.059 Y107.995 E.07714
G1 X115.44 Y108.191 E.07711
