; generated by PrusaSlicer 2.7.0+win64 on 2024-01-30 at 11:42:50 UTC


;
;
; 

; external perimeters extrusion width = 0.60mm
; perimeters extrusion width = 0.60mm
; infill extrusion width = 0.50mm
; solid infill extrusion width = 0.45mm
; top infill extrusion width = 0.40mm
; first layer extrusion width = 0.80mm

; external perimeters extrusion width = 0.60mm
; perimeters extrusion width = 0.60mm
; infill extrusion width = 0.50mm
; solid infill extrusion width = 0.45mm
; top infill extrusion width = 0.40mm
; first layer extrusion width = 0.80mm

; external perimeters extrusion width = 0.60mm
; perimeters extrusion width = 0.60mm
; infill extrusion width = 0.50mm
; solid infill extrusion width = 0.45mm
; top infill extrusion width = 0.40mm
; first layer extrusion width = 0.80mm

M73 P0 R12
M73 Q0 S14
M201 X5000 Y5000 Z200 E10000 ; sets maximum accelerations, mm/sec^2
M203 X200 Y200 Z30 E120 ; sets maximum feedrates, mm / sec
M204 S3000 T3000 ; sets acceleration (S) and retract acceleration (R), mm/sec^2
M205 X8.00 Y8.00 Z0.40 E4.50 ; sets the jerk limits, mm/sec
M205 S0 T0 ; sets the minimum extruding and travel feed rate, mm/sec

; printing object Tilt_mirror_rotor knob.stl id:0 copy 0
; stop printing object Tilt_mirror_rotor knob.stl id:0 copy 0
; printing object Tilt_mirror_rotor axis-left.stl id:1 copy 0
; stop printing object Tilt_mirror_rotor axis-left.stl id:1 copy 0
; printing object Tilt_mirror_rotor plug.stl id:2 copy 0
; stop printing object Tilt_mirror_rotor plug.stl id:2 copy 0
; printing object Tilt_mirror_rotor plug.stl id:2 copy 1
; stop printing object Tilt_mirror_rotor plug.stl id:2 copy 1

;TYPE:Custom
M862.3 P "MK3" ; printer model check
M862.1 P0.4 ; nozzle diameter check
M115 U3.12.1 ; tell printer latest fw version
G90 ; use absolute coordinates
M83 ; extruder relative mode
M104 S245 ; set extruder temp
M140 S85 ; set bed temp
M190 S85 ; wait for bed temp
M109 S245 ; wait for extruder temp
G28 W ; home all without mesh bed level
G80 ; mesh bed leveling

G1 Z0.2 F720
G1 Y-3 F1000 ; go outside print area
G92 E0
G1 X60 E9 F1000 ; intro line
G1 X100 E12.5 F1000 ; intro line

G92 E0
M221 S95

; Don't change E values below. Excessive value can damage the printer.

G21 ; set units to millimeters
G90 ; use absolute coordinates
M83 ; use relative distances for extrusion
M900 K0.08 ; Filament gcode LA 1.5
M900 K45 ; Filament gcode LA 1.0
M107
;LAYER_CHANGE
;Z:0.4
;HEIGHT:0.4
;BEFORE_LAYER_CHANGE
G92 E0.0
;0.4


G1 Z.4 F1800
;AFTER_LAYER_CHANGE
;0.4
G1 E-.8 F18000
G1 X108.586 Y97.857 F10800
G1 Z.4 F1800
G1 E.8 F18000
M204 S3000
;TYPE:Skirt/Brim
;WIDTH:0.8
G1 F1440
G1 X109.52 Y96.994 E.15103
G1 X110.455 Y96.308 E.13773
G1 X111.572 Y95.67 E.15278
G1 X112.768 Y95.165 E.15419
G1 X113.948 Y94.823 E.14591
G1 X130.372 Y91.868 E1.98192
G1 X131.953 Y91.7 E.18882
M73 P1 R12
G1 X133.404 Y91.684 E.17234
G1 X135.125 Y91.837 E.2052
M73 Q1 S14
G1 X136.685 Y92.142 E.18878
G1 X138.207 Y92.601 E.1888
G1 X139.676 Y93.209 E.18882
G1 X141.076 Y93.96 E.18868
G1 X142.396 Y94.847 E.18888
G1 X143.62 Y95.861 E.18877
G1 X144.737 Y96.992 E.18879
G1 X145.736 Y98.228 E.18875
G1 X146.607 Y99.558 E.18882
G1 X147.341 Y100.968 E.18879
G1 X147.931 Y102.444 E.18878
G1 X148.372 Y103.971 E.18877
G1 X148.658 Y105.535 E.18883
G1 X148.787 Y107.119 E.18875
G1 X148.742 Y108.913 E.21313
G1 X148.426 Y111.032 E.25445
G1 X144.273 Y130.777 E2.39633
G1 X143.62 Y132.787 E.251
G1 X142.674 Y134.677 E.25101
G1 X141.457 Y136.405 E.25102
G1 X139.997 Y137.932 E.25091
G1 X138.678 Y138.984 E.20037
G1 X136.864 Y140.068 E.25098
G1 X135.172 Y140.781 E.21806
G1 X133.129 Y141.323 E.25103
G1 X131.455 Y141.533 E.20037
G1 X129.342 Y141.512 E.25096
G1 X127.255 Y141.177 E.25104
G1 X125.343 Y140.575 E.23807
G1 X107.863 Y133.597 E2.23532
G1 X106.602 Y132.966 E.16747
G1 X105.185 Y132.051 E.20033
G1 X103.778 Y130.871 E.21809
G1 X102.631 Y129.634 E.20035
G1 X101.414 Y127.906 E.25102
G1 X100.576 Y126.272 E.2181
G1 X99.999 Y124.687 E.20033
G1 X99.591 Y122.897 E.21804
G1 X99.423 Y121.218 E.2004
G1 X99.469 Y119.382 E.21812
G1 X99.729 Y117.673 E.20531
G1 X100.312 Y115.686 E.24593
G1 X106.539 Y100.882 E1.90741
G1 X107.096 Y99.814 E.14306
G1 X107.787 Y98.79 E.14671
G1 X108.547 Y97.903 E.13873
G1 X109.088 Y98.367 F10800
G1 F1440
G1 X109.101 Y98.352 E.00236
G1 X109.978 Y97.542 E.14179
G1 X110.962 Y96.831 E.14418
G1 X111.993 Y96.259 E.14003
G1 X113.074 Y95.814 E.13884
G1 X114.209 Y95.497 E.13996
G1 X130.479 Y92.574 E1.96325
G1 X131.989 Y92.413 E.18035
M73 Q1 S13
G1 X133.386 Y92.398 E.16592
G1 X135.019 Y92.544 E.19472
G1 X136.509 Y92.834 E.18028
G1 X137.963 Y93.272 E.18035
G1 X139.366 Y93.853 E.18035
G1 X140.704 Y94.57 E.18029
G1 X141.964 Y95.417 E.18031
M73 P2 R12
G1 X143.134 Y96.385 E.18035
G1 X144.201 Y97.464 E.18022
G1 X145.156 Y98.645 E.18038
G1 X145.988 Y99.915 E.18032
G1 X146.69 Y101.261 E.18029
G1 X147.254 Y102.671 E.18036
G1 X147.676 Y104.13 E.18038
G1 X147.949 Y105.623 E.18026
G1 X148.073 Y107.137 E.18041
G1 X148.03 Y108.859 E.20458
G1 X147.726 Y110.89 E.2439
G1 X143.577 Y130.618 E2.39425
G1 X142.955 Y132.526 E.23834
M73 Q2 S13
G1 X142.056 Y134.32 E.23832
G1 X140.899 Y135.96 E.23837
G1 X139.511 Y137.409 E.23831
G1 X138.276 Y138.394 E.18761
G1 X136.554 Y139.425 E.23837
G1 X134.928 Y140.11 E.20955
G1 X132.988 Y140.623 E.23832
G1 X131.42 Y140.82 E.18769
G1 X129.413 Y140.801 E.23837
G1 X127.432 Y140.484 E.23827
G1 X125.608 Y139.912 E.22703
G1 X108.14 Y132.939 E2.23378
G1 X106.734 Y132.218 E.18766
G1 X105.616 Y131.482 E.15897
G1 X104.264 Y130.347 E.20965
G1 X103.189 Y129.189 E.18766
G1 X102.033 Y127.549 E.2383
G1 X101.227 Y125.978 E.2097
G1 X100.687 Y124.493 E.18766
G1 X100.294 Y122.773 E.20954
G1 X100.137 Y121.2 E.18775
G1 X100.181 Y119.436 E.20957
G1 X100.426 Y117.832 E.19271
G1 X100.977 Y115.947 E.23324
G1 X107.188 Y101.182 E1.9024
G1 X107.712 Y100.175 E.13482
G1 X108.353 Y99.225 E.13611
G1 X109.049 Y98.412 E.12711
G1 X109.591 Y98.876 F10800
G1 F1440
G1 X109.616 Y98.847 E.00455
G1 X110.436 Y98.09 E.13254
G1 X111.34 Y97.437 E.13244
G1 X112.305 Y96.901 E.1311
G1 X113.31 Y96.488 E.12904
G1 X114.355 Y96.196 E.12886
G1 X130.585 Y93.28 E1.95842
G1 X132.024 Y93.126 E.17188
G1 X133.368 Y93.112 E.15963
G1 X134.912 Y93.25 E.1841
G1 X136.333 Y93.527 E.17194
G1 X137.718 Y93.943 E.17175
G1 X139.056 Y94.496 E.17195
G1 X140.332 Y95.179 E.17189
G1 X141.533 Y95.986 E.17185
G1 X142.648 Y96.908 E.17183
G1 X143.666 Y97.937 E.17191
G1 X144.576 Y99.062 E.17185
G1 X145.37 Y100.272 E.17188
G1 X146.039 Y101.555 E.17185
G1 X146.577 Y102.899 E.17193
G1 X146.979 Y104.289 E.17185
G1 X147.241 Y105.712 E.17184
G1 X147.359 Y107.154 E.17183
G1 X147.318 Y108.806 E.19626
G1 X147.026 Y110.749 E.23335
G1 X142.881 Y130.459 E2.39206
G1 X142.431 Y131.907 E.18009
M73 P3 R12
G1 X141.651 Y133.593 E.22063
G1 X140.607 Y135.18 E.22561
G1 X139.339 Y136.595 E.22566
G1 X138.041 Y137.683 E.20115
G1 X136.428 Y138.687 E.22565
G1 X135.085 Y139.293 E.17499
G1 X133.265 Y139.838 E.22564
G1 X131.384 Y140.106 E.22565
G1 X129.484 Y140.091 E.22566
G1 X127.608 Y139.792 E.22562
G1 X125.872 Y139.248 E.21606
G1 X108.811 Y132.447 E2.18131
G1 X107.285 Y131.712 E.20116
G1 X106.047 Y130.912 E.17506
G1 X104.75 Y129.824 E.20106
G1 X103.747 Y128.743 E.17514
G1 X102.759 Y127.368 E.20109
G1 X102.036 Y126.035 E.1801
G1 X101.374 Y124.3 E.22055
G1 X100.997 Y122.649 E.20113
G1 X100.851 Y121.183 E.17497
M73 Q3 S13
G1 X100.893 Y119.489 E.20125
G1 X101.122 Y117.991 E.17998
G1 X101.642 Y116.208 E.22058
G1 X107.792 Y101.58 E1.88459
G1 X108.328 Y100.536 E.13938
G1 X108.919 Y99.66 E.1255
G1 X109.552 Y98.922 E.11547
G1 X110.094 Y99.388 F10800
G1 F1440
G1 X110.157 Y99.315 E.01145
G1 X110.97 Y98.576 E.13048
G1 X111.78 Y98.003 E.11784
G1 X112.695 Y97.506 E.12367
G1 X113.547 Y97.162 E.10912
G1 X114.501 Y96.895 E.11766
G1 X130.692 Y93.987 E1.9537
G1 X132.06 Y93.839 E.16342
G1 X133.35 Y93.826 E.15321
G1 X134.806 Y93.956 E.17361
G1 X136.156 Y94.219 E.16335
G1 X137.474 Y94.614 E.16341
M73 P3 R11
G1 X138.746 Y95.139 E.16343
G1 X139.959 Y95.788 E.16339
G1 X141.102 Y96.555 E.16348
G1 X142.163 Y97.432 E.16348
G1 X143.131 Y98.41 E.16343
G1 X143.996 Y99.479 E.16332
G1 X144.751 Y100.629 E.16338
G1 X145.388 Y101.849 E.16346
G1 X145.901 Y103.126 E.16344
G1 X146.283 Y104.448 E.16343
G1 X146.532 Y105.801 E.16339
G1 X146.645 Y107.172 E.16338
G1 X146.606 Y108.753 E.18782
G1 X146.326 Y110.607 E.22269
G1 X142.279 Y129.884 E2.33935
G1 X141.782 Y131.606 E.21286
G1 X141.032 Y133.236 E.2131
G1 X140.152 Y134.599 E.19268
G1 X138.975 Y135.952 E.21298
G1 X137.61 Y137.114 E.2129
G1 X136.086 Y138.06 E.21303
G1 X134.841 Y138.622 E.16223
G1 X133.123 Y139.138 E.21304
G1 X131.348 Y139.393 E.21297
G1 X129.555 Y139.38 E.21295
G1 X127.784 Y139.1 E.21295
G1 X126.137 Y138.585 E.20495
G1 X109.089 Y131.789 E2.17966
M73 P4 R11
G1 X107.627 Y131.085 E.19272
G1 X106.617 Y130.443 E.14213
G1 X105.549 Y129.591 E.16226
G1 X104.416 Y128.429 E.19275
G1 X103.59 Y127.34 E.16233
G1 X102.705 Y125.78 E.21301
G1 X102.112 Y124.27 E.19267
G1 X101.767 Y122.903 E.16744
G1 X101.565 Y121.165 E.2078
G1 X101.605 Y119.543 E.1927
G1 X101.818 Y118.15 E.16736
G1 X102.307 Y116.468 E.20803
G1 X108.448 Y101.863 E1.88166
G1 X108.944 Y100.898 E.12886
G1 X109.486 Y100.095 E.11506
G1 X110.055 Y99.434 E.10358
G1 X110.595 Y99.898 F10800
G1 F1440
G1 X110.666 Y99.815 E.01297
G1 X111.412 Y99.137 E.11972
G1 X112.158 Y98.609 E.10855
G1 X113.004 Y98.15 E.11431
G1 X114.647 Y97.594 E.206
G1 X130.798 Y94.693 E1.94887
G1 X132.095 Y94.553 E.15493
G1 X133.332 Y94.54 E.14692
G1 X134.699 Y94.662 E.163
G1 X135.98 Y94.911 E.15499
G1 X137.23 Y95.285 E.15496
G1 X138.436 Y95.783 E.15496
G1 X139.587 Y96.398 E.15499
G1 X140.671 Y97.124 E.15495
G1 X141.677 Y97.955 E.15497
M73 Q4 S13
G1 X142.595 Y98.882 E.15494
G1 X143.417 Y99.896 E.15503
G1 X144.133 Y100.986 E.15489
G1 X144.737 Y102.143 E.15501
G1 X145.224 Y103.353 E.15491
G1 X145.587 Y104.607 E.15505
G1 X145.823 Y105.89 E.15493
G1 X145.931 Y107.19 E.15493
G1 X145.893 Y108.699 E.17927
G1 X145.626 Y110.466 E.21224
G1 X141.583 Y129.725 E2.33716
G1 X141.117 Y131.346 E.20032
G1 X140.479 Y132.76 E.18424
G1 X139.572 Y134.182 E.20031
G1 X138.464 Y135.453 E.20026
G1 X137.519 Y136.287 E.14969
G1 X136.12 Y137.228 E.20024
G1 X134.596 Y137.951 E.20033
G1 X132.982 Y138.438 E.20022
G1 X131.313 Y138.68 E.20029
G1 X129.626 Y138.67 E.20036
G1 X127.96 Y138.408 E.20029
G1 X126.401 Y137.922 E.19394
G1 X109.366 Y131.131 E2.178
G1 X108.306 Y130.641 E.13869
G1 X107.02 Y129.853 E.17912
G1 X106.034 Y129.067 E.14976
G1 X104.951 Y127.957 E.18418
G1 X104.19 Y126.952 E.14972
G1 X103.356 Y125.487 E.20021
G1 X102.789 Y124.042 E.18435
G1 X102.471 Y122.779 E.15468
G1 X102.279 Y121.147 E.19516
G1 X102.317 Y119.596 E.18426
G1 X102.514 Y118.308 E.15475
G1 X102.971 Y116.729 E.19523
G1 X109.103 Y102.146 E1.87884
M73 P5 R11
G1 X109.56 Y101.259 E.1185
G1 X110.052 Y100.53 E.10445
G1 X110.556 Y99.944 E.0918
; printing object Tilt_mirror_rotor plug.stl id:2 copy 1
;WIPE_START
G1 F8640
G1 X110.595 Y99.898 E-.11936
G1 X110.666 Y99.815 E-.21617
G1 X110.84 Y99.657 E-.46447
;WIPE_END
G1 X132.236 Y134.472 F10800
G1 E.8 F18000
;TYPE:Perimeter
;WIDTH:0.8
G1 F1440
G1 X132.151 Y134.495 E.01046
G1 X131.439 Y134.621 E.08587
G1 X130.718 Y134.675 E.08587
G1 X129.995 Y134.657 E.08589
G1 X129.277 Y134.567 E.08594
G1 X128.572 Y134.406 E.08589
G1 X127.887 Y134.176 E.08582
G1 X127.227 Y133.878 E.086
G1 X126.601 Y133.517 E.08582
G1 X126.014 Y133.095 E.08586
G1 X125.472 Y132.616 E.08591
G1 X124.98 Y132.086 E.08589
G1 X124.543 Y131.509 E.08596
G1 X124.166 Y130.892 E.08587
G1 X123.858 Y130.252 E.08435
G1 X123.504 Y129.2 E.13183
G1 X123.364 Y128.504 E.08432
G1 X123.292 Y127.784 E.08594
G1 X123.292 Y127.061 E.08587
G1 X123.364 Y126.342 E.08582
G1 X123.507 Y125.633 E.0859
G1 X123.72 Y124.942 E.08588
G1 X124.001 Y124.275 E.08596
G1 X124.347 Y123.64 E.08588
G1 X124.754 Y123.043 E.08581
G1 X125.219 Y122.489 E.0859
G1 X125.737 Y121.984 E.08592
G1 X126.302 Y121.533 E.08586
G1 X126.91 Y121.14 E.08598
G1 X127.553 Y120.81 E.08584
G1 X128.227 Y120.546 E.08597
G1 X128.923 Y120.35 E.08588
G1 X129.635 Y120.225 E.08585
G1 X130.357 Y120.171 E.08599
G1 X131.031 Y120.187 E.08007
G1 X132.166 Y120.354 E.13625
G1 X132.847 Y120.546 E.08403
G1 X133.521 Y120.81 E.08597
G1 X134.164 Y121.14 E.08584
G1 X134.772 Y121.533 E.08598
G1 X135.337 Y121.984 E.08586
G1 X135.855 Y122.489 E.08592
G1 X136.32 Y123.043 E.0859
G1 X136.727 Y123.64 E.08581
G1 X137.073 Y124.275 E.08588
G1 X137.354 Y124.942 E.08596
G1 X137.515 Y125.463 E.06476
G1 X137.639 Y125.987 E.06395
G1 X137.728 Y126.513 E.06336
G1 X137.782 Y127.17 E.07829
G1 X137.782 Y127.784 E.07292
G1 X137.71 Y128.504 E.08594
G1 X137.567 Y129.213 E.0859
G1 X137.354 Y129.904 E.08588
G1 X137.073 Y130.57 E.08585
G1 X136.727 Y131.206 E.08599
G1 X136.32 Y131.803 E.08581
G1 X135.855 Y132.357 E.0859
G1 X135.337 Y132.862 E.08592
G1 X134.772 Y133.313 E.08586
G1 X134.164 Y133.705 E.08592
G1 X133.521 Y134.035 E.08584
G1 X132.847 Y134.3 E.08601
G1 X132.294 Y134.455 E.06821
G1 X132.429 Y135.159 F10800
;TYPE:External perimeter
G1 F1440
G1 X132.31 Y135.193 E.0147
G1 X131.528 Y135.33 E.09429
G1 X130.736 Y135.39 E.09433
G1 X129.941 Y135.37 E.09445
G1 X129.153 Y135.271 E.09432
G1 X128.379 Y135.094 E.0943
G1 X127.625 Y134.841 E.09446
G1 X126.901 Y134.515 E.0943
G1 X126.213 Y134.117 E.0944
G1 X125.568 Y133.654 E.0943
G1 X124.972 Y133.128 E.09441
G1 X124.432 Y132.546 E.09429
G1 X123.952 Y131.912 E.09444
G1 X123.538 Y131.234 E.09435
G1 X123.195 Y130.522 E.09386
G1 X122.813 Y129.385 E.14245
G1 X122.657 Y128.611 E.09377
G1 X122.578 Y127.82 E.09441
G1 X122.578 Y127.026 E.0943
G1 X122.657 Y126.235 E.09441
G1 X122.814 Y125.456 E.09438
G1 X123.048 Y124.697 E.09433
G1 X123.357 Y123.965 E.09436
G1 X123.737 Y123.267 E.09439
G1 X124.184 Y122.611 E.09428
G1 X124.695 Y122.002 E.09442
G1 X125.264 Y121.448 E.09432
G1 X125.885 Y120.952 E.09439
G1 X126.552 Y120.521 E.09432
G1 X127.259 Y120.159 E.09433
G1 X127.999 Y119.868 E.09444
G1 X128.764 Y119.653 E.09438
G1 X129.546 Y119.515 E.09431
G1 X130.339 Y119.456 E.09444
G1 X131.092 Y119.474 E.08946
G1 X132.315 Y119.655 E.14683
G1 X133.075 Y119.868 E.09374
G1 X133.815 Y120.159 E.09444
G1 X134.522 Y120.521 E.09433
G1 X135.189 Y120.952 E.09432
G1 X135.81 Y121.448 E.09439
G1 X136.379 Y122.002 E.09432
G1 X136.89 Y122.611 E.09442
G1 X137.337 Y123.267 E.09428
G1 X137.717 Y123.965 E.09439
G1 X138.026 Y124.697 E.09436
G1 X138.218 Y125.319 E.07731
M73 Q5 S13
G1 X138.339 Y125.846 E.06422
G1 X138.438 Y126.442 E.07175
G1 X138.497 Y127.17 E.08674
G1 X138.497 Y127.82 E.0772
G1 X138.417 Y128.611 E.09442
G1 X138.26 Y129.389 E.09426
G1 X138.026 Y130.149 E.09444
G1 X137.717 Y130.881 E.09436
G1 X137.337 Y131.578 E.09428
G1 X136.89 Y132.235 E.09438
G1 X136.379 Y132.843 E.09433
G1 X135.81 Y133.398 E.0944
G1 X135.189 Y133.894 E.09439
G1 X134.522 Y134.325 E.09432
G1 X133.815 Y134.687 E.09433
G1 X133.075 Y134.977 E.09439
G1 X132.487 Y135.143 E.07256
;WIPE_START
G1 F8640
G1 X132.429 Y135.159 E-.11908
G1 X132.31 Y135.193 E-.24495
G1 X132.093 Y135.231 E-.43597
;WIPE_END
G1 X133.236 Y126.365 F10800
G1 E.8 F18000
;TYPE:Perimeter
G1 F1440
G1 X133.367 Y126.742 E.0474
G1 X133.446 Y127.305 E.06752
G1 X133.425 Y127.805 E.05943
G1 X133.307 Y128.318 E.06252
G1 X133.075 Y128.849 E.06882
G1 X132.742 Y129.323 E.0688
G1 X132.322 Y129.723 E.06888
G1 X131.831 Y130.031 E.06884
G1 X131.288 Y130.235 E.06889
G1 X130.716 Y130.328 E.06883
G1 X130.137 Y130.306 E.06881
G1 X129.574 Y130.17 E.06879
G1 X129.048 Y129.924 E.06896
G1 X128.582 Y129.58 E.06879
G1 X128.194 Y129.15 E.06879
G1 X127.898 Y128.651 E.06891
G1 X127.707 Y128.104 E.06881
G1 X127.628 Y127.541 E.06752
G1 X127.649 Y127.041 E.05943
G1 X127.676 Y126.883 E.01904
G1 X127.818 Y126.376 E.06253
G1 X128.05 Y125.903 E.06257
G1 X128.365 Y125.481 E.06254
G1 X128.752 Y125.123 E.06261
G1 X129.243 Y124.815 E.06884
G1 X129.786 Y124.61 E.06893
G1 X130.358 Y124.517 E.06883
G1 X130.937 Y124.539 E.06881
G1 X131.501 Y124.676 E.06893
G1 X132.026 Y124.921 E.06881
G1 X132.492 Y125.266 E.06886
G1 X132.881 Y125.696 E.06887
G1 X133.176 Y126.195 E.06885
G1 X133.216 Y126.308 E.01424
G1 X132.562 Y126.574 F10800
;TYPE:External perimeter
G1 F1440
