; generated by PrusaSlicer 2.6.0-alpha5+win64 on 2023-05-22 at 14:59:57 UTC


;
;
; 

; external perimeters extrusion width = 0.40mm
; perimeters extrusion width = 0.40mm
; infill extrusion width = 0.50mm
; solid infill extrusion width = 0.45mm
; top infill extrusion width = 0.40mm
; first layer extrusion width = 0.60mm

M73 P0 R21
M73 Q0 S25
M201 X5000 Y5000 Z200 E10000 ; sets maximum accelerations, mm/sec^2
M203 X200 Y200 Z30 E120 ; sets maximum feedrates, mm / sec
M204 P3000 R3000 T3000 ; sets acceleration (P, T) and retract acceleration (R), mm/sec^2
M205 X8.00 Y8.00 Z0.40 E4.50 ; sets the jerk limits, mm/sec
M205 S0 T0 ; sets the minimum extruding and travel feed rate, mm/sec
M107
;TYPE:Custom
M862.3 P "MK3" ; printer model check
M862.1 P0.4 ; nozzle diameter check
M115 U3.12.1 ; tell printer latest fw version
G90 ; use absolute coordinates
M83 ; extruder relative mode
M104 S245 ; set extruder temp
M140 S85 ; set bed temp
M190 S85 ; wait for bed temp
M109 S245 ; wait for extruder temp
G28 W ; home all without mesh bed level
G80 ; mesh bed leveling

G1 Z0.2 F720
G1 Y-3 F1000 ; go outside print area
G92 E0
G1 X60 E9 F1000 ; intro line
G1 X100 E12.5 F1000 ; intro line

G92 E0
M221 S95

; Don't change E values below. Excessive value can damage the printer.

G21 ; set units to millimeters
G90 ; use absolute coordinates
M83 ; use relative distances for extrusion
M900 K0.08 ; Filament gcode LA 1.5
M900 K45 ; Filament gcode LA 1.0
M107
;LAYER_CHANGE
;Z:0.3
;HEIGHT:0.3
;BEFORE_LAYER_CHANGE
G92 E0.0
;0.3


G1 Z.3 F1800
;AFTER_LAYER_CHANGE
;0.3
G1 E-.8 F18000
G1 X98.498 Y81.784 F10800
G1 E.8 F18000
M204 S3000
;TYPE:Skirt/Brim
;WIDTH:0.6
G1 F1440
G1 X99.678 Y80.415 E.12074
G1 X101.855 Y78.238 E.20568
G1 X103.224 Y77.058 E.12074
G1 X105.699 Y75.225 E.20575
G1 X107.226 Y74.26 E.12067
G1 X109.944 Y72.812 E.20574
G1 X111.598 Y72.082 E.12078
G1 X114.499 Y71.05 E.2057
G1 X116.242 Y70.572 E.12074
G1 X119.264 Y69.98 E.20572
G1 X122.506 Y69.662 E.21762
G1 X124.312 Y69.624 E.12068
G1 X140.588 Y70.554 E1.0891
G1 X148.231 Y72.068 E.52052
G1 X149.57 Y72.548 E.09503
G1 X150.856 Y73.386 E.10254
G1 X153.269 Y75.78 E.22708
G1 X154.164 Y77.082 E.10555
G1 X154.705 Y78.542 E.10402
G1 X156.219 Y86.183 E.52038
G1 X157.15 Y102.577 E1.09697
G1 X157.108 Y104.344 E.11808
G1 X156.219 Y119.148 E.99077
G1 X154.754 Y126.572 E.50553
G1 X154.428 Y127.672 E.07665
G1 X153.922 Y128.676 E.07511
G1 X153.165 Y129.668 E.08336
G1 X150.977 Y131.844 E.20615
G1 X149.691 Y132.724 E.1041
G1 X148.831 Y133.092 E.06249
G1 X148.099 Y133.295 E.05075
G1 X140.419 Y134.797 E.52279
G1 X125.784 Y135.668 E.97943
G1 X122.429 Y135.668 E.22413
G1 X107.626 Y134.779 E.9907
G1 X100.201 Y133.313 E.50561
M73 P1 R21
G1 X99.09 Y132.983 E.07743
G1 X98.097 Y132.482 E.0743
G1 X97.106 Y131.725 E.08331
G1 X94.929 Y129.537 E.2062
G1 X94.045 Y128.242 E.10475
G1 X93.689 Y127.412 E.06033
G1 X93.481 Y126.671 E.05142
G1 X92.008 Y119.261 E.50471
G1 X91.109 Y104.435 E.99228
G1 X91.102 Y101.066 E.22507
M73 Q1 S25
G1 X91.42 Y97.824 E.21762
G1 X92.013 Y94.802 E.20574
G1 X92.49 Y93.059 E.12072
G1 X93.522 Y90.157 E.20576
G1 X94.252 Y88.504 E.12072
G1 X95.7 Y85.786 E.20574
G1 X96.665 Y84.259 E.12067
G1 X98.462 Y81.832 E.20174
G1 X98.893 Y82.151 F10800
G1 F1440
G1 X100.066 Y80.785 E.12028
G1 X102.225 Y78.626 E.20398
G1 X103.553 Y77.48 E.11718
G1 X106.007 Y75.663 E.20399
G1 X107.49 Y74.726 E.11719
G1 X110.185 Y73.29 E.204
G1 X111.789 Y72.582 E.11713
G1 X114.666 Y71.559 E.20399
G1 X116.358 Y71.095 E.11721
G1 X119.354 Y70.508 E.20395
G1 X122.543 Y70.196 E.21406
G1 X124.297 Y70.159 E.1172
G1 X140.374 Y71.07 E1.07575
G1 X148.113 Y72.59 E.52688
G1 X149.329 Y73.027 E.08632
G1 X150.508 Y73.792 E.09389
G1 X152.865 Y76.131 E.22183
G1 X153.685 Y77.323 E.09665
G1 X154.016 Y78.092 E.05593
G1 X154.213 Y78.793 E.04864
G1 X155.688 Y86.25 E.50782
G1 X156.615 Y102.59 E1.09336
G1 X156.574 Y104.312 E.11507
M73 Q1 S24
G1 X155.688 Y119.08 E.98836
G1 X154.228 Y126.467 E.50304
G1 X153.927 Y127.48 E.0706
G1 X153.397 Y128.504 E.07703
G1 X152.684 Y129.396 E.07629
G1 X150.627 Y131.438 E.19363
G1 X149.944 Y131.957 E.05731
G1 X149.329 Y132.306 E.04724
G1 X147.981 Y132.773 E.0953
G1 X140.377 Y134.263 E.51765
G1 X125.753 Y135.134 E.97869
G1 X122.461 Y135.134 E.21992
G1 X107.693 Y134.248 E.98836
G1 X100.306 Y132.788 E.50304
G1 X99.283 Y132.484 E.0713
G1 X98.384 Y132.03 E.06728
G1 X97.475 Y131.337 E.07636
G1 X95.335 Y129.187 E.20265
G1 X94.523 Y128.001 E.09602
G1 X94.197 Y127.241 E.05525
G1 X94.003 Y126.551 E.04788
G1 X92.525 Y119.083 E.50858
G1 X91.644 Y104.404 E.9824
G1 X91.636 Y101.103 E.22053
G1 X91.948 Y97.914 E.21406
G1 X92.535 Y94.918 E.20395
G1 X92.999 Y93.226 E.11721
G1 X94.022 Y90.349 E.20399
G1 X94.73 Y88.744 E.11719
G1 X96.166 Y86.05 E.20395
G1 X97.103 Y84.567 E.11719
G1 X98.857 Y82.199 E.19687
G1 X99.287 Y82.518 F10800
G1 F1440
G1 X100.454 Y81.154 E.11992
G1 X102.594 Y79.014 E.20218
G1 X103.883 Y77.903 E.11368
G1 X106.315 Y76.101 E.20221
G1 X107.753 Y75.192 E.11365
G1 X110.425 Y73.769 E.20224
M73 P2 R21
G1 X111.981 Y73.082 E.11363
G1 X114.833 Y72.068 E.20221
G1 X116.474 Y71.618 E.11367
G1 X119.444 Y71.036 E.20219
G1 X122.581 Y70.73 E.21056
G1 X124.282 Y70.694 E.11366
G1 X140.332 Y71.604 E1.07395
G1 X147.995 Y73.113 E.52176
G1 X149.088 Y73.505 E.07757
G1 X150.159 Y74.199 E.08526
G1 X152.46 Y76.482 E.21654
G1 X153.207 Y77.564 E.08784
G1 X153.69 Y78.91 E.09553
G1 X155.156 Y86.317 E.50443
G1 X156.079 Y102.603 E1.08974
G1 X156.039 Y104.281 E.11213
G1 X155.157 Y119.013 E.98594
G1 X153.703 Y126.362 E.50047
G1 X153.427 Y127.289 E.06462
M73 Q2 S24
G1 X152.945 Y128.217 E.06986
G1 X152.296 Y129.027 E.06934
G1 X150.277 Y131.033 E.19014
G1 X149.088 Y131.828 E.09555
G1 X147.863 Y132.25 E.08656
G1 X140.335 Y133.729 E.51253
G1 X125.721 Y134.599 E.97802
G1 X122.492 Y134.599 E.21571
G1 X107.76 Y133.717 E.98594
G1 X100.411 Y132.263 E.50047
G1 X99.476 Y131.984 E.06518
G1 X98.556 Y131.505 E.06929
G1 X97.753 Y130.863 E.06868
G1 X95.74 Y128.837 E.1908
G1 X94.945 Y127.648 E.09555
G1 X94.525 Y126.431 E.08601
G1 X93.057 Y119.016 E.50498
G1 X92.179 Y104.372 E.98006
G1 X92.17 Y101.141 E.21585
G1 X92.458 Y98.128 E.2022
G1 X93.058 Y95.034 E.21055
G1 X93.508 Y93.393 E.11367
G1 X94.522 Y90.541 E.20221
G1 X95.209 Y88.985 E.11363
G1 X96.633 Y86.313 E.20227
G1 X97.541 Y84.875 E.11361
G1 X99.251 Y82.566 E.19195
; printing object lens holder v2.stl id:0 copy 0
;WIPE_START
G1 F8640
G1 X99.513 Y82.258 E-.8
;WIPE_END
G1 X121.63 Y95.324 F10800
G1 E.8 F18000
;TYPE:External perimeter
G1 F1440
G1 X122.384 Y95.121 E.05216
G1 X123.141 Y94.977 E.05148
G1 X123.913 Y94.919 E.05172
G1 X124.686 Y94.938 E.05166
G1 X125.452 Y95.034 E.05157
G1 X126.206 Y95.206 E.05167
G1 X126.938 Y95.452 E.05159
G1 X127.643 Y95.77 E.05167
G1 X128.313 Y96.158 E.05172
G1 X128.932 Y96.616 E.05144
G1 X129.516 Y97.117 E.0514
G1 X130.044 Y97.684 E.05176
G1 X130.51 Y98.301 E.05165
G1 X130.913 Y98.96 E.0516
G1 X131.248 Y99.656 E.0516
G1 X131.513 Y100.382 E.05163
G1 X131.703 Y101.131 E.05162
G1 X131.817 Y101.893 E.05147
G1 X131.844 Y102.285 E.02625
G1 X131.844 Y103.052 E.05124
G1 X131.77 Y103.821 E.05161
G1 X131.617 Y104.579 E.05166
G1 X131.39 Y105.317 E.05158
G1 X131.089 Y106.029 E.05164
G1 X130.72 Y106.708 E.05163
G1 X130.285 Y107.346 E.05159
G1 X129.787 Y107.939 E.05173
G1 X129.232 Y108.475 E.05155
G1 X128.629 Y108.956 E.05153
G1 X127.982 Y109.378 E.0516
G1 X127.294 Y109.731 E.05166
G1 X126.575 Y110.013 E.0516
G1 X125.831 Y110.223 E.05165
G1 X125.07 Y110.357 E.05162
G1 X124.3 Y110.415 E.05159
G1 X123.527 Y110.395 E.05166
G1 X122.761 Y110.295 E.05161
G1 X122.009 Y110.124 E.05152
G1 X121.276 Y109.881 E.05159
G1 X120.571 Y109.563 E.05167
G1 X119.902 Y109.177 E.0516
G1 X119.274 Y108.726 E.05165
G1 X118.695 Y108.215 E.05159
G1 X118.169 Y107.648 E.05167
G1 X117.703 Y107.032 E.0516
G1 X117.303 Y106.371 E.05161
G1 X116.968 Y105.676 E.05154
G1 X116.701 Y104.952 E.05155
G1 X116.51 Y104.202 E.0517
G1 X116.395 Y103.441 E.05142
G1 X116.365 Y103.016 E.02846
G1 X116.366 Y102.28 E.04917
G1 X116.443 Y101.511 E.05163
G1 X116.596 Y100.754 E.05159
G1 X116.825 Y100.014 E.05175
G1 X117.134 Y99.309 E.05142
G1 X117.493 Y98.628 E.05143
G1 X117.928 Y97.987 E.05175
G1 X118.425 Y97.395 E.05164
G1 X118.978 Y96.855 E.05164
G1 X119.582 Y96.374 E.05158
G1 X120.231 Y95.954 E.05164
G1 X120.919 Y95.602 E.05163
G1 X121.575 Y95.346 E.04704
G1 X121.713 Y94.932 F10800
;WIPE_START
G1 F8640
G1 X121.964 Y95.238 E-.8
;WIPE_END
G1 X113.141 Y77.105 F10800
G1 E.8 F18000
G1 F1440
G1 X113.707 Y77.356 E.04136
G1 X114.032 Y77.453 E.02266
G1 X114.248 Y77.489 E.01463
G1 X114.963 Y77.54 E.04789
G1 X115.45 Y77.624 E.03301
G1 X115.926 Y77.756 E.033
G1 X116.39 Y77.937 E.03327
G1 X117.035 Y78.285 E.04896
G1 X117.44 Y78.575 E.03328
G1 X117.812 Y78.901 E.03304
G1 X118.147 Y79.264 E.033
G1 X118.308 Y79.474 E.01768
G1 X118.562 Y79.91 E.03371
G1 X118.661 Y80.163 E.01815
G1 X118.967 Y81.279 E.07731
G1 X119.229 Y82.642 E.09272
G1 X119.242 Y83.15 E.03395
G1 X119.211 Y83.419 E.01809
G1 X119.096 Y83.906 E.03343
G1 X118.919 Y84.375 E.03349
G1 X118.798 Y84.607 E.01748
G1 X118.655 Y84.832 E.01781
G1 X118.33 Y85.209 E.03325
G1 X117.515 Y86.009 E.07629
G1 X116.819 Y86.611 E.06148
G1 X116.422 Y86.907 E.03308
G1 X116.187 Y87.033 E.01781
G1 X115.946 Y87.136 E.01751
G1 X115.469 Y87.279 E.03327
G1 X114.98 Y87.366 E.03318
G1 X114.487 Y87.403 E.03303
G1 X113.993 Y87.39 E.03301
G1 X113.503 Y87.329 E.03299
G1 X113.02 Y87.218 E.03311
G1 X112.549 Y87.058 E.03323
G1 X112.1 Y86.843 E.03326
G1 X111.87 Y86.698 E.01816
G1 X111.486 Y86.367 E.03387
G1 X110.578 Y85.322 E.09248
G1 X109.973 Y84.481 E.06921
G1 X109.776 Y84.161 E.0251
G1 X109.662 Y83.916 E.01805
G1 X109.516 Y83.436 E.03352
G1 X109.469 Y83.18 E.01739
G1 X109.42 Y82.69 E.0329
G1 X109.421 Y82.196 E.033
G1 X109.472 Y81.7 E.03331
G1 X109.637 Y80.986 E.04896
G1 X109.808 Y80.518 E.03329
G1 X110.024 Y80.074 E.03299
G1 X110.283 Y79.653 E.03302
G1 X110.585 Y79.257 E.03327
G1 X111.101 Y78.731 E.04922
G1 X111.689 Y78.289 E.04914
G1 X112.409 Y77.867 E.05575
G1 X112.666 Y77.655 E.02226
G1 X113.103 Y77.151 E.04456
G1 X113.344 Y76.76 F10800
G1 X112.871 Y76.59
;TYPE:Perimeter
G1 F1440
G1 X112.456 Y77.093 E.04356
G1 X112.298 Y77.265 E.0156
G1 X112.102 Y77.426 E.01695
G1 X111.392 Y77.842 E.05497
G1 X110.747 Y78.327 E.05391
G1 X110.179 Y78.906 E.05419
G1 X109.841 Y79.35 E.03728
G1 X109.554 Y79.816 E.03656
G1 X109.315 Y80.309 E.0366
G1 X109.122 Y80.833 E.03731
G1 X108.942 Y81.612 E.05341
G1 X108.885 Y82.168 E.03734
G1 X108.884 Y82.716 E.03661
G1 X108.938 Y83.255 E.03619
G1 X108.995 Y83.563 E.02093
M73 P2 R20
G1 X109.067 Y83.8 E.01655
G1 X108.819 Y83.671 E.01868
G1 X108.298 Y83.463 E.03748
G1 X107.519 Y83.267 E.05366
M73 P3 R20
G1 X106.969 Y83.199 E.03702
G1 X106.543 Y83.186 E.02847
G1 X105.878 Y83.228 E.04451
G1 X105.326 Y83.327 E.03746
G1 X104.677 Y83.522 E.04527
G1 X104.056 Y83.793 E.04526
G1 X103.577 Y84.072 E.03703
G1 X103.133 Y84.393 E.0366
G1 X102.724 Y84.757 E.03658
G1 X102.238 Y85.285 E.04794
G1 X102.118 Y85.392 E.01074
G1 X101.895 Y85.548 E.01818
G1 X101.168 Y85.925 E.05471
G1 X102.145 Y84.657 E.10694
G1 X103.058 Y83.598 E.09341
G1 X103.953 Y82.658 E.08671
G1 X105.039 Y81.617 E.1005
G1 X106.098 Y80.704 E.09341
G1 X107.122 Y79.906 E.08673
G1 X108.349 Y79.037 E.10045
G1 X109.532 Y78.289 E.0935
G1 X110.662 Y77.651 E.08669
G1 X112.004 Y76.972 E.10048
G1 X112.816 Y76.614 E.05928
;WIPE_START
G1 F8640
G1 X112.573 Y76.937 E-.8
;WIPE_END
G1 X101.626 Y86.291 F10800
G1 E.8 F18000
;TYPE:External perimeter
G1 F1440
G1 X102.173 Y86.007 E.04117
G1 X102.451 Y85.813 E.02265
G1 X102.614 Y85.667 E.01462
G1 X103.099 Y85.139 E.0479
G1 X103.469 Y84.811 E.03303
G1 X103.869 Y84.521 E.03301
G1 X104.298 Y84.272 E.03314
G1 X104.862 Y84.025 E.04113
G1 X105.451 Y83.848 E.04109
G1 X105.942 Y83.76 E.03332
G1 X106.552 Y83.722 E.04083
G1 X106.928 Y83.734 E.02513
G1 X107.421 Y83.794 E.03318
G1 X108.133 Y83.974 E.04906
G1 X108.596 Y84.159 E.03331
G1 X109.051 Y84.419 E.03501
G1 X109.437 Y84.748 E.03388
G1 X110.348 Y85.793 E.09262
G1 X111.021 Y86.731 E.07712
G1 X111.266 Y87.195 E.03505
G1 X111.415 Y87.679 E.03383
G1 X111.494 Y88.174 E.03349
G1 X111.519 Y88.668 E.03304
G1 X111.495 Y89.162 E.03304
G1 X111.421 Y89.654 E.03324
G1 X111.222 Y90.36 E.049
G1 X111.029 Y90.817 E.03314
G1 X110.908 Y91.047 E.01736
G1 X110.631 Y91.462 E.03333
G1 X110.452 Y91.667 E.01818
G1 X110.075 Y91.989 E.03312
G1 X109.333 Y92.534 E.0615
G1 X108.166 Y93.27 E.09217
G1 X107.922 Y93.388 E.01811
G1 X107.439 Y93.536 E.03375
G1 X107.177 Y93.581 E.01776
G1 X106.679 Y93.618 E.03336
G1 X106.176 Y93.584 E.03368
G1 X105.909 Y93.53 E.0182
G1 X105.442 Y93.364 E.03311
G1 X104.601 Y92.995 E.06135
G1 X103.585 Y92.469 E.07643
G1 X103.164 Y92.205 E.0332
G1 X102.962 Y92.031 E.01781
G1 X102.779 Y91.844 E.01748
G1 X102.473 Y91.451 E.03327
G1 X102.215 Y91.027 E.03316
G1 X102.001 Y90.581 E.03305
G1 X101.834 Y90.116 E.03301
G1 X101.713 Y89.637 E.033
G1 X101.641 Y89.148 E.03302
G1 X101.618 Y88.654 E.03304
G1 X101.645 Y88.161 E.03298
G1 X101.754 Y87.453 E.04786
G1 X101.767 Y87.234 E.01466
G1 X101.745 Y86.896 E.02263
G1 X101.638 Y86.35 E.03717
G1 X101.482 Y85.918 F10800
G1 X101.044 Y86.103
;TYPE:Perimeter
G1 F1440
G1 X101.213 Y86.964 E.05862
G1 X101.23 Y87.236 E.01821
G1 X101.221 Y87.396 E.01071
G1 X101.111 Y88.105 E.04793
G1 X101.082 Y88.652 E.03659
G1 X101.107 Y89.2 E.03665
G1 X101.187 Y89.741 E.03653
G1 X101.321 Y90.272 E.03659
G1 X101.507 Y90.788 E.03664
G1 X101.743 Y91.282 E.03657
G1 X102.031 Y91.755 E.037
G1 X102.382 Y92.204 E.03807
G1 X101.812 Y92.21 E.03808
G1 X101.263 Y92.28 E.03697
G1 X100.728 Y92.403 E.03667
G1 X100.2 Y92.583 E.03727
G1 X99.48 Y92.932 E.05345
G1 X99.012 Y93.237 E.03732
G1 X98.585 Y93.58 E.03659
G1 X97.779 Y94.402 E.07691
G1 X97.556 Y94.558 E.01818
G1 X96.778 Y94.962 E.05856
G1 X96.91 Y94.482 E.03326
G1 X97.314 Y93.249 E.08668
G1 X97.848 Y91.843 E.10047
G1 X98.413 Y90.563 E.09347
G1 X98.995 Y89.403 E.0867
G1 X99.73 Y88.091 E.10047
G1 X100.477 Y86.908 E.09347
G1 X101.009 Y86.152 E.06176
;WIPE_START
G1 F8640
G1 X101.107 Y86.544 E-.8
;WIPE_END
G1 X97.288 Y95.301 F10800
G1 E.8 F18000
;TYPE:External perimeter
G1 F1440
G1 X97.834 Y95.017 E.04112
G1 X98.112 Y94.822 E.02269
G1 X98.274 Y94.678 E.01448
G1 X98.593 Y94.323 E.03188
G1 X98.941 Y93.98 E.03264
G1 X99.327 Y93.671 E.03303
G1 X99.744 Y93.399 E.03326
G1 X100.404 Y93.079 E.049
G1 X100.875 Y92.919 E.03323
G1 X101.357 Y92.808 E.03304
G1 X101.849 Y92.746 E.03313
G1 X102.348 Y92.739 E.03334
G1 X102.608 Y92.767 E.01747
G1 X102.864 Y92.815 E.0174
G1 X103.118 Y92.893 E.01775
G1 X104.383 Y93.447 E.09226
G1 X105.411 Y93.995 E.07782
G1 X105.815 Y94.301 E.03386
G1 X106.006 Y94.493 E.01809
G1 X106.315 Y94.887 E.03345
G1 X106.571 Y95.318 E.03349
G1 X106.677 Y95.557 E.01747
G1 X106.763 Y95.804 E.01747
G1 X106.821 Y96.063 E.01773
G1 X106.974 Y97.435 E.09223
G1 X107.011 Y98.591 E.07727
G1 X106.993 Y98.854 E.01761
G1 X106.946 Y99.111 E.01745
G1 X106.877 Y99.364 E.01752
G1 X106.69 Y99.826 E.0333
G1 X106.454 Y100.262 E.03312
G1 X106.175 Y100.671 E.03308
G1 X105.857 Y101.049 E.033
G1 X105.503 Y101.394 E.03302
G1 X105.117 Y101.702 E.03299
G1 X104.698 Y101.971 E.03326
G1 X104.242 Y102.191 E.03382
G1 X103.753 Y102.333 E.03402
G1 X103.489 Y102.371 E.01782
G1 X102.336 Y102.43 E.07713
G1 X100.951 Y102.369 E.09262
G1 X100.453 Y102.273 E.03388
G1 X100.197 Y102.183 E.01813
G1 X99.749 Y101.964 E.03331
G1 X99.331 Y101.694 E.03324
G1 X98.945 Y101.385 E.03303
G1 X98.593 Y101.039 E.03297
G1 X98.276 Y100.66 E.03301
G1 X97.999 Y100.251 E.033
G1 X97.762 Y99.813 E.03327
G1 X97.496 Y99.129 E.04903
G1 X97.374 Y98.646 E.03328
G1 X97.302 Y98.158 E.03295
G1 X97.279 Y97.664 E.03304
G1 X97.306 Y97.17 E.03305
G1 X97.415 Y96.462 E.04786
G1 X97.428 Y96.244 E.01459
G1 X97.406 Y95.905 E.02269
G1 X97.299 Y95.36 E.0371
G1 X97.143 Y94.928 F10800
;WIPE_START
G1 F8640
G1 X97.639 Y95.142 E-.8
;WIPE_END
G1 X106.406 Y94.136 F10800
G1 E.8 F18000
;TYPE:Perimeter
G1 F1440
G1 X106.68 Y94.154 E.01834
G1 X106.894 Y94.139 E.01433
G1 X106.655 Y94.262 E.01796
G1 X106.706 Y94.517 E.01737
G1 X106.443 Y94.183 E.0284
G1 X107.259 Y94.553 F10800
;TYPE:External perimeter
G1 F1440
