; generated by PrusaSlicer 2.6.0-alpha5+win64 on 2023-05-22 at 14:03:58 UTC


;
;
; 

; external perimeters extrusion width = 0.40mm
; perimeters extrusion width = 0.40mm
; infill extrusion width = 0.50mm
; solid infill extrusion width = 0.45mm
; top infill extrusion width = 0.40mm
; first layer extrusion width = 0.80mm

M73 P0 R19
M73 Q0 S23
M201 X5000 Y5000 Z200 E10000 ; sets maximum accelerations, mm/sec^2
M203 X200 Y200 Z30 E120 ; sets maximum feedrates, mm / sec
M204 P3000 R3000 T3000 ; sets acceleration (P, T) and retract acceleration (R), mm/sec^2
M205 X8.00 Y8.00 Z0.40 E4.50 ; sets the jerk limits, mm/sec
M205 S0 T0 ; sets the minimum extruding and travel feed rate, mm/sec
M107
;TYPE:Custom
M862.3 P "MK3" ; printer model check
M862.1 P0.4 ; nozzle diameter check
M115 U3.12.1 ; tell printer latest fw version
G90 ; use absolute coordinates
M83 ; extruder relative mode
M104 S245 ; set extruder temp
M140 S85 ; set bed temp
M190 S85 ; wait for bed temp
M109 S245 ; wait for extruder temp
G28 W ; home all without mesh bed level
G80 ; mesh bed leveling

G1 Z0.2 F720
G1 Y-3 F1000 ; go outside print area
G92 E0
G1 X60 E9 F1000 ; intro line
G1 X100 E12.5 F1000 ; intro line

G92 E0
M221 S95

; Don't change E values below. Excessive value can damage the printer.

G21 ; set units to millimeters
G90 ; use absolute coordinates
M83 ; use relative distances for extrusion
M900 K0.08 ; Filament gcode LA 1.5
M900 K45 ; Filament gcode LA 1.0
M107
;LAYER_CHANGE
;Z:0.3
;HEIGHT:0.3
;BEFORE_LAYER_CHANGE
G92 E0.0
;0.3


G1 Z.3 F1800
;AFTER_LAYER_CHANGE
;0.3
G1 E-.8 F18000
G1 X100.057 Y84.725 F10800
G1 E.8 F18000
M204 S3000
;TYPE:Skirt/Brim
;WIDTH:0.8
G1 F1440
G1 X102.125 Y82.421 E.28406
G1 X103.509 Y81.098 E.17567
G1 X105.824 Y79.203 E.27449
G1 X107.306 Y78.165 E.16601
G1 X109.878 Y76.636 E.27453
G1 X112.678 Y75.314 E.2841
G1 X114.466 Y74.632 E.17558
G1 X117.538 Y73.735 E.29363
G1 X119.104 Y73.402 E.14689
G1 X122.067 Y72.991 E.27446
G1 X140.93 Y72.249 E1.73203
G1 X141.974 Y72.355 E.09628
G1 X149.124 Y73.786 E.66903
G1 X150.084 Y74.067 E.09178
G1 X151.015 Y74.493 E.09394
G1 X151.707 Y74.928 E.07499
G1 X152.415 Y75.507 E.08392
G1 X154.72 Y77.841 E.30097
G1 X155.236 Y78.534 E.07927
G1 X155.647 Y79.254 E.07607
G1 X156.184 Y80.744 E.14532
G1 X157.627 Y87.927 E.67221
G1 X157.748 Y88.956 E.09506
G1 X157.751 Y120.93 E2.93363
G1 X157.627 Y122.073 E.10549
G1 X156.184 Y129.257 E.6723
G1 X155.742 Y130.547 E.12511
G1 X155.135 Y131.617 E.11287
G1 X154.4 Y132.513 E.10633
G1 X152.262 Y134.632 E.27619
G1 X151.446 Y135.25 E.09392
G1 X150.423 Y135.797 E.10644
G1 X149.023 Y136.235 E.13459
G1 X141.246 Y137.737 E.72673
G1 X108.757 Y137.737 E2.98088
M73 P1 R19
G1 X100.744 Y136.184 E.74888
M73 Q1 S23
G1 X99.576 Y135.797 E.11289
G1 X98.383 Y135.135 E.12518
G1 X97.494 Y134.407 E.10543
G1 X95.385 Y132.28 E.27482
G1 X94.685 Y131.343 E.10731
G1 X94.207 Y130.433 E.09431
G1 X93.765 Y129.023 E.13558
G1 X92.355 Y121.975 E.65947
G1 X92.247 Y120.727 E.11493
G1 X92.884 Y103.664 E1.56663
G1 X92.991 Y102.067 E.14685
G1 X93.402 Y99.104 E.27446
G1 X94.145 Y95.991 E.29364
G1 X95.194 Y92.967 E.29367
M73 Q1 S22
G1 X96.636 Y89.878 E.31278
G1 X98.28 Y87.132 E.29365
G1 X100.022 Y84.774 E.26898
G1 X100.613 Y85.21 F10800
G1 F1440
G1 X102.658 Y82.928 E.28115
G1 X103.989 Y81.655 E.16898
G1 X106.275 Y79.784 E.27104
G1 X107.698 Y78.787 E.15942
G1 X110.238 Y77.277 E.27112
G1 X112.972 Y75.989 E.27729
G1 X114.692 Y75.332 E.16893
G1 X117.694 Y74.454 E.28697
G1 X119.223 Y74.128 E.14344
G1 X122.15 Y73.721 E.27114
G1 X140.908 Y72.984 E1.72238
G1 X141.929 Y73.095 E.09423
G1 X148.962 Y74.504 E.6581
G1 X149.771 Y74.735 E.07719
G1 X150.608 Y75.108 E.08408
G1 X151.285 Y75.531 E.07324
G1 X151.907 Y76.039 E.07368
G1 X154.163 Y78.321 E.29442
G1 X154.992 Y79.587 E.13884
G1 X155.466 Y80.906 E.1286
G1 X156.905 Y88.071 E.67052
G1 X157.013 Y88.978 E.08381
G1 X157.016 Y120.908 E2.92959
G1 X156.905 Y121.929 E.09423
G1 X155.466 Y129.094 E.67052
G1 X155.07 Y130.249 E.11203
G1 X154.534 Y131.193 E.0996
G1 X153.867 Y132.006 E.09648
G1 X151.781 Y134.075 E.26957
G1 X151.052 Y134.629 E.08401
G1 X150.125 Y135.125 E.09646
G1 X148.879 Y135.514 E.11976
G1 X141.189 Y137.004 E.71868
G1 X108.814 Y137.004 E2.97042
G1 X100.906 Y135.466 E.73916
G1 X99.875 Y135.125 E.09963
G1 X98.807 Y134.534 E.11199
G1 X98.002 Y133.874 E.09551
G1 X95.975 Y131.837 E.26366
G1 X95.366 Y131.043 E.09181
G1 X94.879 Y130.134 E.09462
G1 X94.486 Y128.879 E.12066
G1 X93.079 Y121.847 E.65798
G1 X92.983 Y120.74 E.10195
M73 P2 R19
G1 X93.618 Y103.711 E1.56351
G1 X93.721 Y102.15 E.14353
G1 X94.128 Y99.223 E.27114
G1 X94.855 Y96.182 E.28688
G1 X95.882 Y93.228 E.28694
G1 X97.197 Y90.39 E.28698
G1 X98.883 Y87.554 E.30271
G1 X100.578 Y85.259 E.26177
G1 X101.169 Y85.695 F10800
G1 F1440
G1 X102.304 Y84.367 E.16028
G1 X104.367 Y82.304 E.26768
G1 X106.727 Y80.365 E.28024
G1 X109.267 Y78.67 E.28017
G1 X110.718 Y77.855 E.15269
G1 X113.362 Y76.621 E.26771
G1 X114.918 Y76.032 E.15265
G1 X117.849 Y75.173 E.28023
G1 X119.343 Y74.854 E.14017
G1 X122.233 Y74.452 E.26771
G1 X140.886 Y73.719 E1.71274
G1 X141.784 Y73.816 E.08287
M73 Q2 S22
G1 X148.8 Y75.221 E.6565
G1 X149.523 Y75.427 E.06898
G1 X150.243 Y75.747 E.07229
G1 X151.4 Y76.572 E.13038
G1 X153.606 Y78.802 E.2878
G1 X154.336 Y79.92 E.12251
G1 X154.749 Y81.068 E.11194
G1 X156.184 Y88.216 E.66892
G1 X156.277 Y89 E.07244
G1 X156.281 Y120.886 E2.92556
G1 X156.184 Y121.784 E.08287
G1 X154.749 Y128.932 E.66892
G1 X154.398 Y129.95 E.0988
G1 X153.933 Y130.769 E.08641
G1 X153.334 Y131.498 E.08657
G1 X151.301 Y133.518 E.26295
G1 X150.658 Y134.007 E.07412
G1 X149.826 Y134.453 E.08661
G1 X148.735 Y134.793 E.10485
G1 X141.131 Y136.27 E.71071
G1 X108.871 Y136.271 E2.95987
G1 X101.068 Y134.749 E.72942
G1 X100.174 Y134.453 E.0864
G1 X99.231 Y133.933 E.0988
G1 X98.509 Y133.341 E.08567
G1 X96.52 Y131.343 E.25867
G1 X95.987 Y130.649 E.08029
G1 X95.552 Y129.836 E.0846
G1 X95.207 Y128.735 E.10586
G1 X93.804 Y121.72 E.65638
G1 X93.718 Y120.754 E.08898
G1 X94.353 Y103.757 E1.56057
G1 X94.452 Y102.233 E.14012
G1 X94.854 Y99.343 E.26771
G1 X95.566 Y96.373 E.28022
G1 X96.57 Y93.488 E.28027
G1 X97.855 Y90.718 E.28016
G1 X99.485 Y87.976 E.29267
G1 X101.134 Y85.744 E.25461
; printing object lens holder.stl id:0 copy 0
;WIPE_START
G1 F8640
G1 X101.396 Y85.436 E-.8
;WIPE_END
G1 X118.085 Y101.732 F10800
G1 E.8 F18000
;TYPE:External perimeter
G1 F1440
G1 X118.454 Y101.037 E.0722
G1 X118.774 Y100.364 E.06837
G1 X118.984 Y100.005 E.03816
G1 X119.24 Y99.677 E.03818
G1 X119.517 Y99.384 E.03699
G1 X119.809 Y99.111 E.03668
G1 X120.419 Y98.625 E.07156
G1 X121.086 Y98.203 E.07242
G1 X121.469 Y98.023 E.03883
G1 X121.866 Y97.898 E.03819
G1 X122.593 Y97.736 E.06834
G1 X123.298 Y97.541 E.06711
G1 X124.017 Y97.411 E.06704
G1 X124.742 Y97.242 E.0683
G1 X125.154 Y97.182 E.0382
G1 X125.577 Y97.178 E.03881
G1 X126.361 Y97.268 E.0724
G1 X127.128 Y97.443 E.07218
G1 X127.874 Y97.702 E.07245
G1 X128.253 Y97.889 E.03878
G1 X128.599 Y98.122 E.03827
G1 X129.179 Y98.589 E.06832
G1 X129.77 Y99.019 E.06706
G1 X130.32 Y99.5 E.06704
G1 X130.905 Y99.961 E.06834
G1 X131.208 Y100.246 E.03817
G1 X131.472 Y100.569 E.03827
G1 X131.698 Y100.908 E.03738
G1 X132.073 Y101.594 E.07173
G1 X132.375 Y102.314 E.07164
G1 X132.499 Y102.703 E.03746
G1 X132.588 Y103.11 E.03822
G1 X132.621 Y103.525 E.0382
G1 X132.618 Y104.27 E.06835
G1 X132.65 Y105 E.06704
M73 P3 R19
G1 X132.618 Y105.73 E.06704
G1 X132.621 Y106.475 E.06835
G1 X132.588 Y106.89 E.0382
G1 X132.498 Y107.303 E.03878
G1 X132.235 Y108.048 E.07249
G1 X131.894 Y108.756 E.0721
G1 X131.476 Y109.426 E.07246
G1 X131.208 Y109.754 E.03886
G1 X130.905 Y110.039 E.03817
G1 X130.32 Y110.5 E.06834
G1 X129.77 Y110.981 E.06704
G1 X129.179 Y111.411 E.06706
G1 X128.598 Y111.878 E.06839
G1 X128.253 Y112.111 E.0382
G1 X127.874 Y112.298 E.03878
G1 X127.128 Y112.557 E.07245
G1 X126.361 Y112.732 E.07218
G1 X125.577 Y112.822 E.0724
G1 X125.154 Y112.818 E.03881
G1 X124.742 Y112.758 E.0382
G1 X124.017 Y112.589 E.0683
G1 X123.298 Y112.459 E.06704
G1 X122.593 Y112.264 E.06711
G1 X121.866 Y112.102 E.06834
G1 X121.469 Y111.977 E.03819
G1 X121.092 Y111.8 E.03821
G1 X120.745 Y111.595 E.03698
G1 X120.414 Y111.371 E.03667
G1 X119.804 Y110.885 E.07156
G1 X119.244 Y110.328 E.07247
G1 X118.984 Y109.995 E.03876
G1 X118.774 Y109.636 E.03816
G1 X118.454 Y108.963 E.06837
G1 X118.107 Y108.319 E.06712
G1 X117.82 Y107.647 E.06704
G1 X117.494 Y106.978 E.06828
G1 X117.344 Y106.589 E.03825
G1 X117.247 Y106.184 E.03821
G1 X117.19 Y105.78 E.03743
G1 X117.149 Y105 E.07166
G1 X117.19 Y104.22 E.07166
G1 X117.247 Y103.816 E.03743
G1 X117.344 Y103.411 E.03821
G1 X117.494 Y103.022 E.03825
G1 X117.82 Y102.353 E.06828
G1 X118.062 Y101.787 E.05648
G1 X117.866 Y101.397 F10800
;WIPE_START
G1 F8640
G1 X118.249 Y101.429 E-.8
;WIPE_END
G1 X127.413 Y94.437 F10800
G1 E.8 F18000
;TYPE:Perimeter
G1 F1440
G1 X127.403 Y94.815 E.03469
G1 X127.447 Y95.395 E.05337
G1 X127.548 Y95.969 E.05347
G1 X127.708 Y96.535 E.05397
G1 X127.864 Y96.92 E.03811
G1 X127.331 Y96.735 E.05177
G1 X126.486 Y96.542 E.07953
G1 X125.931 Y96.478 E.05126
G1 X126.434 Y95.982 E.06481
G1 X126.799 Y95.525 E.05366
G1 X127.115 Y95.037 E.05334
G1 X127.391 Y94.492 E.05605
;WIPE_START
G1 F8640
G1 X127.403 Y94.815 E-.63971
G1 X127.409 Y94.896 E-.16029
;WIPE_END
G1 X118.243 Y96.529 F10800
G1 E.8 F18000
G1 F1440
G1 X118.783 Y96.949 E.06277
G1 X119.514 Y97.372 E.07749
G1 X120.07 Y97.605 E.05531
G1 X120.468 Y97.723 E.03809
G1 X119.992 Y98.025 E.05172
G1 X119.328 Y98.554 E.07789
G1 X118.913 Y98.951 E.05269
G1 X118.888 Y98.548 E.03705
G1 X118.786 Y97.969 E.05394
G1 X118.628 Y97.408 E.05347
G1 X118.416 Y96.866 E.0534
G1 X118.27 Y96.583 E.02922
;WIPE_START
G1 F8640
G1 X118.599 Y96.818 E-.8
;WIPE_END
G1 X116.475 Y104.018 F10800
G1 E.8 F18000
G1 F1440
G1 X116.413 Y105 E.09028
G1 X116.476 Y105.987 E.09074
G1 X116.145 Y105.756 E.03703
G1 X115.628 Y105.474 E.05403
G1 X115.092 Y105.248 E.05337
G1 X114.535 Y105.076 E.05349
G1 X114.165 Y105.001 E.03464
G1 X114.816 Y104.845 E.06142
G1 X115.363 Y104.646 E.05341
G1 X115.889 Y104.392 E.05359
G1 X116.427 Y104.054 E.0583
;WIPE_START
G1 F8640
G1 X116.421 Y104.458 E-.8
;WIPE_END
G1 X108.514 Y112.791 F10800
G1 E.8 F18000
;TYPE:External perimeter
G1 F1440
G1 X108.426 Y112.49 E.02877
G1 X108.369 Y112.021 E.04335
G1 X108.268 Y111.581 E.04142
G1 X108.203 Y110.983 E.05519
G1 X108.196 Y110.609 E.03432
G1 X108.233 Y110.119 E.04509
G1 X108.377 Y109.406 E.06674
G1 X108.611 Y108.763 E.06278
G1 X108.728 Y108.313 E.04266
G1 X108.828 Y108.04 E.02668
G1 X109.097 Y107.581 E.04881
G1 X109.273 Y107.361 E.02585
G1 X109.625 Y106.995 E.04659
G1 X110.015 Y106.667 E.04676
G1 X110.436 Y106.381 E.0467
G1 X110.882 Y106.138 E.0466
G1 X111.351 Y105.94 E.04671
G1 X111.837 Y105.79 E.04667
G1 X112.335 Y105.689 E.04662
G1 X112.841 Y105.639 E.04665
G1 X113.349 Y105.639 E.04661
G1 X113.855 Y105.689 E.04665
G1 X114.354 Y105.79 E.04671
G1 X114.84 Y105.94 E.04667
G1 X115.308 Y106.138 E.04662
G1 X115.757 Y106.382 E.04689
G1 X116.178 Y106.677 E.04717
G1 X116.381 Y106.857 E.02489
G1 X116.576 Y107.057 E.02563
G1 X116.874 Y107.48 E.04747
G1 X117.344 Y108.292 E.08608
G1 X117.563 Y108.719 E.04403
G1 X118.07 Y110.035 E.12939
G1 X118.142 Y110.316 E.02661
G1 X118.189 Y110.839 E.04818
G1 X118.179 Y111.115 E.02534
G1 X118.118 Y111.618 E.04649
G1 X118.005 Y112.114 E.04667
G1 X117.843 Y112.597 E.04674
G1 X117.634 Y113.06 E.04661
G1 X117.38 Y113.5 E.04661
G1 X117.083 Y113.913 E.04667
G1 X116.747 Y114.294 E.04661
G1 X116.374 Y114.64 E.04668
G1 X115.968 Y114.947 E.0467
G1 X115.535 Y115.212 E.04658
G1 X115.076 Y115.433 E.04674
G1 X114.599 Y115.607 E.04659
G1 X114.106 Y115.733 E.04669
G1 X113.605 Y115.807 E.04647
G1 X113.067 Y115.825 E.04939
G1 X112.54 Y115.748 E.04887
G1 X112.264 Y115.656 E.02669
G1 X111.839 Y115.467 E.04268
G1 X111.191 Y115.249 E.06273
G1 X110.544 Y114.917 E.06672
G1 X110.136 Y114.639 E.0453
G1 X109.762 Y114.325 E.04481
G1 X109.421 Y113.976 E.04477
G1 X109.142 Y113.625 E.04114
G1 X108.81 Y113.288 E.0434
G1 X108.637 Y113.046 E.02729
G1 X108.54 Y112.845 E.02048
G1 X108.205 Y112.742 F10800
;WIPE_START
G1 F8640
G1 X108.426 Y112.49 E-.73794
G1 X108.422 Y112.459 E-.06206
;WIPE_END
G1 X108.323 Y102.575 F10800
G1 E.8 F18000
;TYPE:Perimeter
G1 F1440
G1 X108.514 Y102.872 E.0324
G1 X108.909 Y103.335 E.05584
G1 X109.343 Y103.738 E.05434
G1 X109.807 Y104.09 E.05344
G1 X110.304 Y104.393 E.05341
G1 X110.828 Y104.646 E.05339
G1 X111.375 Y104.845 E.05341
G1 X112.026 Y105.001 E.06142
G1 X111.655 Y105.076 E.03473
G1 X111.099 Y105.248 E.0534
G1 X110.563 Y105.474 E.05337
G1 X110.052 Y105.752 E.05337
G1 X109.571 Y106.08 E.05342
G1 X109.122 Y106.457 E.05379
G1 X108.72 Y106.875 E.05321
G1 X108.489 Y107.163 E.03387
G1 X108.334 Y107.428 E.02817
G1 X108.214 Y107.153 E.02753
G1 X107.893 Y106.62 E.05709
G1 X107.352 Y105.961 E.07823
G1 X106.925 Y105.558 E.05387
G1 X106.68 Y105.363 E.02873
G1 X106.395 Y105.162 E.032
G1 X106.086 Y105.005 E.0318
G1 X106.369 Y104.852 E.02952
G1 X106.864 Y104.494 E.05605
M73 Q3 S22
G1 X107.301 Y104.091 E.05454
G1 X107.689 Y103.651 E.05382
G1 X108.025 Y103.177 E.05331
G1 X108.21 Y102.858 E.03383
G1 X108.301 Y102.631 E.02244
;WIPE_START
G1 F8640
G1 X108.514 Y102.872 E-.63657
G1 X108.568 Y102.935 E-.16343
;WIPE_END
G1 X107.377 Y112.641 F10800
G1 E.8 F18000
;TYPE:External perimeter
G1 F1440
G1 X107.176 Y112.949 E.03374
G1 X106.972 Y113.158 E.0268
G1 X106.596 Y113.441 E.04318
G1 X106.268 Y113.744 E.04097
G1 X105.881 Y114.037 E.04454
G1 X105.466 Y114.29 E.04459
G1 X105.027 Y114.502 E.04473
G1 X104.356 Y114.729 E.06499
G1 X103.498 Y114.888 E.08006
G1 X103.269 Y114.968 E.02226
G1 X102.744 Y115.037 E.04858
G1 X102.466 Y115.029 E.02552
G1 X102.201 Y114.998 E.02448
G1 X101.715 Y114.888 E.04572
G1 X101.244 Y114.727 E.04567
G1 X100.787 Y114.517 E.04615
G1 X100.547 Y114.382 E.02526
G1 X100.121 Y114.064 E.04877
G1 X99.77 Y113.667 E.04862
G1 X99.501 Y113.283 E.04302
G1 X99.076 Y112.75 E.06255
G1 X98.82 Y112.331 E.04505
G1 X98.609 Y111.893 E.04461
G1 X98.441 Y111.432 E.04502
G1 X98.28 Y110.732 E.0659
G1 X98.229 Y110.243 E.04511
G1 X98.228 Y109.752 E.04505
G1 X98.315 Y109.039 E.0659
G1 X98.425 Y108.596 E.04188
G1 X98.503 Y108.142 E.04227
G1 X98.64 Y107.633 E.04836
G1 X98.884 Y107.159 E.04891
G1 X99.197 Y106.731 E.04865
G1 X99.537 Y106.359 E.04624
G1 X99.913 Y106.025 E.04614
G1 X100.134 Y105.859 E.02536
G1 X100.601 Y105.597 E.04913
G1 X101.128 Y105.44 E.05045
G1 X101.36 Y105.417 E.02139
G1 X101.981 Y105.22 E.05978
G1 X102.463 Y105.13 E.04499
G1 X102.948 Y105.088 E.04467
G1 X103.434 Y105.095 E.0446
G1 X103.917 Y105.15 E.0446
G1 X104.392 Y105.252 E.04457
G1 X104.811 Y105.387 E.04039
G1 X105.261 Y105.472 E.04202
G1 X105.541 Y105.553 E.02674
G1 X106.015 Y105.794 E.04879
G1 X106.443 Y106.114 E.04903
G1 X106.813 Y106.463 E.04667
G1 X107.29 Y107.046 E.06911
G1 X107.559 Y107.491 E.04771
G1 X107.676 Y107.758 E.02675
G1 X107.811 Y108.28 E.04947
G1 X107.823 Y108.526 E.0226
G1 X107.955 Y109.17 E.06032
G1 X108.012 Y109.649 E.04426
G1 X108.021 Y110.14 E.04506
G1 X107.946 Y110.86 E.06642
G1 X107.764 Y111.561 E.06645
G1 X107.598 Y111.979 E.04127
G1 X107.472 Y112.432 E.04314
G1 X107.402 Y112.587 E.0156
G1 X107.57 Y112.954 F10800
;WIPE_START
G1 F8640
G1 X107.188 Y112.93 E-.8
;WIPE_END
G1 X100.155 Y105.004 F10800
G1 E.8 F18000
;TYPE:Perimeter
G1 F1440
G1 X99.733 Y105.241 E.04441
G1 X99.448 Y105.454 E.03264
G1 X99.02 Y105.835 E.05257
G1 X98.633 Y106.257 E.05253
G1 X98.45 Y106.494 E.02747
G1 X98.4 Y105.303 E.10937
G1 X98.418 Y103.978 E.12158
G1 X98.446 Y103.494 E.04448
G1 X98.744 Y103.874 E.04431
G1 X99.156 Y104.296 E.05411
G1 X99.629 Y104.687 E.05631
G1 X100.104 Y104.973 E.05087
;WIPE_START
G1 F8640
G1 X99.776 Y105.21 E-.8
;WIPE_END
G1 X105.935 Y126.931 F10800
G1 E.8 F18000
G1 F1440
G1 X105.905 Y127.452 E.04788
G1 X105.764 Y128.006 E.05245
G1 X105.51 Y128.534 E.05376
G1 X105.156 Y129.001 E.05377
G1 X104.717 Y129.388 E.05369
G1 X104.21 Y129.681 E.05373
G1 X103.655 Y129.868 E.05373
G1 X103.073 Y129.94 E.05381
G1 X102.489 Y129.897 E.05373
G1 X101.925 Y129.738 E.05376
G1 X101.404 Y129.471 E.05371
G1 X100.946 Y129.106 E.05373
G1 X100.57 Y128.657 E.05373
