; generated by PrusaSlicer 2.6.0-alpha5+win64 on 2023-05-23 at 16:46:10 UTC


;
;
; 

; external perimeters extrusion width = 0.50mm
; perimeters extrusion width = 0.50mm
; infill extrusion width = 0.50mm
; solid infill extrusion width = 0.45mm
; top infill extrusion width = 0.40mm
; first layer extrusion width = 0.60mm

M73 P0 R62
M73 Q0 S68
M201 X5000 Y5000 Z200 E10000 ; sets maximum accelerations, mm/sec^2
M203 X200 Y200 Z30 E120 ; sets maximum feedrates, mm / sec
M204 P3000 R3000 T3000 ; sets acceleration (P, T) and retract acceleration (R), mm/sec^2
M205 X8.00 Y8.00 Z0.40 E4.50 ; sets the jerk limits, mm/sec
M205 S0 T0 ; sets the minimum extruding and travel feed rate, mm/sec
M107
;TYPE:Custom
M862.3 P "MK3" ; printer model check
M862.1 P0.4 ; nozzle diameter check
M115 U3.12.1 ; tell printer latest fw version
G90 ; use absolute coordinates
M83 ; extruder relative mode
M104 S245 ; set extruder temp
M140 S85 ; set bed temp
M190 S85 ; wait for bed temp
M109 S245 ; wait for extruder temp
G28 W ; home all without mesh bed level
G80 ; mesh bed leveling

G1 Z0.2 F720
G1 Y-3 F1000 ; go outside print area
G92 E0
G1 X60 E9 F1000 ; intro line
G1 X100 E12.5 F1000 ; intro line

G92 E0
M221 S95

; Don't change E values below. Excessive value can damage the printer.

G21 ; set units to millimeters
G90 ; use absolute coordinates
M83 ; use relative distances for extrusion
M900 K0.08 ; Filament gcode LA 1.5
M900 K45 ; Filament gcode LA 1.0
M107
;LAYER_CHANGE
;Z:0.3
;HEIGHT:0.3
;BEFORE_LAYER_CHANGE
G92 E0.0
;0.3


G1 Z.3 F1800
;AFTER_LAYER_CHANGE
;0.3
M73 P0 R61
G1 E-.8 F18000
G1 X90.645 Y88.673 F10800
G1 E.8 F18000
M204 S3000
;TYPE:Skirt/Brim
;WIDTH:0.6
G1 F1440
G1 X108.692 Y70.628 E1.70493
G1 X109.329 Y70.104 E.0551
G1 X110.204 Y69.617 E.0669
G1 X111.157 Y69.31 E.06689
G1 X112.151 Y69.195 E.06685
G1 X137.76 Y69.195 E1.71082
G1 X138.755 Y69.31 E.06691
G1 X139.544 Y69.55 E.05509
G1 X140.435 Y70.006 E.06687
G1 X141.166 Y70.577 E.06197
G1 X159.266 Y88.673 E1.70985
G1 X159.851 Y89.374 E.061
G1 X160.308 Y90.181 E.06196
G1 X160.646 Y91.201 E.07179
G1 X160.762 Y92.284 E.07276
G1 X160.762 Y117.716 E1.699
G1 X160.68 Y118.625 E.06097
G1 X160.433 Y119.519 E.06196
G1 X159.95 Y120.479 E.07179
G1 X159.266 Y121.327 E.07278
G1 X141.22 Y139.372 E1.70489
G1 X140.435 Y139.994 E.06691
M73 Q0 S67
G1 X139.707 Y140.383 E.05514
G1 X138.755 Y140.69 E.06682
G1 X137.672 Y140.806 E.07276
G1 X112.24 Y140.806 E1.699
G1 X111.33 Y140.724 E.06104
G1 X110.436 Y140.477 E.06196
G1 X109.476 Y139.994 E.07179
G1 X108.628 Y139.311 E.07274
G1 X90.583 Y121.264 E1.70493
G1 X89.962 Y120.479 E.06687
G1 X89.573 Y119.752 E.05508
G1 X89.266 Y118.799 E.06689
G1 X89.149 Y117.716 E.07277
G1 X89.149 Y92.284 E1.699
G1 X89.231 Y91.375 E.06097
G1 X89.479 Y90.48 E.06204
G1 X89.962 Y89.521 E.07173
G1 X90.607 Y88.719 E.06876
G1 X91.022 Y89.054 F10800
G1 F1440
G1 X109.007 Y71.068 E1.69922
G1 X109.638 Y70.542 E.05488
G1 X110.421 Y70.107 E.05984
G1 X111.274 Y69.833 E.05985
G1 X112.164 Y69.73 E.05985
G1 X137.747 Y69.73 E1.70908
G1 X138.637 Y69.833 E.05985
G1 X139.351 Y70.049 E.04983
G1 X140.148 Y70.459 E.05988
G1 X140.797 Y70.965 E.05498
G1 X158.887 Y89.052 E1.70895
G1 X159.413 Y89.682 E.05483
G1 X159.819 Y90.398 E.05499
G1 X160.123 Y91.318 E.06473
G1 X160.226 Y92.284 E.0649
G1 X160.226 Y117.716 E1.699
G1 X160.152 Y118.534 E.05487
G1 X159.906 Y119.395 E.05982
G1 X159.497 Y120.193 E.0599
G1 X158.887 Y120.949 E.0649
G1 X140.904 Y138.932 E1.69898
G1 X140.274 Y139.458 E.05483
G1 X139.49 Y139.893 E.0599
G1 X138.637 Y140.167 E.05985
G1 X137.672 Y140.271 E.06484
G1 X112.24 Y140.271 E1.699
G1 X111.422 Y140.197 E.05487
G1 X110.56 Y139.951 E.05989
G1 X109.763 Y139.541 E.05988
G1 X109.007 Y138.932 E.06485
G1 X91.024 Y120.948 E1.69903
G1 X90.498 Y120.318 E.05483
G1 X90.063 Y119.535 E.05984
G1 X89.788 Y118.682 E.05987
G1 X89.685 Y117.716 E.0649
G1 X89.685 Y92.284 E1.699
G1 X89.759 Y91.466 E.05487
G1 X90.005 Y90.604 E.05989
G1 X90.414 Y89.807 E.05985
G1 X90.984 Y89.101 E.06062
G1 X91.399 Y89.435 F10800
G1 F1440
G1 X109.386 Y71.447 E1.69941
G1 X109.946 Y70.98 E.04871
G1 X110.638 Y70.597 E.05284
G1 X111.391 Y70.355 E.05284
G1 X112.239 Y70.265 E.05697
G1 X137.734 Y70.266 E1.7032
G1 X138.52 Y70.355 E.05284
G1 X139.158 Y70.549 E.04455
G1 X139.862 Y70.911 E.05288
G1 X140.428 Y71.353 E.04798
G1 X158.509 Y89.43 E1.70805
G1 X158.975 Y89.99 E.04867
G1 X159.359 Y90.682 E.05287
G1 X159.6 Y91.436 E.05288
G1 X159.691 Y92.284 E.05698
G1 X159.691 Y117.716 E1.699
G1 X159.625 Y118.442 E.0487
G1 X159.407 Y119.203 E.05288
G1 X159.045 Y119.906 E.05283
G1 X158.509 Y120.57 E.05701
G1 X140.525 Y138.553 E1.69903
G1 X139.965 Y139.02 E.04871
G1 X139.273 Y139.403 E.05284
G1 X138.52 Y139.645 E.05284
G1 X137.672 Y139.735 E.05697
G1 X112.24 Y139.735 E1.699
G1 X111.513 Y139.669 E.04877
G1 X110.753 Y139.451 E.05282
G1 X110.05 Y139.089 E.05283
G1 X109.386 Y138.553 E.05701
G1 X91.403 Y120.57 E1.69898
G1 X90.936 Y120.01 E.04871
G1 X90.552 Y119.318 E.05287
G1 X90.311 Y118.564 E.05288
G1 X90.221 Y117.716 E.05697
G1 X90.221 Y92.284 E1.699
G1 X90.287 Y91.558 E.0487
G1 X90.505 Y90.797 E.05288
G1 X90.867 Y90.094 E.05283
G1 X91.361 Y89.482 E.05254
; printing object lens holder v3.stl id:0 copy 0
;WIPE_START
G1 F8640
G1 X91.647 Y89.196 E-.8
;WIPE_END
G1 X122.134 Y113.347 F10800
G1 E.8 F18000
;TYPE:Perimeter
G1 F1440
G1 X122.771 Y113.394 E.04267
G1 X123.226 Y113.486 E.03101
G1 X123.658 Y113.619 E.0302
G1 X124.075 Y113.795 E.03024
G1 X124.472 Y114.011 E.03019
G1 X124.845 Y114.266 E.03018
G1 X125.192 Y114.556 E.03021
G1 X125.508 Y114.88 E.03024
G1 X125.79 Y115.234 E.03024
G1 X126.035 Y115.614 E.0302
G1 X126.241 Y116.016 E.03018
G1 X126.407 Y116.437 E.03023
G1 X126.529 Y116.873 E.03025
G1 X126.608 Y117.318 E.03019
G1 X126.641 Y117.769 E.03021
G1 X126.63 Y118.221 E.0302
G1 X126.574 Y118.67 E.03023
G1 X126.473 Y119.111 E.03022
G1 X126.329 Y119.54 E.03023
G1 X126.143 Y119.952 E.0302
G1 X125.917 Y120.343 E.03017
G1 X125.653 Y120.711 E.03026
G1 X125.354 Y121.05 E.0302
G1 X125.022 Y121.357 E.03021
G1 X124.662 Y121.63 E.03018
G1 X124.276 Y121.866 E.03022
G1 X123.868 Y122.063 E.03027
G1 X123.443 Y122.217 E.0302
G1 X123.005 Y122.329 E.0302
G1 X122.558 Y122.396 E.0302
G1 X122.106 Y122.419 E.03024
G1 X121.654 Y122.396 E.03024
G1 X121.207 Y122.329 E.0302
G1 X120.769 Y122.217 E.0302
G1 X120.344 Y122.063 E.0302
G1 X119.936 Y121.866 E.03027
G1 X119.551 Y121.63 E.03017
G1 X119.19 Y121.357 E.03024
G1 X118.858 Y121.05 E.03021
G1 X118.559 Y120.711 E.0302
G1 X118.289 Y120.335 E.03092
G1 X117.975 Y119.758 E.04388
G1 X117.806 Y119.327 E.03093
G1 X117.683 Y118.892 E.0302
G1 X117.605 Y118.446 E.03025
G1 X117.571 Y117.995 E.03021
G1 X117.582 Y117.543 E.0302
G1 X117.638 Y117.094 E.03023
G1 X117.739 Y116.653 E.03022
G1 X117.883 Y116.225 E.03017
G1 X118.069 Y115.812 E.03026
G1 X118.295 Y115.421 E.03017
G1 X118.559 Y115.053 E.03026
G1 X118.858 Y114.714 E.0302
M73 P1 R61
G1 X119.19 Y114.407 E.03021
G1 X119.551 Y114.134 E.03024
G1 X119.936 Y113.898 E.03017
G1 X120.344 Y113.702 E.03024
G1 X120.769 Y113.547 E.03022
G1 X121.207 Y113.435 E.0302
G1 X121.654 Y113.368 E.0302
G1 X122.074 Y113.347 E.02809
G1 X122.056 Y113.884 F10800
;TYPE:External perimeter
G1 F1440
G1 X122.698 Y113.926 E.04298
G1 X123.093 Y114.005 E.02691
G1 X123.474 Y114.123 E.02665
G1 X123.842 Y114.278 E.02668
G1 X124.192 Y114.469 E.02664
G1 X124.522 Y114.693 E.02664
G1 X124.827 Y114.95 E.02664
G1 X125.106 Y115.235 E.02664
G1 X125.354 Y115.547 E.02663
G1 X125.571 Y115.882 E.02666
G1 X125.753 Y116.237 E.02665
G1 X125.898 Y116.608 E.02661
G1 X126.006 Y116.992 E.02665
G1 X126.076 Y117.385 E.02667
G1 X126.105 Y117.782 E.02659
G1 X126.095 Y118.181 E.02666
G1 X126.046 Y118.577 E.02666
G1 X125.957 Y118.966 E.02666
G1 X125.83 Y119.344 E.02664
G1 X125.666 Y119.707 E.02661
G1 X125.467 Y120.052 E.02661
G1 X125.234 Y120.376 E.02666
G1 X124.97 Y120.675 E.02665
G1 X124.678 Y120.947 E.02666
G1 X124.36 Y121.187 E.02662
G1 X124.019 Y121.395 E.02668
G1 X123.66 Y121.568 E.02662
G1 X123.285 Y121.705 E.02667
G1 X122.899 Y121.803 E.0266
G1 X122.504 Y121.863 E.02669
G1 X122.106 Y121.882 E.02662
G1 X121.708 Y121.863 E.02662
G1 X121.313 Y121.803 E.02669
G1 X120.927 Y121.705 E.0266
G1 X120.552 Y121.568 E.02667
G1 X120.193 Y121.395 E.02662
G1 X119.853 Y121.187 E.02663
G1 X119.535 Y120.947 E.02662
G1 X119.242 Y120.675 E.02671
G1 X118.978 Y120.376 E.02665
G1 X118.743 Y120.049 E.0269
G1 X118.461 Y119.531 E.0394
G1 X118.314 Y119.156 E.02691
G1 X118.206 Y118.772 E.02665
G1 X118.137 Y118.379 E.02666
G1 X118.107 Y117.982 E.0266
G1 X118.117 Y117.583 E.02666
G1 X118.166 Y117.187 E.02666
G1 X118.255 Y116.799 E.02659
G1 X118.382 Y116.421 E.02664
G1 X118.546 Y116.057 E.02667
G1 X118.746 Y115.712 E.02664
G1 X118.978 Y115.388 E.02662
G1 X119.242 Y115.089 E.02665
G1 X119.535 Y114.818 E.02666
G1 X119.853 Y114.577 E.02666
G1 X120.193 Y114.369 E.02663
G1 X120.552 Y114.196 E.02662
G1 X120.927 Y114.059 E.02667
G1 X121.313 Y113.961 E.0266
G1 X121.708 Y113.902 E.02668
G1 X121.997 Y113.887 E.01933
G1 X122.259 Y113.539 F10800
;WIPE_START
G1 F8640
G1 X122.401 Y113.909 E-.8
;WIPE_END
G1 X117.639 Y110.145 F10800
G1 E.8 F18000
;TYPE:Perimeter
G1 F1440
G1 X117.677 Y110.62 E.03183
G1 X117.666 Y111.072 E.0302
G1 X117.609 Y111.521 E.03024
G1 X117.509 Y111.962 E.03021
G1 X117.365 Y112.391 E.03023
G1 X117.179 Y112.803 E.0302
G1 X116.953 Y113.194 E.03017
G1 X116.689 Y113.562 E.03026
G1 X116.389 Y113.901 E.03024
G1 X116.058 Y114.208 E.03016
G1 X115.697 Y114.481 E.03024
G1 X115.311 Y114.717 E.03022
G1 X114.904 Y114.914 E.03021
G1 X114.479 Y115.068 E.0302
G1 X114.041 Y115.18 E.0302
G1 X113.593 Y115.247 E.03026
G1 X113.142 Y115.27 E.03017
G1 X112.69 Y115.247 E.03024
G1 X112.243 Y115.18 E.0302
G1 X111.804 Y115.068 E.03027
G1 X111.379 Y114.914 E.0302
G1 X110.972 Y114.717 E.03021
G1 X110.586 Y114.481 E.03022
G1 X110.226 Y114.209 E.03014
G1 X109.895 Y113.902 E.03016
G1 X109.464 Y113.391 E.04466
G1 X109.213 Y113.001 E.03098
G1 X109.006 Y112.599 E.03021
G1 X108.841 Y112.178 E.03021
G1 X108.719 Y111.743 E.03018
G1 X108.64 Y111.297 E.03026
G1 X108.606 Y110.846 E.03021
G1 X108.618 Y110.394 E.03021
G1 X108.674 Y109.945 E.03023
G1 X108.774 Y109.504 E.03021
G1 X108.918 Y109.076 E.03017
G1 X109.104 Y108.663 E.03026
G1 X109.331 Y108.272 E.0302
G1 X109.595 Y107.904 E.03026
G1 X109.894 Y107.565 E.0302
G1 X110.225 Y107.258 E.03016
G1 X110.586 Y106.985 E.03024
G1 X110.972 Y106.749 E.03022
G1 X111.379 Y106.553 E.03018
G1 X111.804 Y106.398 E.03022
G1 X112.243 Y106.286 E.03027
G1 X112.69 Y106.219 E.0302
G1 X113.14 Y106.196 E.0301
G1 X113.807 Y106.245 E.04468
G1 X114.261 Y106.337 E.03095
G1 X114.693 Y106.47 E.0302
G1 X115.11 Y106.646 E.03024
G1 X115.507 Y106.862 E.03019
G1 X115.881 Y107.117 E.03024
G1 X116.227 Y107.407 E.03016
G1 X116.543 Y107.731 E.03024
G1 X116.825 Y108.085 E.03024
G1 X117.07 Y108.465 E.0302
G1 X117.277 Y108.867 E.03021
G1 X117.442 Y109.288 E.03021
G1 X117.565 Y109.724 E.03026
G1 X117.628 Y110.086 E.02455
G1 X117.109 Y110.226 F10800
;TYPE:External perimeter
G1 F1440
G1 X117.141 Y110.633 E.02727
G1 X117.131 Y111.032 E.02666
G1 X117.081 Y111.428 E.02666
G1 X116.992 Y111.817 E.02666
G1 X116.865 Y112.195 E.02664
G1 X116.701 Y112.558 E.02661
G1 X116.502 Y112.903 E.02661
G1 X116.269 Y113.227 E.02666
G1 X116.005 Y113.526 E.02665
G1 X115.713 Y113.798 E.02666
G1 X115.395 Y114.038 E.02662
G1 X115.055 Y114.246 E.02663
G1 X114.695 Y114.419 E.02668
G1 X114.321 Y114.556 E.02661
G1 X113.934 Y114.654 E.02667
M73 Q1 S67
G1 X113.54 Y114.714 E.02662
G1 X113.142 Y114.733 E.02662
G1 X112.743 Y114.714 E.02669
G1 X112.349 Y114.654 E.02662
G1 X111.962 Y114.556 E.02667
G1 X111.588 Y114.419 E.02661
G1 X111.228 Y114.246 E.02668
G1 X110.888 Y114.038 E.02663
G1 X110.57 Y113.798 E.02662
G1 X110.283 Y113.532 E.02614
G1 X109.896 Y113.072 E.04016
G1 X109.677 Y112.733 E.02696
G1 X109.495 Y112.378 E.02665
G1 X109.349 Y112.007 E.02663
G1 X109.241 Y111.623 E.02665
G1 X109.172 Y111.23 E.02666
G1 X109.142 Y110.833 E.0266
G1 X109.152 Y110.434 E.02666
G1 X109.202 Y110.038 E.02666
G1 X109.291 Y109.65 E.02659
G1 X109.418 Y109.272 E.02664
G1 X109.582 Y108.908 E.02667
G1 X109.781 Y108.563 E.02661
G1 X110.014 Y108.239 E.02666
G1 X110.278 Y107.94 E.02665
G1 X110.57 Y107.669 E.02661
G1 X110.888 Y107.428 E.02666
G1 X111.228 Y107.22 E.02663
G1 X111.588 Y107.047 E.02668
G1 X111.962 Y106.91 E.02661
G1 X112.349 Y106.812 E.02667
G1 X112.743 Y106.753 E.02661
G1 X113.134 Y106.733 E.02616
G1 X113.734 Y106.777 E.04019
G1 X114.129 Y106.856 E.02691
G1 X114.51 Y106.974 E.02665
G1 X114.877 Y107.129 E.02661
G1 X115.228 Y107.32 E.0267
G1 X115.557 Y107.544 E.02659
G1 X115.863 Y107.801 E.0267
G1 X116.141 Y108.086 E.0266
G1 X116.39 Y108.398 E.02667
G1 X116.606 Y108.733 E.02663
G1 X116.788 Y109.088 E.02665
G1 X116.934 Y109.459 E.02663
G1 X117.042 Y109.843 E.02665
G1 X117.099 Y110.166 E.02191
G1 X117.478 Y110.38 F10800
;WIPE_START
G1 F8640
G1 X117.135 Y110.569 E-.8
;WIPE_END
G1 X117.501 Y100.519 F10800
G1 E.8 F18000
;TYPE:Perimeter
G1 F1440
G1 X117.365 Y100.924 E.02854
G1 X117.179 Y101.337 E.03026
G1 X116.953 Y101.728 E.03017
G1 X116.689 Y102.096 E.03026
G1 X116.389 Y102.435 E.03024
G1 X116.058 Y102.742 E.03016
G1 X115.697 Y103.015 E.03024
G1 X115.311 Y103.251 E.03022
G1 X114.904 Y103.447 E.03018
G1 X114.479 Y103.602 E.03022
G1 X114.041 Y103.714 E.0302
G1 X113.593 Y103.781 E.03026
G1 X113.142 Y103.804 E.03017
G1 X112.69 Y103.781 E.03024
G1 X112.243 Y103.714 E.0302
G1 X111.804 Y103.602 E.03027
G1 X111.379 Y103.447 E.03022
G1 X110.972 Y103.251 E.03018
G1 X110.586 Y103.015 E.03022
G1 X110.226 Y102.742 E.03018
G1 X109.895 Y102.436 E.03011
G1 X109.464 Y101.925 E.04466
G1 X109.213 Y101.535 E.03098
G1 X109.006 Y101.133 E.03021
G1 X108.841 Y100.712 E.03021
G1 X108.719 Y100.276 E.03025
G1 X108.64 Y99.831 E.03019
G1 X108.606 Y99.38 E.03021
G1 X108.618 Y98.928 E.03021
G1 X108.674 Y98.479 E.03023
G1 X108.774 Y98.038 E.03021
G1 X108.918 Y97.609 E.03023
G1 X109.104 Y97.197 E.0302
G1 X109.331 Y96.806 E.0302
G1 X109.595 Y96.438 E.03026
G1 X109.894 Y96.099 E.0302
G1 X110.225 Y95.792 E.03016
G1 X110.586 Y95.519 E.03024
G1 X110.972 Y95.283 E.03022
G1 X111.379 Y95.086 E.03021
G1 X111.804 Y94.932 E.0302
G1 X112.243 Y94.82 E.03027
G1 X112.69 Y94.753 E.0302
G1 X113.14 Y94.73 E.0301
G1 X113.807 Y94.779 E.04468
G1 X114.261 Y94.871 E.03095
G1 X114.693 Y95.004 E.0302
G1 X115.11 Y95.18 E.03024
G1 X115.507 Y95.396 E.03019
G1 X115.881 Y95.651 E.03024
G1 X116.227 Y95.941 E.03016
G1 X116.543 Y96.265 E.03024
G1 X116.825 Y96.619 E.03024
G1 X117.07 Y96.999 E.0302
G1 X117.277 Y97.401 E.03021
G1 X117.442 Y97.822 E.03021
G1 X117.565 Y98.257 E.0302
G1 X117.643 Y98.703 E.03025
G1 X117.677 Y99.154 E.03021
G1 X117.666 Y99.606 E.0302
G1 X117.609 Y100.055 E.03024
G1 X117.517 Y100.461 E.02781
G1 X116.973 Y100.409 F10800
;TYPE:External perimeter
G1 F1440
G1 X116.865 Y100.728 E.0225
G1 X116.701 Y101.092 E.02667
G1 X116.502 Y101.437 E.02661
G1 X116.269 Y101.761 E.02666
G1 X116.005 Y102.06 E.02665
G1 X115.713 Y102.331 E.02661
G1 X115.395 Y102.572 E.02666
G1 X115.055 Y102.78 E.02663
G1 X114.695 Y102.953 E.02668
G1 X114.321 Y103.09 E.02661
G1 X113.934 Y103.188 E.02667
G1 X113.54 Y103.248 E.02662
G1 X113.142 Y103.267 E.02662
G1 X112.743 Y103.248 E.02669
G1 X112.349 Y103.188 E.02662
G1 X111.962 Y103.09 E.02667
G1 X111.588 Y102.953 E.02661
G1 X111.228 Y102.78 E.02668
G1 X110.888 Y102.572 E.02663
G1 X110.57 Y102.332 E.02662
G1 X110.283 Y102.066 E.02614
G1 X109.896 Y101.606 E.04016
G1 X109.677 Y101.267 E.02696
G1 X109.495 Y100.912 E.02665
G1 X109.349 Y100.541 E.02663
G1 X109.241 Y100.157 E.02665
G1 X109.172 Y99.764 E.02666
G1 X109.142 Y99.367 E.0266
G1 X109.152 Y98.968 E.02666
G1 X109.202 Y98.572 E.02666
G1 X109.291 Y98.183 E.02666
G1 X109.418 Y97.805 E.02664
G1 X109.582 Y97.442 E.02661
G1 X109.781 Y97.097 E.02661
G1 X110.014 Y96.773 E.02666
G1 X110.278 Y96.474 E.02665
G1 X110.57 Y96.202 E.02666
G1 X110.888 Y95.962 E.02662
G1 X111.228 Y95.754 E.02663
G1 X111.588 Y95.581 E.02668
G1 X111.962 Y95.444 E.02661
G1 X112.349 Y95.346 E.02667
G1 X112.743 Y95.286 E.02662
G1 X113.134 Y95.267 E.02615
G1 X113.734 Y95.31 E.04019
G1 X114.129 Y95.39 E.02692
G1 X114.51 Y95.508 E.02665
