; generated by PrusaSlicer 2.6.0-alpha5+win64 on 2023-05-11 at 21:16:30 UTC


;
;
; 

; external perimeters extrusion width = 0.60mm
; perimeters extrusion width = 0.60mm
; infill extrusion width = 0.50mm
; solid infill extrusion width = 0.45mm
; top infill extrusion width = 0.40mm
; first layer extrusion width = 0.80mm

M73 P0 R48
M73 Q0 S50
M201 X5000 Y5000 Z200 E10000 ; sets maximum accelerations, mm/sec^2
M203 X200 Y200 Z30 E120 ; sets maximum feedrates, mm / sec
M204 P3000 R3000 T3000 ; sets acceleration (P, T) and retract acceleration (R), mm/sec^2
M205 X8.00 Y8.00 Z0.40 E4.50 ; sets the jerk limits, mm/sec
M205 S0 T0 ; sets the minimum extruding and travel feed rate, mm/sec
M107
;TYPE:Custom
M862.3 P "MK3" ; printer model check
M862.1 P0.4 ; nozzle diameter check
M115 U3.12.1 ; tell printer latest fw version
G90 ; use absolute coordinates
M83 ; extruder relative mode
M104 S245 ; set extruder temp
M140 S85 ; set bed temp
M190 S85 ; wait for bed temp
M109 S245 ; wait for extruder temp
G28 W ; home all without mesh bed level
G80 ; mesh bed leveling

G1 Z0.2 F720
G1 Y-3 F1000 ; go outside print area
G92 E0
G1 X60 E9 F1000 ; intro line
G1 X100 E12.5 F1000 ; intro line

G92 E0
M221 S95

; Don't change E values below. Excessive value can damage the printer.

G21 ; set units to millimeters
G90 ; use absolute coordinates
M83 ; use relative distances for extrusion
M900 K0.08 ; Filament gcode LA 1.5
M900 K45 ; Filament gcode LA 1.0
M107
;LAYER_CHANGE
;Z:0.4
;HEIGHT:0.4
;BEFORE_LAYER_CHANGE
G92 E0.0
;0.4


G1 Z.4 F1800
;AFTER_LAYER_CHANGE
;0.4
M73 P0 R47
G1 E-.8 F18000
G1 X73.734 Y57.937 F10800
G1 E.8 F18000
M204 S3000
;TYPE:Skirt/Brim
;WIDTH:0.8
G1 F1440
G1 X74.73 Y56.787 E.18068
G1 X75.792 Y55.677 E.18245
G1 X76.907 Y54.622 E.18231
G1 X78.072 Y53.624 E.18219
G1 X79.273 Y52.694 E.1804
G1 X80.533 Y51.815 E.18246
G1 X81.81 Y51.014 E.17903
G1 X83.011 Y50.338 E.16368
G1 X84.24 Y49.715 E.16364
G1 X85.614 Y49.099 E.17883
G1 X87.026 Y48.547 E.18006
G1 X88.481 Y48.059 E.18226
G1 X89.962 Y47.643 E.1827
G1 X91.461 Y47.302 E.18258
G1 X92.953 Y47.039 E.17993
G1 X94.416 Y46.854 E.17514
G1 X95.884 Y46.738 E.17489
G1 X97.494 Y46.693 E.19129
G1 X152.541 Y46.694 E6.53767
G1 X153.979 Y46.731 E.17084
G1 X155.428 Y46.838 E.17256
G1 X156.868 Y47.012 E.17227
G1 X158.299 Y47.254 E.17237
G1 X159.774 Y47.577 E.17933
G1 X161.242 Y47.975 E.18064
G1 X162.947 Y48.537 E.21321
G1 X164.291 Y49.059 E.17124
G1 X165.604 Y49.641 E.17057
G1 X166.903 Y50.293 E.17262
G1 X168.169 Y51.002 E.17233
G1 X169.719 Y51.983 E.21786
G1 X170.869 Y52.799 E.16747
G1 X171.988 Y53.672 E.16856
G1 X173.117 Y54.643 E.17686
G1 X174.198 Y55.667 E.17684
G1 X175.216 Y56.728 E.17463
G1 X176.194 Y57.85 E.17677
G1 X177.131 Y59.037 E.1796
G1 X178.013 Y60.275 E.18053
G1 X178.896 Y61.66 E.19508
G1 X179.708 Y63.097 E.19603
G1 X180.366 Y64.413 E.17474
G1 X180.968 Y65.774 E.17675
G1 X181.501 Y67.157 E.17603
G1 X181.98 Y68.609 E.18159
G1 X182.402 Y70.142 E.18884
G1 X182.715 Y71.543 E.17049
G1 X182.959 Y72.941 E.16854
G1 X183.149 Y74.439 E.17934
G1 X183.265 Y75.949 E.17986
G1 X183.307 Y77.487 E.18273
G1 X183.307 Y132.504 E6.5341
G1 X183.266 Y134.029 E.18118
G1 X183.162 Y135.422 E.1659
G1 X182.996 Y136.813 E.16637
G1 X182.7 Y138.529 E.20681
G1 X182.392 Y139.9 E.16689
G1 X182.023 Y141.247 E.16587
G1 X181.538 Y142.738 E.18621
G1 X181.011 Y144.12 E.17566
G1 X180.414 Y145.486 E.17705
G1 X179.73 Y146.862 E.1825
G1 X178.955 Y148.241 E.18787
G1 X178.104 Y149.589 E.18933
G1 X177.212 Y150.855 E.18393
G1 X176.267 Y152.061 E.18197
G1 X175.26 Y153.224 E.18271
G1 X174.194 Y154.337 E.18303
G1 X173.074 Y155.395 E.18298
G1 X171.9 Y156.399 E.18346
G1 X170.827 Y157.232 E.16133
M73 Q0 S49
G1 X169.718 Y158.018 E.16144
G1 X168.289 Y158.927 E.20114
G1 X166.966 Y159.675 E.1805
G1 X165.589 Y160.366 E.18298
G1 X164.161 Y160.994 E.18527
G1 X162.72 Y161.544 E.18318
G1 X161.249 Y162.023 E.18373
G1 X159.939 Y162.382 E.16132
G1 X158.614 Y162.683 E.16137
G1 X157.039 Y162.962 E.18997
G1 X155.441 Y163.161 E.19125
G1 X153.966 Y163.269 E.17565
G1 X152.504 Y163.307 E.17369
G1 X97.494 Y163.307 E6.53327
G1 X95.891 Y163.262 E.19046
G1 X94.536 Y163.158 E.1614
G1 X93.182 Y162.995 E.16197
G1 X91.428 Y162.692 E.2114
G1 X90.078 Y162.386 E.1644
G1 X88.75 Y162.023 E.16351
G1 X87.261 Y161.538 E.18599
G1 X85.879 Y161.011 E.17566
G1 X84.514 Y160.414 E.17694
G1 X83.138 Y159.73 E.1825
G1 X81.759 Y158.955 E.18787
G1 X80.411 Y158.104 E.18933
G1 X79.146 Y157.212 E.18383
G1 X77.939 Y156.267 E.18206
G1 X76.776 Y155.26 E.18271
G1 X75.663 Y154.195 E.18295
G1 X74.605 Y153.075 E.18298
G1 X73.601 Y151.9 E.18355
G1 X72.768 Y150.827 E.16133
G1 X71.982 Y149.717 E.16153
G1 X71.073 Y148.289 E.20104
G1 X70.325 Y146.964 E.18071
G1 X69.626 Y145.571 E.1851
G1 X69.004 Y144.158 E.18335
G1 X68.448 Y142.699 E.18543
G1 X67.973 Y141.235 E.1828
G1 X67.574 Y139.761 E.18136
G1 X67.248 Y138.26 E.18242
G1 X67.01 Y136.854 E.16936
G1 X66.839 Y135.435 E.16975
G1 X66.731 Y133.966 E.17494
G1 X66.693 Y132.504 E.17369
G1 X66.693 Y77.494 E6.53327
G1 X66.738 Y75.894 E.1901
G1 X66.839 Y74.557 E.15924
G1 X67 Y73.224 E.15946
G1 X67.293 Y71.503 E.20734
G1 X67.658 Y69.903 E.19491
G1 X68.028 Y68.585 E.16258
G1 X68.452 Y67.289 E.16195
G1 X69.046 Y65.744 E.19659
G1 X69.714 Y64.243 E.19512
G1 X70.356 Y62.976 E.16869
G1 X71.049 Y61.751 E.16715
G1 X71.897 Y60.41 E.18844
G1 X72.789 Y59.145 E.18383
G1 X73.697 Y57.984 E.17505
G1 X74.26 Y58.424 F10800
G1 F1440
G1 X75.252 Y57.274 E.18037
G1 X76.29 Y56.189 E.17833
G1 X77.378 Y55.158 E.17802
G1 X78.516 Y54.183 E.17798
G1 X79.689 Y53.275 E.17617
G1 X80.92 Y52.415 E.17834
G1 X82.168 Y51.632 E.17498
G1 X83.355 Y50.964 E.16176
G1 X84.555 Y50.356 E.15977
G1 X85.899 Y49.754 E.1749
G1 X87.277 Y49.215 E.17573
G1 X88.7 Y48.739 E.17821
G1 X90.146 Y48.333 E.17838
G1 X91.61 Y48 E.17831
G1 X93.068 Y47.744 E.17581
G1 X94.497 Y47.563 E.17107
G1 X95.931 Y47.451 E.17083
G1 X97.499 Y47.407 E.1863
G1 X152.536 Y47.408 E6.53648
G1 X153.951 Y47.445 E.16811
G1 X155.367 Y47.55 E.16863
G1 X156.774 Y47.72 E.16832
G1 X158.171 Y47.957 E.16829
G1 X159.612 Y48.273 E.17521
G1 X161.046 Y48.662 E.17646
G1 X162.697 Y49.206 E.20645
G1 X164.009 Y49.715 E.16714
G1 X165.306 Y50.291 E.16855
G1 X166.576 Y50.928 E.16874
G1 X167.811 Y51.62 E.16813
G1 X169.313 Y52.571 E.21114
G1 X170.449 Y53.377 E.16543
G1 X171.541 Y54.23 E.16457
G1 X172.645 Y55.179 E.1729
G1 X173.701 Y56.18 E.17281
G1 X174.694 Y57.216 E.17043
G1 X175.65 Y58.313 E.17282
G1 X176.564 Y59.473 E.17539
G1 X177.425 Y60.682 E.17628
G1 X178.288 Y62.036 E.19069
G1 X179.074 Y63.425 E.18955
G1 X179.717 Y64.71 E.17065
G1 X180.304 Y66.039 E.17255
G1 X180.825 Y67.389 E.17186
M73 P1 R47
G1 X181.299 Y68.824 E.17948
G1 X181.711 Y70.322 E.18452
G1 X182.016 Y71.69 E.16646
G1 X182.254 Y73.055 E.16456
G1 X182.439 Y74.52 E.17537
G1 X182.552 Y75.995 E.17569
G1 X182.593 Y77.501 E.17893
G1 X182.593 Y132.499 E6.53185
G1 X182.553 Y133.984 E.17643
M73 Q1 S49
G1 X182.451 Y135.361 E.16399
G1 X182.288 Y136.719 E.16244
G1 X182.001 Y138.382 E.20043
G1 X181.701 Y139.719 E.16274
G1 X181.337 Y141.051 E.164
G1 X180.862 Y142.509 E.18212
G1 X180.347 Y143.858 E.17149
G1 X179.763 Y145.192 E.17295
G1 X179.095 Y146.536 E.17825
G1 X178.337 Y147.883 E.18357
G1 X177.505 Y149.2 E.18501
G1 X176.644 Y150.422 E.17754
G1 X175.721 Y151.6 E.17774
G1 X174.738 Y152.737 E.17851
G1 X173.697 Y153.824 E.17875
G1 X172.603 Y154.858 E.17878
G1 X171.455 Y155.84 E.17942
G1 X170.395 Y156.663 E.15938
G1 X169.312 Y157.43 E.15761
G1 X167.929 Y158.31 E.19468
G1 X166.638 Y159.04 E.17614
G1 X165.293 Y159.716 E.17878
G1 X163.898 Y160.331 E.18106
G1 X162.49 Y160.868 E.17897
G1 X161.052 Y161.336 E.1796
G1 X159.773 Y161.687 E.15752
G1 X158.464 Y161.985 E.15944
G1 X156.923 Y162.257 E.18585
G1 X155.38 Y162.449 E.18467
G1 X153.939 Y162.556 E.17161
G1 X152.5 Y162.593 E.17096
G1 X97.499 Y162.593 E6.5322
G1 X95.937 Y162.549 E.18558
G1 X94.599 Y162.447 E.15937
G1 X93.277 Y162.287 E.15815
G1 X91.559 Y161.99 E.20707
G1 X90.243 Y161.691 E.16028
G1 X88.947 Y161.336 E.15959
G1 X87.491 Y160.861 E.18189
G1 X86.142 Y160.347 E.17145
G1 X84.808 Y159.763 E.17295
G1 X83.464 Y159.095 E.17825
G1 X82.117 Y158.337 E.18357
G1 X80.8 Y157.505 E.18501
G1 X79.579 Y156.644 E.17744
G1 X78.4 Y155.722 E.17776
G1 X77.263 Y154.738 E.17858
G1 X76.176 Y153.697 E.17875
G1 X75.142 Y152.604 E.17869
G1 X74.159 Y151.455 E.17959
G1 X73.346 Y150.407 E.15753
G1 X72.57 Y149.312 E.15939
G1 X71.69 Y147.929 E.19468
G1 X70.959 Y146.636 E.17641
G1 X70.276 Y145.275 E.18085
G1 X69.668 Y143.895 E.1791
G1 X69.125 Y142.47 E.18111
G1 X68.66 Y141.04 E.17859
G1 X68.27 Y139.601 E.17707
G1 X67.95 Y138.133 E.17844
G1 X67.718 Y136.76 E.16538
G1 X67.55 Y135.374 E.16581
G1 X67.444 Y133.939 E.17089
G1 X67.407 Y132.5 E.17096
G1 X67.407 Y77.499 E6.5322
G1 X67.451 Y75.94 E.18523
G1 X67.549 Y74.635 E.15542
G1 X67.708 Y73.318 E.15755
G1 X67.996 Y71.633 E.20302
G1 X68.348 Y70.088 E.18819
G1 X68.709 Y68.8 E.15886
G1 X69.128 Y67.52 E.15996
G1 X69.702 Y66.026 E.19008
G1 X70.355 Y64.557 E.19093
G1 X70.982 Y63.321 E.1646
G1 X71.666 Y62.111 E.16508
G1 X72.495 Y60.8 E.18422
G1 X73.357 Y59.578 E.17761
G1 X74.223 Y58.471 E.16692
G1 X74.785 Y58.911 F10800
G1 F1440
G1 X75.786 Y57.749 E.18215
G1 X76.8 Y56.689 E.17422
G1 X77.85 Y55.695 E.17172
G1 X78.961 Y54.742 E.17384
G1 X80.105 Y53.855 E.17192
G1 X81.307 Y53.016 E.17409
G1 X82.526 Y52.25 E.17099
G1 X83.684 Y51.597 E.15789
G1 X84.87 Y50.998 E.1578
G1 X86.183 Y50.409 E.17091
G1 X87.529 Y49.884 E.17159
G1 X88.918 Y49.419 E.17396
G1 X90.33 Y49.023 E.17417
G1 X91.76 Y48.699 E.17414
G1 X93.183 Y48.449 E.17159
G1 X94.577 Y48.273 E.16687
G1 X95.977 Y48.164 E.16677
G1 X97.504 Y48.121 E.18143
G1 X152.532 Y48.122 E6.53541
G1 X153.924 Y48.159 E.16538
G1 X155.305 Y48.261 E.16446
G1 X156.679 Y48.428 E.16438
G1 X158.043 Y48.66 E.16432
G1 X159.45 Y48.969 E.17108
G1 X160.85 Y49.348 E.17226
G1 X162.464 Y49.881 E.20187
G1 X163.742 Y50.378 E.16286
G1 X165.009 Y50.94 E.16461
G1 X166.248 Y51.562 E.16465
G1 X167.454 Y52.238 E.1642
G1 X168.908 Y53.159 E.20441
G1 X170.016 Y53.945 E.16134
G1 X171.095 Y54.788 E.16262
G1 X172.172 Y55.715 E.16877
G1 X173.203 Y56.692 E.16869
G1 X174.173 Y57.704 E.16649
G1 X175.105 Y58.775 E.16862
G1 X175.998 Y59.908 E.17133
G1 X176.838 Y61.088 E.17203
G1 X177.681 Y62.411 E.18631
G1 X178.439 Y63.752 E.18295
G1 X179.067 Y65.006 E.16656
G1 X179.641 Y66.304 E.16856
G1 X180.15 Y67.622 E.1678
G1 X180.618 Y69.039 E.17723
G1 X181.016 Y70.486 E.17824
G1 X181.314 Y71.821 E.16245
G1 X181.549 Y73.17 E.16263
G1 X181.729 Y74.6 E.17117
G1 X181.839 Y76.04 E.17152
G1 X181.879 Y77.506 E.17417
G1 X181.879 Y132.495 E6.53078
G1 X181.84 Y133.94 E.17168
G1 X181.741 Y135.284 E.16005
G1 X181.58 Y136.625 E.16041
G1 X181.303 Y138.234 E.1939
G1 X181.006 Y139.555 E.16081
G1 X180.65 Y140.854 E.15996
G1 X180.185 Y142.278 E.17791
G1 X179.683 Y143.595 E.16739
G1 X179.113 Y144.897 E.1688
G1 X178.459 Y146.209 E.17411
G1 X177.719 Y147.525 E.17931
G1 X176.906 Y148.811 E.18069
G1 X176.065 Y150.003 E.17326
G1 X175.176 Y151.14 E.17141
G1 X174.215 Y152.25 E.17437
G1 X173.2 Y153.312 E.17447
G1 X172.132 Y154.322 E.17458
G1 X171.01 Y155.282 E.17537
G1 X169.976 Y156.085 E.15549
G1 X168.907 Y156.842 E.15557
G1 X167.569 Y157.693 E.18833
G1 X166.309 Y158.406 E.17194
G1 X164.996 Y159.066 E.17453
G1 X163.634 Y159.667 E.17681
G1 X162.26 Y160.192 E.17469
G1 X160.855 Y160.65 E.17551
G1 X159.592 Y160.996 E.15553
G1 X158.315 Y161.286 E.15552
G1 X156.826 Y161.55 E.1796
G1 X155.318 Y161.738 E.18048
G1 X153.912 Y161.842 E.16744
G1 X152.495 Y161.879 E.16835
G1 X97.504 Y161.879 E6.53102
G1 X95.983 Y161.836 E.18071
G1 X94.676 Y161.737 E.15567
G1 X93.372 Y161.579 E.156
G1 X91.708 Y161.291 E.20056
G1 X90.424 Y161 E.15636
G1 X89.144 Y160.65 E.1576
G1 X87.721 Y160.185 E.1778
G1 X86.404 Y159.683 E.16739
G1 X85.103 Y159.112 E.16874
G1 X83.791 Y158.459 E.17405
G1 X82.475 Y157.719 E.17931
G1 X81.19 Y156.906 E.18059
G1 X79.998 Y156.065 E.17326
G1 X78.86 Y155.176 E.17151
G1 X77.75 Y154.215 E.17437
G1 X76.689 Y153.2 E.17438
G1 X75.679 Y152.132 E.17458
G1 X74.718 Y151.01 E.17545
G1 X73.915 Y149.976 E.15549
G1 X73.158 Y148.906 E.15567
G1 X72.307 Y147.569 E.18823
G1 X71.593 Y146.308 E.1721
G1 X70.926 Y144.978 E.17671
G1 X70.332 Y143.632 E.17473
G1 X69.801 Y142.24 E.17694
G1 X69.347 Y140.844 E.17434
G1 X68.966 Y139.44 E.17278
G1 X68.653 Y138.005 E.17444
G1 X68.426 Y136.666 E.1613
G1 X68.262 Y135.313 E.16187
G1 X68.158 Y133.911 E.16697
G1 X68.121 Y132.495 E.16823
G1 X68.121 Y77.504 E6.53102
G1 X68.163 Y75.985 E.18047
G1 X68.261 Y74.697 E.15341
G1 X68.416 Y73.413 E.1536
G1 X68.694 Y71.782 E.1965
G1 X69.038 Y70.272 E.18393
G1 X69.395 Y69 E.15691
G1 X69.804 Y67.751 E.15609
G1 X70.365 Y66.29 E.18587
G1 X70.996 Y64.872 E.18433
G1 X71.615 Y63.651 E.16258
G1 X72.284 Y62.47 E.1612
G1 X73.094 Y61.189 E.18
M73 P2 R47
G1 X73.935 Y59.997 E.17326
G1 X74.748 Y58.959 E.15659
G1 X75.31 Y59.399 F10800
G1 F1440
G1 X76.309 Y58.236 E.18209
G1 X77.297 Y57.201 E.16994
G1 X78.321 Y56.231 E.16752
G1 X79.405 Y55.301 E.16963
G1 X80.522 Y54.435 E.16786
G1 X81.694 Y53.616 E.16981
G1 X82.884 Y52.868 E.16693
G1 X84.028 Y52.223 E.15597
G1 X85.185 Y51.639 E.15392
G1 X86.466 Y51.065 E.16671
G1 X87.78 Y50.552 E.16753
G1 X89.136 Y50.099 E.16979
G1 X90.514 Y49.714 E.16993
G1 X91.909 Y49.397 E.1699
G1 X93.298 Y49.154 E.16747
G1 X94.658 Y48.983 E.16279
G1 X96.024 Y48.877 E.16272
G1 X97.509 Y48.835 E.17644
G1 X152.527 Y48.836 E6.53422
G1 X153.88 Y48.872 E.16075
M73 Q2 S49
G1 X155.228 Y48.971 E.16053
G1 X156.568 Y49.134 E.16032
G1 X157.915 Y49.362 E.16225
G1 X159.288 Y49.664 E.16696
G1 X160.653 Y50.035 E.168
G1 X162.214 Y50.55 E.19522
G1 X163.46 Y51.034 E.15875
G1 X164.696 Y51.582 E.16057
G1 X165.906 Y52.189 E.16077
G1 X167.096 Y52.856 E.16202
G1 X168.503 Y53.747 E.19779
G1 X169.596 Y54.522 E.15913
G1 X170.649 Y55.345 E.15873
G1 X171.7 Y56.25 E.16472
G1 X172.705 Y57.204 E.16457
G1 X173.651 Y58.191 E.16237
G1 X174.561 Y59.237 E.16466
G1 X175.432 Y60.343 E.1672
G1 X176.251 Y61.495 E.16787
G1 X177.073 Y62.787 E.18187
G1 X177.805 Y64.081 E.17657
G1 X178.418 Y65.303 E.16237
G1 X178.978 Y66.57 E.16452
G1 X179.475 Y67.854 E.16352
G1 X179.937 Y69.255 E.1752
G1 X180.321 Y70.651 E.17195
G1 X180.612 Y71.953 E.15845
G1 X180.844 Y73.284 E.16046
G1 X181.02 Y74.681 E.16723
G1 X181.127 Y76.086 E.16735
G1 X181.165 Y77.511 E.1693
G1 X181.165 Y132.49 E6.52959
G1 X181.128 Y133.896 E.16704
M73 P2 R46
G1 X181.029 Y135.223 E.15804
G1 X180.872 Y136.53 E.15634
G1 X180.604 Y138.086 E.18752
G1 X180.315 Y139.374 E.15677
G1 X179.964 Y140.657 E.15798
G1 X179.509 Y142.048 E.17382
G1 X179.019 Y143.332 E.16322
G1 X178.462 Y144.602 E.1647
G1 X177.824 Y145.883 E.16996
G1 X177.101 Y147.166 E.1749
G1 X176.307 Y148.421 E.17638
G1 X175.497 Y149.57 E.16696
G1 X174.63 Y150.679 E.16718
G1 X173.693 Y151.763 E.17017
G1 X172.702 Y152.799 E.17027
G1 X171.661 Y153.785 E.17029
G1 X170.565 Y154.723 E.17133
G1 X169.557 Y155.507 E.15166
G1 X168.501 Y156.254 E.15362
G1 X167.209 Y157.076 E.18187
G1 X165.98 Y157.772 E.16774
G1 X164.699 Y158.416 E.17028
G1 X163.37 Y159.003 E.17255
G1 X162.03 Y159.516 E.17041
G1 X160.658 Y159.964 E.17141
G1 X159.426 Y160.302 E.15173
G1 X158.165 Y160.588 E.15357
G1 X156.711 Y160.845 E.17536
G1 X155.256 Y161.026 E.17414
G1 X153.867 Y161.129 E.16542
G1 X152.49 Y161.165 E.1636
G1 X97.509 Y161.165 E6.52983
G1 X96.028 Y161.124 E.17596
G1 X94.739 Y161.026 E.15353
G1 X93.467 Y160.871 E.15219
G1 X91.857 Y160.592 E.19406
G1 X90.59 Y160.306 E.15426
G1 X89.342 Y159.963 E.15372
G1 X87.951 Y159.509 E.17378
G1 X86.667 Y159.019 E.16322
G1 X85.398 Y158.462 E.16459
G1 X84.117 Y157.824 E.16996
G1 X82.834 Y157.102 E.17485
G1 X81.579 Y156.308 E.17638
G1 X80.431 Y155.497 E.16693
G1 X79.321 Y154.63 E.16728
G1 X78.237 Y153.693 E.17017
G1 X77.201 Y152.702 E.17027
G1 X76.215 Y151.661 E.17029
G1 X75.277 Y150.565 E.17133
G1 X74.484 Y149.544 E.15354
G1 X73.746 Y148.501 E.15175
G1 X72.924 Y147.209 E.18187
G1 X72.227 Y145.979 E.16791
G1 X71.575 Y144.682 E.17241
G1 X70.996 Y143.368 E.17054
G1 X70.477 Y142.011 E.17255
G1 X70.034 Y140.649 E.1701
G1 X69.662 Y139.278 E.16871
G1 X69.356 Y137.878 E.1702
G1 X69.134 Y136.571 E.15745
G1 X68.974 Y135.252 E.1578
